( ./gcode_splitter_sidemill.py )
G94 ( Millimeters per minute feed rate )
G21 ( Units == Millimeters )
G90 ( Absolute coordinates )
G0 S10000 ( RPM spindle speed )
G1 F200 ( Feedrate )
G0 Z3 ( Retract to tool change height )
T0
M5 ( Spindle stop )
G4 P1 ( Wait for spindle to stop )
( MSG, Change tool bit to cutter diameter 2mm) )
M0 ( Temporary machine stop )
M3 ( Spindle on clockwise )
G4 P1 ( Wait for spindle to get up to speed )
G0 Z3 ( Retract )
G0 X3 ( Retract )
G0 Y29.5 Z-3
G0 X3 ( Retract )
G0 Y29.5
G0 X-1 ( Plunge )
G1 F200 ( Set milling feed rate )
G1 Y-29.5
G0 X3 ( Retract )
G0 Y29.5
G0 X-2 ( Plunge )
G1 F200 ( Set milling feed rate )
G1 Y-29.5
G0 X3 ( Retract )
G0 Y29.5
G0 X-3 ( Plunge )
G1 F200 ( Set milling feed rate )
G1 Y-29.5
G0 X3 ( Retract )
G0 Y0
G0 X3 ( Retract )
G0 Y0 Z-28.5
G1 X-1 F80 ( Plunge )
G1 F200 ( Set milling feed rate )
G1 Y0 Z-28.5
G1 Y0 Z-28.5
G1 Y-0.1222 Z-28.4989
G1 Y-0.2443 Z-28.4957
G1 Y-0.3664 Z-28.4904
G1 Y-0.4883 Z-28.4829
G1 Y-0.6101 Z-28.4734
G1 Y-0.7317 Z-28.4617
G1 Y-0.8531 Z-28.4478
G1 Y-0.9742 Z-28.4319
G1 Y-1.095 Z-28.4138
G1 Y-1.2155 Z-28.3937
G1 Y-1.3357 Z-28.3714
G1 Y-1.4554 Z-28.347
G1 Y-1.5747 Z-28.3206
G1 Y-1.6935 Z-28.2921
G1 Y-1.8117 Z-28.2615
G1 Y-1.9295 Z-28.2288
G1 Y-2.0466 Z-28.1941
G1 Y-2.1631 Z-28.1574
G1 Y-2.279 Z-28.1186
G1 Y-2.3941 Z-28.0778
G1 Y-2.5086 Z-28.0351
G1 Y-2.6222 Z-27.9903
G1 Y-2.7351 Z-27.9435
G1 Y-2.8472 Z-27.8948
G1 Y-2.9583 Z-27.8442
G1 Y-3.0686 Z-27.7916
G1 Y-3.1779 Z-27.737
G1 Y-3.2863 Z-27.6806
G1 Y-3.3937 Z-27.6223
G1 Y-3.5 Z-27.5622
G1 Y-3.6053 Z-27.5002
G1 Y-3.7094 Z-27.4363
G1 Y-3.8125 Z-27.3707
G1 Y-3.9144 Z-27.3033
G1 Y-4.015 Z-27.2341
G1 Y-4.1145 Z-27.1631
G1 Y-4.2127 Z-27.0904
G1 Y-4.3096 Z-27.0161
G1 Y-4.4052 Z-26.94
G1 Y-4.4995 Z-26.8623
G1 Y-4.5924 Z-26.783
G1 Y-4.6839 Z-26.702
G1 Y-4.774 Z-26.6195
G1 Y-4.8626 Z-26.5354
G1 Y-4.9497 Z-26.4497
G1 Y-5.0354 Z-26.3626
G1 Y-5.1195 Z-26.274
G1 Y-5.202 Z-26.1839
G1 Y-5.283 Z-26.0924
G1 Y-5.3623 Z-25.9995
G1 Y-5.44 Z-25.9052
G1 Y-5.5161 Z-25.8096
G1 Y-5.5904 Z-25.7127
G1 Y-5.6631 Z-25.6145
G1 Y-5.7341 Z-25.515
G1 Y-5.8033 Z-25.4144
G1 Y-5.8707 Z-25.3125
G1 Y-5.9363 Z-25.2094
G1 Y-6.0002 Z-25.1053
G1 Y-6.0622 Z-25
G1 Y-6.1223 Z-24.8937
G1 Y-6.1806 Z-24.7863
G1 Y-6.237 Z-24.6779
G1 Y-6.2916 Z-24.5686
G1 Y-6.3442 Z-24.4583
G1 Y-6.3948 Z-24.3472
G1 Y-6.4435 Z-24.2351
G1 Y-6.4903 Z-24.1222
G1 Y-6.5351 Z-24.0086
G1 Y-6.5778 Z-23.8941
G1 Y-6.6186 Z-23.779
G1 Y-6.6574 Z-23.6631
G1 Y-6.6941 Z-23.5466
G1 Y-6.7288 Z-23.4295
G1 Y-6.7615 Z-23.3117
G1 Y-6.7921 Z-23.1935
G1 Y-6.8206 Z-23.0747
G1 Y-6.847 Z-22.9554
G1 Y-6.8714 Z-22.8357
G1 Y-6.8937 Z-22.7155
G1 Y-6.9138 Z-22.595
G1 Y-6.9319 Z-22.4742
G1 Y-6.9478 Z-22.3531
G1 Y-6.9617 Z-22.2317
G1 Y-6.9734 Z-22.1101
G1 Y-6.9829 Z-21.9883
G1 Y-6.9904 Z-21.8664
G1 Y-6.9957 Z-21.7443
G1 Y-6.9989 Z-21.6222
G1 Y-7 Z-21.5
G1 Y-6.9989 Z-21.3778
G1 Y-6.9957 Z-21.2557
G1 Y-6.9904 Z-21.1336
G1 Y-6.9829 Z-21.0117
G1 Y-6.9734 Z-20.8899
G1 Y-6.9617 Z-20.7683
G1 Y-6.9478 Z-20.6469
G1 Y-6.9319 Z-20.5258
G1 Y-6.9138 Z-20.405
G1 Y-6.8937 Z-20.2845
G1 Y-6.8714 Z-20.1643
G1 Y-6.847 Z-20.0446
G1 Y-6.8206 Z-19.9253
G1 Y-6.7921 Z-19.8065
G1 Y-6.7615 Z-19.6883
G1 Y-6.7288 Z-19.5705
G1 Y-6.6941 Z-19.4534
G1 Y-6.6574 Z-19.3369
G1 Y-6.6186 Z-19.221
G1 Y-6.5778 Z-19.1059
G1 Y-6.5351 Z-18.9914
G1 Y-6.4903 Z-18.8778
G1 Y-6.4435 Z-18.7649
G1 Y-6.3948 Z-18.6528
G1 Y-6.3442 Z-18.5417
G1 Y-6.2916 Z-18.4314
G1 Y-6.237 Z-18.3221
G1 Y-6.1806 Z-18.2137
G1 Y-6.1223 Z-18.1063
G1 Y-6.0622 Z-18
G1 Y-6.0002 Z-17.8947
G1 Y-5.9363 Z-17.7906
G1 Y-5.8707 Z-17.6875
G1 Y-5.8033 Z-17.5856
G1 Y-5.7341 Z-17.485
G1 Y-5.6631 Z-17.3855
G1 Y-5.5904 Z-17.2873
G1 Y-5.5161 Z-17.1904
G1 Y-5.44 Z-17.0948
G1 Y-5.3623 Z-17.0005
G1 Y-5.283 Z-16.9076
G1 Y-5.202 Z-16.8161
G1 Y-5.1195 Z-16.726
G1 Y-5.0354 Z-16.6374
G1 Y-4.9497 Z-16.5503
G1 Y-4.8626 Z-16.4646
G1 Y-4.774 Z-16.3805
G1 Y-4.6839 Z-16.298
G1 Y-4.5924 Z-16.217
G1 Y-4.4995 Z-16.1377
G1 Y-4.4052 Z-16.06
G1 Y-4.3096 Z-15.9839
G1 Y-4.2127 Z-15.9096
G1 Y-4.1145 Z-15.8369
G1 Y-4.015 Z-15.7659
G1 Y-3.9144 Z-15.6967
G1 Y-3.8125 Z-15.6293
G1 Y-3.7094 Z-15.5637
G1 Y-3.6053 Z-15.4998
G1 Y-3.5 Z-15.4378
G1 Y-3.3937 Z-15.3777
G1 Y-3.2863 Z-15.3194
G1 Y-3.1779 Z-15.263
G1 Y-3.0686 Z-15.2084
G1 Y-2.9583 Z-15.1558
G1 Y-2.8472 Z-15.1052
G1 Y-2.7351 Z-15.0565
G1 Y-2.6222 Z-15.0097
G1 Y-2.5086 Z-14.9649
G1 Y-2.3941 Z-14.9222
G1 Y-2.279 Z-14.8814
G1 Y-2.1631 Z-14.8426
G1 Y-2.0466 Z-14.8059
G1 Y-1.9295 Z-14.7712
G1 Y-1.8117 Z-14.7385
G1 Y-1.6935 Z-14.7079
G1 Y-1.5747 Z-14.6794
G1 Y-1.4554 Z-14.653
G1 Y-1.3357 Z-14.6286
G1 Y-1.2155 Z-14.6063
G1 Y-1.095 Z-14.5862
G1 Y-0.9742 Z-14.5681
G1 Y-0.8531 Z-14.5522
G1 Y-0.7317 Z-14.5383
G1 Y-0.6101 Z-14.5266
G1 Y-0.4883 Z-14.5171
G1 Y-0.3664 Z-14.5096
G1 Y-0.2443 Z-14.5043
G1 Y-0.1222 Z-14.5011
G1 Y-0 Z-14.5
G1 Y0.1222 Z-14.5011
G1 Y0.2443 Z-14.5043
G1 Y0.3664 Z-14.5096
G1 Y0.4883 Z-14.5171
G1 Y0.6101 Z-14.5266
G1 Y0.7317 Z-14.5383
G1 Y0.8531 Z-14.5522
G1 Y0.9742 Z-14.5681
G1 Y1.095 Z-14.5862
G1 Y1.2155 Z-14.6063
G1 Y1.3357 Z-14.6286
G1 Y1.4554 Z-14.653
G1 Y1.5747 Z-14.6794
G1 Y1.6935 Z-14.7079
G1 Y1.8117 Z-14.7385
G1 Y1.9295 Z-14.7712
G1 Y2.0466 Z-14.8059
G1 Y2.1631 Z-14.8426
G1 Y2.279 Z-14.8814
G1 Y2.3941 Z-14.9222
G1 Y2.5086 Z-14.9649
G1 Y2.6222 Z-15.0097
G1 Y2.7351 Z-15.0565
G1 Y2.8472 Z-15.1052
G1 Y2.9583 Z-15.1558
G1 Y3.0686 Z-15.2084
G1 Y3.1779 Z-15.263
G1 Y3.2863 Z-15.3194
G1 Y3.3937 Z-15.3777
G1 Y3.5 Z-15.4378
G1 Y3.6053 Z-15.4998
G1 Y3.7094 Z-15.5637
G1 Y3.8125 Z-15.6293
G1 Y3.9144 Z-15.6967
G1 Y4.015 Z-15.7659
G1 Y4.1145 Z-15.8369
G1 Y4.2127 Z-15.9096
G1 Y4.3096 Z-15.9839
G1 Y4.4052 Z-16.06
G1 Y4.4995 Z-16.1377
G1 Y4.5924 Z-16.217
G1 Y4.6839 Z-16.298
G1 Y4.774 Z-16.3805
G1 Y4.8626 Z-16.4646
G1 Y4.9497 Z-16.5503
G1 Y5.0354 Z-16.6374
G1 Y5.1195 Z-16.726
G1 Y5.202 Z-16.8161
G1 Y5.283 Z-16.9076
G1 Y5.3623 Z-17.0005
G1 Y5.44 Z-17.0948
G1 Y5.5161 Z-17.1904
G1 Y5.5904 Z-17.2873
G1 Y5.6631 Z-17.3855
G1 Y5.7341 Z-17.485
G1 Y5.8033 Z-17.5856
G1 Y5.8707 Z-17.6875
G1 Y5.9363 Z-17.7906
G1 Y6.0002 Z-17.8947
G1 Y6.0622 Z-18
G1 Y6.1223 Z-18.1063
G1 Y6.1806 Z-18.2137
G1 Y6.237 Z-18.3221
G1 Y6.2916 Z-18.4314
G1 Y6.3442 Z-18.5417
G1 Y6.3948 Z-18.6528
G1 Y6.4435 Z-18.7649
G1 Y6.4903 Z-18.8778
G1 Y6.5351 Z-18.9914
G1 Y6.5778 Z-19.1059
G1 Y6.6186 Z-19.221
G1 Y6.6574 Z-19.3369
G1 Y6.6941 Z-19.4534
G1 Y6.7288 Z-19.5705
G1 Y6.7615 Z-19.6883
G1 Y6.7921 Z-19.8065
G1 Y6.8206 Z-19.9253
G1 Y6.847 Z-20.0446
G1 Y6.8714 Z-20.1643
G1 Y6.8937 Z-20.2845
G1 Y6.9138 Z-20.405
G1 Y6.9319 Z-20.5258
G1 Y6.9478 Z-20.6469
G1 Y6.9617 Z-20.7683
G1 Y6.9734 Z-20.8899
G1 Y6.9829 Z-21.0117
G1 Y6.9904 Z-21.1336
G1 Y6.9957 Z-21.2557
G1 Y6.9989 Z-21.3778
G1 Y7 Z-21.5
G1 Y6.9989 Z-21.6222
G1 Y6.9957 Z-21.7443
G1 Y6.9904 Z-21.8664
G1 Y6.9829 Z-21.9883
G1 Y6.9734 Z-22.1101
G1 Y6.9617 Z-22.2317
G1 Y6.9478 Z-22.3531
G1 Y6.9319 Z-22.4742
G1 Y6.9138 Z-22.595
G1 Y6.8937 Z-22.7155
G1 Y6.8714 Z-22.8357
G1 Y6.847 Z-22.9554
G1 Y6.8206 Z-23.0747
G1 Y6.7921 Z-23.1935
G1 Y6.7615 Z-23.3117
G1 Y6.7288 Z-23.4295
G1 Y6.6941 Z-23.5466
G1 Y6.6574 Z-23.6631
G1 Y6.6186 Z-23.779
G1 Y6.5778 Z-23.8941
G1 Y6.5351 Z-24.0086
G1 Y6.4903 Z-24.1222
G1 Y6.4435 Z-24.2351
G1 Y6.3948 Z-24.3472
G1 Y6.3442 Z-24.4583
G1 Y6.2916 Z-24.5686
G1 Y6.237 Z-24.6779
G1 Y6.1806 Z-24.7863
G1 Y6.1223 Z-24.8937
G1 Y6.0622 Z-25
G1 Y6.0002 Z-25.1053
G1 Y5.9363 Z-25.2094
G1 Y5.8707 Z-25.3125
G1 Y5.8033 Z-25.4144
G1 Y5.7341 Z-25.515
G1 Y5.6631 Z-25.6145
G1 Y5.5904 Z-25.7127
G1 Y5.5161 Z-25.8096
G1 Y5.44 Z-25.9052
G1 Y5.3623 Z-25.9995
G1 Y5.283 Z-26.0924
G1 Y5.202 Z-26.1839
G1 Y5.1195 Z-26.274
G1 Y5.0354 Z-26.3626
G1 Y4.9497 Z-26.4497
G1 Y4.8626 Z-26.5354
G1 Y4.774 Z-26.6195
G1 Y4.6839 Z-26.702
G1 Y4.5924 Z-26.783
G1 Y4.4995 Z-26.8623
G1 Y4.4052 Z-26.94
G1 Y4.3096 Z-27.0161
G1 Y4.2127 Z-27.0904
G1 Y4.1145 Z-27.1631
G1 Y4.015 Z-27.2341
G1 Y3.9144 Z-27.3033
G1 Y3.8125 Z-27.3707
G1 Y3.7094 Z-27.4363
G1 Y3.6053 Z-27.5002
G1 Y3.5 Z-27.5622
G1 Y3.3937 Z-27.6223
G1 Y3.2863 Z-27.6806
G1 Y3.1779 Z-27.737
G1 Y3.0686 Z-27.7916
G1 Y2.9583 Z-27.8442
G1 Y2.8472 Z-27.8948
G1 Y2.7351 Z-27.9435
G1 Y2.6222 Z-27.9903
G1 Y2.5086 Z-28.0351
G1 Y2.3941 Z-28.0778
G1 Y2.279 Z-28.1186
G1 Y2.1631 Z-28.1574
G1 Y2.0466 Z-28.1941
G1 Y1.9295 Z-28.2288
G1 Y1.8117 Z-28.2615
G1 Y1.6935 Z-28.2921
G1 Y1.5747 Z-28.3206
G1 Y1.4554 Z-28.347
G1 Y1.3357 Z-28.3714
G1 Y1.2155 Z-28.3937
G1 Y1.095 Z-28.4138
G1 Y0.9742 Z-28.4319
G1 Y0.8531 Z-28.4478
G1 Y0.7317 Z-28.4617
G1 Y0.6101 Z-28.4734
G1 Y0.4883 Z-28.4829
G1 Y0.3664 Z-28.4904
G1 Y0.2443 Z-28.4957
G1 Y0.1222 Z-28.4989
G1 Y0 Z-28.5
G1 X-2 F80 ( Plunge )
G1 F200 ( Set milling feed rate )
G1 Y0 Z-28.5
G1 Y0 Z-28.5
G1 Y-0.1222 Z-28.4989
G1 Y-0.2443 Z-28.4957
G1 Y-0.3664 Z-28.4904
G1 Y-0.4883 Z-28.4829
G1 Y-0.6101 Z-28.4734
G1 Y-0.7317 Z-28.4617
G1 Y-0.8531 Z-28.4478
G1 Y-0.9742 Z-28.4319
G1 Y-1.095 Z-28.4138
G1 Y-1.2155 Z-28.3937
G1 Y-1.3357 Z-28.3714
G1 Y-1.4554 Z-28.347
G1 Y-1.5747 Z-28.3206
G1 Y-1.6935 Z-28.2921
G1 Y-1.8117 Z-28.2615
G1 Y-1.9295 Z-28.2288
G1 Y-2.0466 Z-28.1941
G1 Y-2.1631 Z-28.1574
G1 Y-2.279 Z-28.1186
G1 Y-2.3941 Z-28.0778
G1 Y-2.5086 Z-28.0351
G1 Y-2.6222 Z-27.9903
G1 Y-2.7351 Z-27.9435
G1 Y-2.8472 Z-27.8948
G1 Y-2.9583 Z-27.8442
G1 Y-3.0686 Z-27.7916
G1 Y-3.1779 Z-27.737
G1 Y-3.2863 Z-27.6806
G1 Y-3.3937 Z-27.6223
G1 Y-3.5 Z-27.5622
G1 Y-3.6053 Z-27.5002
G1 Y-3.7094 Z-27.4363
G1 Y-3.8125 Z-27.3707
G1 Y-3.9144 Z-27.3033
G1 Y-4.015 Z-27.2341
G1 Y-4.1145 Z-27.1631
G1 Y-4.2127 Z-27.0904
G1 Y-4.3096 Z-27.0161
G1 Y-4.4052 Z-26.94
G1 Y-4.4995 Z-26.8623
G1 Y-4.5924 Z-26.783
G1 Y-4.6839 Z-26.702
G1 Y-4.774 Z-26.6195
G1 Y-4.8626 Z-26.5354
G1 Y-4.9497 Z-26.4497
G1 Y-5.0354 Z-26.3626
G1 Y-5.1195 Z-26.274
G1 Y-5.202 Z-26.1839
G1 Y-5.283 Z-26.0924
G1 Y-5.3623 Z-25.9995
G1 Y-5.44 Z-25.9052
G1 Y-5.5161 Z-25.8096
G1 Y-5.5904 Z-25.7127
G1 Y-5.6631 Z-25.6145
G1 Y-5.7341 Z-25.515
G1 Y-5.8033 Z-25.4144
G1 Y-5.8707 Z-25.3125
G1 Y-5.9363 Z-25.2094
G1 Y-6.0002 Z-25.1053
G1 Y-6.0622 Z-25
G1 Y-6.1223 Z-24.8937
G1 Y-6.1806 Z-24.7863
G1 Y-6.237 Z-24.6779
G1 Y-6.2916 Z-24.5686
G1 Y-6.3442 Z-24.4583
G1 Y-6.3948 Z-24.3472
G1 Y-6.4435 Z-24.2351
G1 Y-6.4903 Z-24.1222
G1 Y-6.5351 Z-24.0086
G1 Y-6.5778 Z-23.8941
G1 Y-6.6186 Z-23.779
G1 Y-6.6574 Z-23.6631
G1 Y-6.6941 Z-23.5466
G1 Y-6.7288 Z-23.4295
G1 Y-6.7615 Z-23.3117
G1 Y-6.7921 Z-23.1935
G1 Y-6.8206 Z-23.0747
G1 Y-6.847 Z-22.9554
G1 Y-6.8714 Z-22.8357
G1 Y-6.8937 Z-22.7155
G1 Y-6.9138 Z-22.595
G1 Y-6.9319 Z-22.4742
G1 Y-6.9478 Z-22.3531
G1 Y-6.9617 Z-22.2317
G1 Y-6.9734 Z-22.1101
G1 Y-6.9829 Z-21.9883
G1 Y-6.9904 Z-21.8664
G1 Y-6.9957 Z-21.7443
G1 Y-6.9989 Z-21.6222
G1 Y-7 Z-21.5
G1 Y-6.9989 Z-21.3778
G1 Y-6.9957 Z-21.2557
G1 Y-6.9904 Z-21.1336
G1 Y-6.9829 Z-21.0117
G1 Y-6.9734 Z-20.8899
G1 Y-6.9617 Z-20.7683
G1 Y-6.9478 Z-20.6469
G1 Y-6.9319 Z-20.5258
G1 Y-6.9138 Z-20.405
G1 Y-6.8937 Z-20.2845
G1 Y-6.8714 Z-20.1643
G1 Y-6.847 Z-20.0446
G1 Y-6.8206 Z-19.9253
G1 Y-6.7921 Z-19.8065
G1 Y-6.7615 Z-19.6883
G1 Y-6.7288 Z-19.5705
G1 Y-6.6941 Z-19.4534
G1 Y-6.6574 Z-19.3369
G1 Y-6.6186 Z-19.221
G1 Y-6.5778 Z-19.1059
G1 Y-6.5351 Z-18.9914
G1 Y-6.4903 Z-18.8778
G1 Y-6.4435 Z-18.7649
G1 Y-6.3948 Z-18.6528
G1 Y-6.3442 Z-18.5417
G1 Y-6.2916 Z-18.4314
G1 Y-6.237 Z-18.3221
G1 Y-6.1806 Z-18.2137
G1 Y-6.1223 Z-18.1063
G1 Y-6.0622 Z-18
G1 Y-6.0002 Z-17.8947
G1 Y-5.9363 Z-17.7906
G1 Y-5.8707 Z-17.6875
G1 Y-5.8033 Z-17.5856
G1 Y-5.7341 Z-17.485
G1 Y-5.6631 Z-17.3855
G1 Y-5.5904 Z-17.2873
G1 Y-5.5161 Z-17.1904
G1 Y-5.44 Z-17.0948
G1 Y-5.3623 Z-17.0005
G1 Y-5.283 Z-16.9076
G1 Y-5.202 Z-16.8161
G1 Y-5.1195 Z-16.726
G1 Y-5.0354 Z-16.6374
G1 Y-4.9497 Z-16.5503
G1 Y-4.8626 Z-16.4646
G1 Y-4.774 Z-16.3805
G1 Y-4.6839 Z-16.298
G1 Y-4.5924 Z-16.217
G1 Y-4.4995 Z-16.1377
G1 Y-4.4052 Z-16.06
G1 Y-4.3096 Z-15.9839
G1 Y-4.2127 Z-15.9096
G1 Y-4.1145 Z-15.8369
G1 Y-4.015 Z-15.7659
G1 Y-3.9144 Z-15.6967
G1 Y-3.8125 Z-15.6293
G1 Y-3.7094 Z-15.5637
G1 Y-3.6053 Z-15.4998
G1 Y-3.5 Z-15.4378
G1 Y-3.3937 Z-15.3777
G1 Y-3.2863 Z-15.3194
G1 Y-3.1779 Z-15.263
G1 Y-3.0686 Z-15.2084
G1 Y-2.9583 Z-15.1558
G1 Y-2.8472 Z-15.1052
G1 Y-2.7351 Z-15.0565
G1 Y-2.6222 Z-15.0097
G1 Y-2.5086 Z-14.9649
G1 Y-2.3941 Z-14.9222
G1 Y-2.279 Z-14.8814
G1 Y-2.1631 Z-14.8426
G1 Y-2.0466 Z-14.8059
G1 Y-1.9295 Z-14.7712
G1 Y-1.8117 Z-14.7385
G1 Y-1.6935 Z-14.7079
G1 Y-1.5747 Z-14.6794
G1 Y-1.4554 Z-14.653
G1 Y-1.3357 Z-14.6286
G1 Y-1.2155 Z-14.6063
G1 Y-1.095 Z-14.5862
G1 Y-0.9742 Z-14.5681
G1 Y-0.8531 Z-14.5522
G1 Y-0.7317 Z-14.5383
G1 Y-0.6101 Z-14.5266
G1 Y-0.4883 Z-14.5171
G1 Y-0.3664 Z-14.5096
G1 Y-0.2443 Z-14.5043
G1 Y-0.1222 Z-14.5011
G1 Y-0 Z-14.5
G1 Y0.1222 Z-14.5011
G1 Y0.2443 Z-14.5043
G1 Y0.3664 Z-14.5096
G1 Y0.4883 Z-14.5171
G1 Y0.6101 Z-14.5266
G1 Y0.7317 Z-14.5383
G1 Y0.8531 Z-14.5522
G1 Y0.9742 Z-14.5681
G1 Y1.095 Z-14.5862
G1 Y1.2155 Z-14.6063
G1 Y1.3357 Z-14.6286
G1 Y1.4554 Z-14.653
G1 Y1.5747 Z-14.6794
G1 Y1.6935 Z-14.7079
G1 Y1.8117 Z-14.7385
G1 Y1.9295 Z-14.7712
G1 Y2.0466 Z-14.8059
G1 Y2.1631 Z-14.8426
G1 Y2.279 Z-14.8814
G1 Y2.3941 Z-14.9222
G1 Y2.5086 Z-14.9649
G1 Y2.6222 Z-15.0097
G1 Y2.7351 Z-15.0565
G1 Y2.8472 Z-15.1052
G1 Y2.9583 Z-15.1558
G1 Y3.0686 Z-15.2084
G1 Y3.1779 Z-15.263
G1 Y3.2863 Z-15.3194
G1 Y3.3937 Z-15.3777
G1 Y3.5 Z-15.4378
G1 Y3.6053 Z-15.4998
G1 Y3.7094 Z-15.5637
G1 Y3.8125 Z-15.6293
G1 Y3.9144 Z-15.6967
G1 Y4.015 Z-15.7659
G1 Y4.1145 Z-15.8369
G1 Y4.2127 Z-15.9096
G1 Y4.3096 Z-15.9839
G1 Y4.4052 Z-16.06
G1 Y4.4995 Z-16.1377
G1 Y4.5924 Z-16.217
G1 Y4.6839 Z-16.298
G1 Y4.774 Z-16.3805
G1 Y4.8626 Z-16.4646
G1 Y4.9497 Z-16.5503
G1 Y5.0354 Z-16.6374
G1 Y5.1195 Z-16.726
G1 Y5.202 Z-16.8161
G1 Y5.283 Z-16.9076
G1 Y5.3623 Z-17.0005
G1 Y5.44 Z-17.0948
G1 Y5.5161 Z-17.1904
G1 Y5.5904 Z-17.2873
G1 Y5.6631 Z-17.3855
G1 Y5.7341 Z-17.485
G1 Y5.8033 Z-17.5856
G1 Y5.8707 Z-17.6875
G1 Y5.9363 Z-17.7906
G1 Y6.0002 Z-17.8947
G1 Y6.0622 Z-18
G1 Y6.1223 Z-18.1063
G1 Y6.1806 Z-18.2137
G1 Y6.237 Z-18.3221
G1 Y6.2916 Z-18.4314
G1 Y6.3442 Z-18.5417
G1 Y6.3948 Z-18.6528
G1 Y6.4435 Z-18.7649
G1 Y6.4903 Z-18.8778
G1 Y6.5351 Z-18.9914
G1 Y6.5778 Z-19.1059
G1 Y6.6186 Z-19.221
G1 Y6.6574 Z-19.3369
G1 Y6.6941 Z-19.4534
G1 Y6.7288 Z-19.5705
G1 Y6.7615 Z-19.6883
G1 Y6.7921 Z-19.8065
G1 Y6.8206 Z-19.9253
G1 Y6.847 Z-20.0446
G1 Y6.8714 Z-20.1643
G1 Y6.8937 Z-20.2845
G1 Y6.9138 Z-20.405
G1 Y6.9319 Z-20.5258
G1 Y6.9478 Z-20.6469
G1 Y6.9617 Z-20.7683
G1 Y6.9734 Z-20.8899
G1 Y6.9829 Z-21.0117
G1 Y6.9904 Z-21.1336
G1 Y6.9957 Z-21.2557
G1 Y6.9989 Z-21.3778
G1 Y7 Z-21.5
G1 Y6.9989 Z-21.6222
G1 Y6.9957 Z-21.7443
G1 Y6.9904 Z-21.8664
G1 Y6.9829 Z-21.9883
G1 Y6.9734 Z-22.1101
G1 Y6.9617 Z-22.2317
G1 Y6.9478 Z-22.3531
G1 Y6.9319 Z-22.4742
G1 Y6.9138 Z-22.595
G1 Y6.8937 Z-22.7155
G1 Y6.8714 Z-22.8357
G1 Y6.847 Z-22.9554
G1 Y6.8206 Z-23.0747
G1 Y6.7921 Z-23.1935
G1 Y6.7615 Z-23.3117
G1 Y6.7288 Z-23.4295
G1 Y6.6941 Z-23.5466
G1 Y6.6574 Z-23.6631
G1 Y6.6186 Z-23.779
G1 Y6.5778 Z-23.8941
G1 Y6.5351 Z-24.0086
G1 Y6.4903 Z-24.1222
G1 Y6.4435 Z-24.2351
G1 Y6.3948 Z-24.3472
G1 Y6.3442 Z-24.4583
G1 Y6.2916 Z-24.5686
G1 Y6.237 Z-24.6779
G1 Y6.1806 Z-24.7863
G1 Y6.1223 Z-24.8937
G1 Y6.0622 Z-25
G1 Y6.0002 Z-25.1053
G1 Y5.9363 Z-25.2094
G1 Y5.8707 Z-25.3125
G1 Y5.8033 Z-25.4144
G1 Y5.7341 Z-25.515
G1 Y5.6631 Z-25.6145
G1 Y5.5904 Z-25.7127
G1 Y5.5161 Z-25.8096
G1 Y5.44 Z-25.9052
G1 Y5.3623 Z-25.9995
G1 Y5.283 Z-26.0924
G1 Y5.202 Z-26.1839
G1 Y5.1195 Z-26.274
G1 Y5.0354 Z-26.3626
G1 Y4.9497 Z-26.4497
G1 Y4.8626 Z-26.5354
G1 Y4.774 Z-26.6195
G1 Y4.6839 Z-26.702
G1 Y4.5924 Z-26.783
G1 Y4.4995 Z-26.8623
G1 Y4.4052 Z-26.94
G1 Y4.3096 Z-27.0161
G1 Y4.2127 Z-27.0904
G1 Y4.1145 Z-27.1631
G1 Y4.015 Z-27.2341
G1 Y3.9144 Z-27.3033
G1 Y3.8125 Z-27.3707
G1 Y3.7094 Z-27.4363
G1 Y3.6053 Z-27.5002
G1 Y3.5 Z-27.5622
G1 Y3.3937 Z-27.6223
G1 Y3.2863 Z-27.6806
G1 Y3.1779 Z-27.737
G1 Y3.0686 Z-27.7916
G1 Y2.9583 Z-27.8442
G1 Y2.8472 Z-27.8948
G1 Y2.7351 Z-27.9435
G1 Y2.6222 Z-27.9903
G1 Y2.5086 Z-28.0351
G1 Y2.3941 Z-28.0778
G1 Y2.279 Z-28.1186
G1 Y2.1631 Z-28.1574
G1 Y2.0466 Z-28.1941
G1 Y1.9295 Z-28.2288
G1 Y1.8117 Z-28.2615
G1 Y1.6935 Z-28.2921
G1 Y1.5747 Z-28.3206
G1 Y1.4554 Z-28.347
G1 Y1.3357 Z-28.3714
G1 Y1.2155 Z-28.3937
G1 Y1.095 Z-28.4138
G1 Y0.9742 Z-28.4319
G1 Y0.8531 Z-28.4478
G1 Y0.7317 Z-28.4617
G1 Y0.6101 Z-28.4734
G1 Y0.4883 Z-28.4829
G1 Y0.3664 Z-28.4904
G1 Y0.2443 Z-28.4957
G1 Y0.1222 Z-28.4989
G1 Y0 Z-28.5
G1 X-3 F80 ( Plunge )
G1 F200 ( Set milling feed rate )
G1 Y0 Z-28.5
G1 Y0 Z-28.5
G1 Y-0.1222 Z-28.4989
G1 Y-0.2443 Z-28.4957
G1 Y-0.3664 Z-28.4904
G1 Y-0.4883 Z-28.4829
G1 Y-0.6101 Z-28.4734
G1 Y-0.7317 Z-28.4617
G1 Y-0.8531 Z-28.4478
G1 Y-0.9742 Z-28.4319
G1 Y-1.095 Z-28.4138
G1 Y-1.2155 Z-28.3937
G1 Y-1.3357 Z-28.3714
G1 Y-1.4554 Z-28.347
G1 Y-1.5747 Z-28.3206
G1 Y-1.6935 Z-28.2921
G1 Y-1.8117 Z-28.2615
G1 Y-1.9295 Z-28.2288
G1 Y-2.0466 Z-28.1941
G1 Y-2.1631 Z-28.1574
G1 Y-2.279 Z-28.1186
G1 Y-2.3941 Z-28.0778
G1 Y-2.5086 Z-28.0351
G1 Y-2.6222 Z-27.9903
G1 Y-2.7351 Z-27.9435
G1 Y-2.8472 Z-27.8948
G1 Y-2.9583 Z-27.8442
G1 Y-3.0686 Z-27.7916
G1 Y-3.1779 Z-27.737
G1 Y-3.2863 Z-27.6806
G1 Y-3.3937 Z-27.6223
G1 Y-3.5 Z-27.5622
G1 Y-3.6053 Z-27.5002
G1 Y-3.7094 Z-27.4363
G1 Y-3.8125 Z-27.3707
G1 Y-3.9144 Z-27.3033
G1 Y-4.015 Z-27.2341
G1 Y-4.1145 Z-27.1631
G1 Y-4.2127 Z-27.0904
G1 Y-4.3096 Z-27.0161
G1 Y-4.4052 Z-26.94
G1 Y-4.4995 Z-26.8623
G1 Y-4.5924 Z-26.783
G1 Y-4.6839 Z-26.702
G1 Y-4.774 Z-26.6195
G1 Y-4.8626 Z-26.5354
G1 Y-4.9497 Z-26.4497
G1 Y-5.0354 Z-26.3626
G1 Y-5.1195 Z-26.274
G1 Y-5.202 Z-26.1839
G1 Y-5.283 Z-26.0924
G1 Y-5.3623 Z-25.9995
G1 Y-5.44 Z-25.9052
G1 Y-5.5161 Z-25.8096
G1 Y-5.5904 Z-25.7127
G1 Y-5.6631 Z-25.6145
G1 Y-5.7341 Z-25.515
G1 Y-5.8033 Z-25.4144
G1 Y-5.8707 Z-25.3125
G1 Y-5.9363 Z-25.2094
G1 Y-6.0002 Z-25.1053
G1 Y-6.0622 Z-25
G1 Y-6.1223 Z-24.8937
G1 Y-6.1806 Z-24.7863
G1 Y-6.237 Z-24.6779
G1 Y-6.2916 Z-24.5686
G1 Y-6.3442 Z-24.4583
G1 Y-6.3948 Z-24.3472
G1 Y-6.4435 Z-24.2351
G1 Y-6.4903 Z-24.1222
G1 Y-6.5351 Z-24.0086
G1 Y-6.5778 Z-23.8941
G1 Y-6.6186 Z-23.779
G1 Y-6.6574 Z-23.6631
G1 Y-6.6941 Z-23.5466
G1 Y-6.7288 Z-23.4295
G1 Y-6.7615 Z-23.3117
G1 Y-6.7921 Z-23.1935
G1 Y-6.8206 Z-23.0747
G1 Y-6.847 Z-22.9554
G1 Y-6.8714 Z-22.8357
G1 Y-6.8937 Z-22.7155
G1 Y-6.9138 Z-22.595
G1 Y-6.9319 Z-22.4742
G1 Y-6.9478 Z-22.3531
G1 Y-6.9617 Z-22.2317
G1 Y-6.9734 Z-22.1101
G1 Y-6.9829 Z-21.9883
G1 Y-6.9904 Z-21.8664
G1 Y-6.9957 Z-21.7443
G1 Y-6.9989 Z-21.6222
G1 Y-7 Z-21.5
G1 Y-6.9989 Z-21.3778
G1 Y-6.9957 Z-21.2557
G1 Y-6.9904 Z-21.1336
G1 Y-6.9829 Z-21.0117
G1 Y-6.9734 Z-20.8899
G1 Y-6.9617 Z-20.7683
G1 Y-6.9478 Z-20.6469
G1 Y-6.9319 Z-20.5258
G1 Y-6.9138 Z-20.405
G1 Y-6.8937 Z-20.2845
G1 Y-6.8714 Z-20.1643
G1 Y-6.847 Z-20.0446
G1 Y-6.8206 Z-19.9253
G1 Y-6.7921 Z-19.8065
G1 Y-6.7615 Z-19.6883
G1 Y-6.7288 Z-19.5705
G1 Y-6.6941 Z-19.4534
G1 Y-6.6574 Z-19.3369
G1 Y-6.6186 Z-19.221
G1 Y-6.5778 Z-19.1059
G1 Y-6.5351 Z-18.9914
G1 Y-6.4903 Z-18.8778
G1 Y-6.4435 Z-18.7649
G1 Y-6.3948 Z-18.6528
G1 Y-6.3442 Z-18.5417
G1 Y-6.2916 Z-18.4314
G1 Y-6.237 Z-18.3221
G1 Y-6.1806 Z-18.2137
G1 Y-6.1223 Z-18.1063
G1 Y-6.0622 Z-18
G1 Y-6.0002 Z-17.8947
G1 Y-5.9363 Z-17.7906
G1 Y-5.8707 Z-17.6875
G1 Y-5.8033 Z-17.5856
G1 Y-5.7341 Z-17.485
G1 Y-5.6631 Z-17.3855
G1 Y-5.5904 Z-17.2873
G1 Y-5.5161 Z-17.1904
G1 Y-5.44 Z-17.0948
G1 Y-5.3623 Z-17.0005
G1 Y-5.283 Z-16.9076
G1 Y-5.202 Z-16.8161
G1 Y-5.1195 Z-16.726
G1 Y-5.0354 Z-16.6374
G1 Y-4.9497 Z-16.5503
G1 Y-4.8626 Z-16.4646
G1 Y-4.774 Z-16.3805
G1 Y-4.6839 Z-16.298
G1 Y-4.5924 Z-16.217
G1 Y-4.4995 Z-16.1377
G1 Y-4.4052 Z-16.06
G1 Y-4.3096 Z-15.9839
G1 Y-4.2127 Z-15.9096
G1 Y-4.1145 Z-15.8369
G1 Y-4.015 Z-15.7659
G1 Y-3.9144 Z-15.6967
G1 Y-3.8125 Z-15.6293
G1 Y-3.7094 Z-15.5637
G1 Y-3.6053 Z-15.4998
G1 Y-3.5 Z-15.4378
G1 Y-3.3937 Z-15.3777
G1 Y-3.2863 Z-15.3194
G1 Y-3.1779 Z-15.263
G1 Y-3.0686 Z-15.2084
G1 Y-2.9583 Z-15.1558
G1 Y-2.8472 Z-15.1052
G1 Y-2.7351 Z-15.0565
G1 Y-2.6222 Z-15.0097
G1 Y-2.5086 Z-14.9649
G1 Y-2.3941 Z-14.9222
G1 Y-2.279 Z-14.8814
G1 Y-2.1631 Z-14.8426
G1 Y-2.0466 Z-14.8059
G1 Y-1.9295 Z-14.7712
G1 Y-1.8117 Z-14.7385
G1 Y-1.6935 Z-14.7079
G1 Y-1.5747 Z-14.6794
G1 Y-1.4554 Z-14.653
G1 Y-1.3357 Z-14.6286
G1 Y-1.2155 Z-14.6063
G1 Y-1.095 Z-14.5862
G1 Y-0.9742 Z-14.5681
G1 Y-0.8531 Z-14.5522
G1 Y-0.7317 Z-14.5383
G1 Y-0.6101 Z-14.5266
G1 Y-0.4883 Z-14.5171
G1 Y-0.3664 Z-14.5096
G1 Y-0.2443 Z-14.5043
G1 Y-0.1222 Z-14.5011
G1 Y-0 Z-14.5
G1 Y0.1222 Z-14.5011
G1 Y0.2443 Z-14.5043
G1 Y0.3664 Z-14.5096
G1 Y0.4883 Z-14.5171
G1 Y0.6101 Z-14.5266
G1 Y0.7317 Z-14.5383
G1 Y0.8531 Z-14.5522
G1 Y0.9742 Z-14.5681
G1 Y1.095 Z-14.5862
G1 Y1.2155 Z-14.6063
G1 Y1.3357 Z-14.6286
G1 Y1.4554 Z-14.653
G1 Y1.5747 Z-14.6794
G1 Y1.6935 Z-14.7079
G1 Y1.8117 Z-14.7385
G1 Y1.9295 Z-14.7712
G1 Y2.0466 Z-14.8059
G1 Y2.1631 Z-14.8426
G1 Y2.279 Z-14.8814
G1 Y2.3941 Z-14.9222
G1 Y2.5086 Z-14.9649
G1 Y2.6222 Z-15.0097
G1 Y2.7351 Z-15.0565
G1 Y2.8472 Z-15.1052
G1 Y2.9583 Z-15.1558
G1 Y3.0686 Z-15.2084
G1 Y3.1779 Z-15.263
G1 Y3.2863 Z-15.3194
G1 Y3.3937 Z-15.3777
G1 Y3.5 Z-15.4378
G1 Y3.6053 Z-15.4998
G1 Y3.7094 Z-15.5637
G1 Y3.8125 Z-15.6293
G1 Y3.9144 Z-15.6967
G1 Y4.015 Z-15.7659
G1 Y4.1145 Z-15.8369
G1 Y4.2127 Z-15.9096
G1 Y4.3096 Z-15.9839
G1 Y4.4052 Z-16.06
G1 Y4.4995 Z-16.1377
G1 Y4.5924 Z-16.217
G1 Y4.6839 Z-16.298
G1 Y4.774 Z-16.3805
G1 Y4.8626 Z-16.4646
G1 Y4.9497 Z-16.5503
G1 Y5.0354 Z-16.6374
G1 Y5.1195 Z-16.726
G1 Y5.202 Z-16.8161
G1 Y5.283 Z-16.9076
G1 Y5.3623 Z-17.0005
G1 Y5.44 Z-17.0948
G1 Y5.5161 Z-17.1904
G1 Y5.5904 Z-17.2873
G1 Y5.6631 Z-17.3855
G1 Y5.7341 Z-17.485
G1 Y5.8033 Z-17.5856
G1 Y5.8707 Z-17.6875
G1 Y5.9363 Z-17.7906
G1 Y6.0002 Z-17.8947
G1 Y6.0622 Z-18
G1 Y6.1223 Z-18.1063
G1 Y6.1806 Z-18.2137
G1 Y6.237 Z-18.3221
G1 Y6.2916 Z-18.4314
G1 Y6.3442 Z-18.5417
G1 Y6.3948 Z-18.6528
G1 Y6.4435 Z-18.7649
G1 Y6.4903 Z-18.8778
G1 Y6.5351 Z-18.9914
G1 Y6.5778 Z-19.1059
G1 Y6.6186 Z-19.221
G1 Y6.6574 Z-19.3369
G1 Y6.6941 Z-19.4534
G1 Y6.7288 Z-19.5705
G1 Y6.7615 Z-19.6883
G1 Y6.7921 Z-19.8065
G1 Y6.8206 Z-19.9253
G1 Y6.847 Z-20.0446
G1 Y6.8714 Z-20.1643
G1 Y6.8937 Z-20.2845
G1 Y6.9138 Z-20.405
G1 Y6.9319 Z-20.5258
G1 Y6.9478 Z-20.6469
G1 Y6.9617 Z-20.7683
G1 Y6.9734 Z-20.8899
G1 Y6.9829 Z-21.0117
G1 Y6.9904 Z-21.1336
G1 Y6.9957 Z-21.2557
G1 Y6.9989 Z-21.3778
G1 Y7 Z-21.5
G1 Y6.9989 Z-21.6222
G1 Y6.9957 Z-21.7443
G1 Y6.9904 Z-21.8664
G1 Y6.9829 Z-21.9883
G1 Y6.9734 Z-22.1101
G1 Y6.9617 Z-22.2317
G1 Y6.9478 Z-22.3531
G1 Y6.9319 Z-22.4742
G1 Y6.9138 Z-22.595
G1 Y6.8937 Z-22.7155
G1 Y6.8714 Z-22.8357
G1 Y6.847 Z-22.9554
G1 Y6.8206 Z-23.0747
G1 Y6.7921 Z-23.1935
G1 Y6.7615 Z-23.3117
G1 Y6.7288 Z-23.4295
G1 Y6.6941 Z-23.5466
G1 Y6.6574 Z-23.6631
G1 Y6.6186 Z-23.779
G1 Y6.5778 Z-23.8941
G1 Y6.5351 Z-24.0086
G1 Y6.4903 Z-24.1222
G1 Y6.4435 Z-24.2351
G1 Y6.3948 Z-24.3472
G1 Y6.3442 Z-24.4583
G1 Y6.2916 Z-24.5686
G1 Y6.237 Z-24.6779
G1 Y6.1806 Z-24.7863
G1 Y6.1223 Z-24.8937
G1 Y6.0622 Z-25
G1 Y6.0002 Z-25.1053
G1 Y5.9363 Z-25.2094
G1 Y5.8707 Z-25.3125
G1 Y5.8033 Z-25.4144
G1 Y5.7341 Z-25.515
G1 Y5.6631 Z-25.6145
G1 Y5.5904 Z-25.7127
G1 Y5.5161 Z-25.8096
G1 Y5.44 Z-25.9052
G1 Y5.3623 Z-25.9995
G1 Y5.283 Z-26.0924
G1 Y5.202 Z-26.1839
G1 Y5.1195 Z-26.274
G1 Y5.0354 Z-26.3626
G1 Y4.9497 Z-26.4497
G1 Y4.8626 Z-26.5354
G1 Y4.774 Z-26.6195
G1 Y4.6839 Z-26.702
G1 Y4.5924 Z-26.783
G1 Y4.4995 Z-26.8623
G1 Y4.4052 Z-26.94
G1 Y4.3096 Z-27.0161
G1 Y4.2127 Z-27.0904
G1 Y4.1145 Z-27.1631
G1 Y4.015 Z-27.2341
G1 Y3.9144 Z-27.3033
G1 Y3.8125 Z-27.3707
G1 Y3.7094 Z-27.4363
G1 Y3.6053 Z-27.5002
G1 Y3.5 Z-27.5622
G1 Y3.3937 Z-27.6223
G1 Y3.2863 Z-27.6806
G1 Y3.1779 Z-27.737
G1 Y3.0686 Z-27.7916
G1 Y2.9583 Z-27.8442
G1 Y2.8472 Z-27.8948
G1 Y2.7351 Z-27.9435
G1 Y2.6222 Z-27.9903
G1 Y2.5086 Z-28.0351
G1 Y2.3941 Z-28.0778
G1 Y2.279 Z-28.1186
G1 Y2.1631 Z-28.1574
G1 Y2.0466 Z-28.1941
G1 Y1.9295 Z-28.2288
G1 Y1.8117 Z-28.2615
G1 Y1.6935 Z-28.2921
G1 Y1.5747 Z-28.3206
G1 Y1.4554 Z-28.347
G1 Y1.3357 Z-28.3714
G1 Y1.2155 Z-28.3937
G1 Y1.095 Z-28.4138
G1 Y0.9742 Z-28.4319
G1 Y0.8531 Z-28.4478
G1 Y0.7317 Z-28.4617
G1 Y0.6101 Z-28.4734
G1 Y0.4883 Z-28.4829
G1 Y0.3664 Z-28.4904
G1 Y0.2443 Z-28.4957
G1 Y0.1222 Z-28.4989
G1 Y0 Z-28.5
G0 X3 ( Retract )
G0 Y12.7 Z-21.5
G1 X-3 F80 ( Plunge )
G0 X3 ( Retract )
G0 Z3 ( Retract )
M5 ( Spindle off )
G4 P1 ( Wait for spindle to stop )
M9 ( Coolant off )
M2 ( Program end )
( end, rd=290.105 mm, rt=0.323033 min, md=320.945 mm, mt=1.69473 min )
