( ./gcode_splitter_sidemill.py )
G94 ( Millimeters per minute feed rate )
G21 ( Units == Millimeters )
G90 ( Absolute coordinates )
G0 S10000 ( RPM spindle speed )
G1 F200 ( Feedrate )
G0 Z3 ( Retract to tool change height )
T0
M5 ( Spindle stop )
G4 P1 ( Wait for spindle to stop )
( MSG, Change tool bit to cutter diameter 2mm) )
M0 ( Temporary machine stop )
M3 ( Spindle on clockwise )
G4 P1 ( Wait for spindle to get up to speed )
G0 Z3 ( Retract )
G0 X3 ( Retract )
G0 Y52.5 Z-4
G0 X3 ( Retract )
G0 Y52.5
G0 X-1 ( Plunge )
G1 F200 ( Set milling feed rate )
G1 Y-52.5
G0 X3 ( Retract )
G0 Y52.5
G0 X-2 ( Plunge )
G1 F200 ( Set milling feed rate )
G1 Y-52.5
G0 X3 ( Retract )
G0 Y52.5
G0 X-3 ( Plunge )
G1 F200 ( Set milling feed rate )
G1 Y-52.5
G0 X3 ( Retract )
G0 Y0
G0 X3 ( Retract )
G0 Y-20.32 Z-29.5
G1 X-1 F80 ( Plunge )
G1 F200 ( Set milling feed rate )
G1 Y-20.32 Z-29.5
G1 Y-20.32 Z-29.5
G1 Y-20.4422 Z-29.4989
G1 Y-20.5643 Z-29.4957
G1 Y-20.6864 Z-29.4904
G1 Y-20.8083 Z-29.4829
G1 Y-20.9301 Z-29.4734
G1 Y-21.0517 Z-29.4617
G1 Y-21.1731 Z-29.4478
G1 Y-21.2942 Z-29.4319
G1 Y-21.415 Z-29.4138
G1 Y-21.5355 Z-29.3937
G1 Y-21.6557 Z-29.3714
G1 Y-21.7754 Z-29.347
G1 Y-21.8947 Z-29.3206
G1 Y-22.0135 Z-29.2921
G1 Y-22.1317 Z-29.2615
G1 Y-22.2495 Z-29.2288
G1 Y-22.3666 Z-29.1941
G1 Y-22.4831 Z-29.1574
G1 Y-22.599 Z-29.1186
G1 Y-22.7141 Z-29.0778
G1 Y-22.8286 Z-29.0351
G1 Y-22.9422 Z-28.9903
G1 Y-23.0551 Z-28.9435
G1 Y-23.1672 Z-28.8948
G1 Y-23.2783 Z-28.8442
G1 Y-23.3886 Z-28.7916
G1 Y-23.4979 Z-28.737
G1 Y-23.6063 Z-28.6806
G1 Y-23.7137 Z-28.6223
G1 Y-23.82 Z-28.5622
G1 Y-23.9253 Z-28.5002
G1 Y-24.0294 Z-28.4363
G1 Y-24.1325 Z-28.3707
G1 Y-24.2344 Z-28.3033
G1 Y-24.335 Z-28.2341
G1 Y-24.4345 Z-28.1631
G1 Y-24.5327 Z-28.0904
G1 Y-24.6296 Z-28.0161
G1 Y-24.7252 Z-27.94
G1 Y-24.8195 Z-27.8623
G1 Y-24.9124 Z-27.783
G1 Y-25.0039 Z-27.702
G1 Y-25.094 Z-27.6195
G1 Y-25.1826 Z-27.5354
G1 Y-25.2697 Z-27.4497
G1 Y-25.3554 Z-27.3626
G1 Y-25.4395 Z-27.274
G1 Y-25.522 Z-27.1839
G1 Y-25.603 Z-27.0924
G1 Y-25.6823 Z-26.9995
G1 Y-25.76 Z-26.9052
G1 Y-25.8361 Z-26.8096
G1 Y-25.9104 Z-26.7127
G1 Y-25.9831 Z-26.6145
G1 Y-26.0541 Z-26.515
G1 Y-26.1233 Z-26.4144
G1 Y-26.1907 Z-26.3125
G1 Y-26.2563 Z-26.2094
G1 Y-26.3202 Z-26.1053
G1 Y-26.3822 Z-26
G1 Y-26.4423 Z-25.8937
G1 Y-26.5006 Z-25.7863
G1 Y-26.557 Z-25.6779
G1 Y-26.6116 Z-25.5686
G1 Y-26.6642 Z-25.4583
G1 Y-26.7148 Z-25.3472
G1 Y-26.7635 Z-25.2351
G1 Y-26.8103 Z-25.1222
G1 Y-26.8551 Z-25.0086
G1 Y-26.8978 Z-24.8941
G1 Y-26.9386 Z-24.779
G1 Y-26.9774 Z-24.6631
G1 Y-27.0141 Z-24.5466
G1 Y-27.0488 Z-24.4295
G1 Y-27.0815 Z-24.3117
G1 Y-27.1121 Z-24.1935
G1 Y-27.1406 Z-24.0747
G1 Y-27.167 Z-23.9554
G1 Y-27.1914 Z-23.8357
G1 Y-27.2137 Z-23.7155
G1 Y-27.2338 Z-23.595
G1 Y-27.2519 Z-23.4742
G1 Y-27.2678 Z-23.3531
G1 Y-27.2817 Z-23.2317
G1 Y-27.2934 Z-23.1101
G1 Y-27.3029 Z-22.9883
G1 Y-27.3104 Z-22.8664
G1 Y-27.3157 Z-22.7443
G1 Y-27.3189 Z-22.6222
G1 Y-27.32 Z-22.5
G1 Y-27.3189 Z-22.3778
G1 Y-27.3157 Z-22.2557
G1 Y-27.3104 Z-22.1336
G1 Y-27.3029 Z-22.0117
G1 Y-27.2934 Z-21.8899
G1 Y-27.2817 Z-21.7683
G1 Y-27.2678 Z-21.6469
G1 Y-27.2519 Z-21.5258
G1 Y-27.2338 Z-21.405
G1 Y-27.2137 Z-21.2845
G1 Y-27.1914 Z-21.1643
G1 Y-27.167 Z-21.0446
G1 Y-27.1406 Z-20.9253
G1 Y-27.1121 Z-20.8065
G1 Y-27.0815 Z-20.6883
G1 Y-27.0488 Z-20.5705
G1 Y-27.0141 Z-20.4534
G1 Y-26.9774 Z-20.3369
G1 Y-26.9386 Z-20.221
G1 Y-26.8978 Z-20.1059
G1 Y-26.8551 Z-19.9914
G1 Y-26.8103 Z-19.8778
G1 Y-26.7635 Z-19.7649
G1 Y-26.7148 Z-19.6528
G1 Y-26.6642 Z-19.5417
G1 Y-26.6116 Z-19.4314
G1 Y-26.557 Z-19.3221
G1 Y-26.5006 Z-19.2137
G1 Y-26.4423 Z-19.1063
G1 Y-26.3822 Z-19
G1 Y-26.3202 Z-18.8947
G1 Y-26.2563 Z-18.7906
G1 Y-26.1907 Z-18.6875
G1 Y-26.1233 Z-18.5856
G1 Y-26.0541 Z-18.485
G1 Y-25.9831 Z-18.3855
G1 Y-25.9104 Z-18.2873
G1 Y-25.8361 Z-18.1904
G1 Y-25.76 Z-18.0948
G1 Y-25.6823 Z-18.0005
G1 Y-25.603 Z-17.9076
G1 Y-25.522 Z-17.8161
G1 Y-25.4395 Z-17.726
G1 Y-25.3554 Z-17.6374
G1 Y-25.2697 Z-17.5503
G1 Y-25.1826 Z-17.4646
G1 Y-25.094 Z-17.3805
G1 Y-25.0039 Z-17.298
G1 Y-24.9124 Z-17.217
G1 Y-24.8195 Z-17.1377
G1 Y-24.7252 Z-17.06
G1 Y-24.6296 Z-16.9839
G1 Y-24.5327 Z-16.9096
G1 Y-24.4345 Z-16.8369
G1 Y-24.335 Z-16.7659
G1 Y-24.2344 Z-16.6967
G1 Y-24.1325 Z-16.6293
G1 Y-24.0294 Z-16.5637
G1 Y-23.9253 Z-16.4998
G1 Y-23.82 Z-16.4378
G1 Y-23.7137 Z-16.3777
G1 Y-23.6063 Z-16.3194
G1 Y-23.4979 Z-16.263
G1 Y-23.3886 Z-16.2084
G1 Y-23.2783 Z-16.1558
G1 Y-23.1672 Z-16.1052
G1 Y-23.0551 Z-16.0565
G1 Y-22.9422 Z-16.0097
G1 Y-22.8286 Z-15.9649
G1 Y-22.7141 Z-15.9222
G1 Y-22.599 Z-15.8814
G1 Y-22.4831 Z-15.8426
G1 Y-22.3666 Z-15.8059
G1 Y-22.2495 Z-15.7712
G1 Y-22.1317 Z-15.7385
G1 Y-22.0135 Z-15.7079
G1 Y-21.8947 Z-15.6794
G1 Y-21.7754 Z-15.653
G1 Y-21.6557 Z-15.6286
G1 Y-21.5355 Z-15.6063
G1 Y-21.415 Z-15.5862
G1 Y-21.2942 Z-15.5681
G1 Y-21.1731 Z-15.5522
G1 Y-21.0517 Z-15.5383
G1 Y-20.9301 Z-15.5266
G1 Y-20.8083 Z-15.5171
G1 Y-20.6864 Z-15.5096
G1 Y-20.5643 Z-15.5043
G1 Y-20.4422 Z-15.5011
G1 Y-20.32 Z-15.5
G1 Y-20.1978 Z-15.5011
G1 Y-20.0757 Z-15.5043
G1 Y-19.9536 Z-15.5096
G1 Y-19.8317 Z-15.5171
G1 Y-19.7099 Z-15.5266
G1 Y-19.5883 Z-15.5383
G1 Y-19.4669 Z-15.5522
G1 Y-19.3458 Z-15.5681
G1 Y-19.225 Z-15.5862
G1 Y-19.1045 Z-15.6063
G1 Y-18.9843 Z-15.6286
G1 Y-18.8646 Z-15.653
G1 Y-18.7453 Z-15.6794
G1 Y-18.6265 Z-15.7079
G1 Y-18.5083 Z-15.7385
G1 Y-18.3905 Z-15.7712
G1 Y-18.2734 Z-15.8059
G1 Y-18.1569 Z-15.8426
G1 Y-18.041 Z-15.8814
G1 Y-17.9259 Z-15.9222
G1 Y-17.8114 Z-15.9649
G1 Y-17.6978 Z-16.0097
G1 Y-17.5849 Z-16.0565
G1 Y-17.4728 Z-16.1052
G1 Y-17.3617 Z-16.1558
G1 Y-17.2514 Z-16.2084
G1 Y-17.1421 Z-16.263
G1 Y-17.0337 Z-16.3194
G1 Y-16.9263 Z-16.3777
G1 Y-16.82 Z-16.4378
G1 Y-16.7147 Z-16.4998
G1 Y-16.6106 Z-16.5637
G1 Y-16.5075 Z-16.6293
G1 Y-16.4056 Z-16.6967
G1 Y-16.305 Z-16.7659
G1 Y-16.2055 Z-16.8369
G1 Y-16.1073 Z-16.9096
G1 Y-16.0104 Z-16.9839
G1 Y-15.9148 Z-17.06
G1 Y-15.8205 Z-17.1377
G1 Y-15.7276 Z-17.217
G1 Y-15.6361 Z-17.298
G1 Y-15.546 Z-17.3805
G1 Y-15.4574 Z-17.4646
G1 Y-15.3703 Z-17.5503
G1 Y-15.2846 Z-17.6374
G1 Y-15.2005 Z-17.726
G1 Y-15.118 Z-17.8161
G1 Y-15.037 Z-17.9076
G1 Y-14.9577 Z-18.0005
G1 Y-14.88 Z-18.0948
G1 Y-14.8039 Z-18.1904
G1 Y-14.7296 Z-18.2873
G1 Y-14.6569 Z-18.3855
G1 Y-14.5859 Z-18.485
G1 Y-14.5167 Z-18.5856
G1 Y-14.4493 Z-18.6875
G1 Y-14.3837 Z-18.7906
G1 Y-14.3198 Z-18.8947
G1 Y-14.2578 Z-19
G1 Y-14.1977 Z-19.1063
G1 Y-14.1394 Z-19.2137
G1 Y-14.083 Z-19.3221
G1 Y-14.0284 Z-19.4314
G1 Y-13.9758 Z-19.5417
G1 Y-13.9252 Z-19.6528
G1 Y-13.8765 Z-19.7649
G1 Y-13.8297 Z-19.8778
G1 Y-13.7849 Z-19.9914
G1 Y-13.7422 Z-20.1059
G1 Y-13.7014 Z-20.221
G1 Y-13.6626 Z-20.3369
G1 Y-13.6259 Z-20.4534
G1 Y-13.5912 Z-20.5705
G1 Y-13.5585 Z-20.6883
G1 Y-13.5279 Z-20.8065
G1 Y-13.4994 Z-20.9253
G1 Y-13.473 Z-21.0446
G1 Y-13.4486 Z-21.1643
G1 Y-13.4263 Z-21.2845
G1 Y-13.4062 Z-21.405
G1 Y-13.3881 Z-21.5258
G1 Y-13.3722 Z-21.6469
G1 Y-13.3583 Z-21.7683
G1 Y-13.3466 Z-21.8899
G1 Y-13.3371 Z-22.0117
G1 Y-13.3296 Z-22.1336
G1 Y-13.3243 Z-22.2557
G1 Y-13.3211 Z-22.3778
G1 Y-13.32 Z-22.5
G1 Y-13.3211 Z-22.6222
G1 Y-13.3243 Z-22.7443
G1 Y-13.3296 Z-22.8664
G1 Y-13.3371 Z-22.9883
G1 Y-13.3466 Z-23.1101
G1 Y-13.3583 Z-23.2317
G1 Y-13.3722 Z-23.3531
G1 Y-13.3881 Z-23.4742
G1 Y-13.4062 Z-23.595
G1 Y-13.4263 Z-23.7155
G1 Y-13.4486 Z-23.8357
G1 Y-13.473 Z-23.9554
G1 Y-13.4994 Z-24.0747
G1 Y-13.5279 Z-24.1935
G1 Y-13.5585 Z-24.3117
G1 Y-13.5912 Z-24.4295
G1 Y-13.6259 Z-24.5466
G1 Y-13.6626 Z-24.6631
G1 Y-13.7014 Z-24.779
G1 Y-13.7422 Z-24.8941
G1 Y-13.7849 Z-25.0086
G1 Y-13.8297 Z-25.1222
G1 Y-13.8765 Z-25.2351
G1 Y-13.9252 Z-25.3472
G1 Y-13.9758 Z-25.4583
G1 Y-14.0284 Z-25.5686
G1 Y-14.083 Z-25.6779
G1 Y-14.1394 Z-25.7863
G1 Y-14.1977 Z-25.8937
G1 Y-14.2578 Z-26
G1 Y-14.3198 Z-26.1053
G1 Y-14.3837 Z-26.2094
G1 Y-14.4493 Z-26.3125
G1 Y-14.5167 Z-26.4144
G1 Y-14.5859 Z-26.515
G1 Y-14.6569 Z-26.6145
G1 Y-14.7296 Z-26.7127
G1 Y-14.8039 Z-26.8096
G1 Y-14.88 Z-26.9052
G1 Y-14.9577 Z-26.9995
G1 Y-15.037 Z-27.0924
G1 Y-15.118 Z-27.1839
G1 Y-15.2005 Z-27.274
G1 Y-15.2846 Z-27.3626
G1 Y-15.3703 Z-27.4497
G1 Y-15.4574 Z-27.5354
G1 Y-15.546 Z-27.6195
G1 Y-15.6361 Z-27.702
G1 Y-15.7276 Z-27.783
G1 Y-15.8205 Z-27.8623
G1 Y-15.9148 Z-27.94
G1 Y-16.0104 Z-28.0161
G1 Y-16.1073 Z-28.0904
G1 Y-16.2055 Z-28.1631
G1 Y-16.305 Z-28.2341
G1 Y-16.4056 Z-28.3033
G1 Y-16.5075 Z-28.3707
G1 Y-16.6106 Z-28.4363
G1 Y-16.7147 Z-28.5002
G1 Y-16.82 Z-28.5622
G1 Y-16.9263 Z-28.6223
G1 Y-17.0337 Z-28.6806
G1 Y-17.1421 Z-28.737
G1 Y-17.2514 Z-28.7916
G1 Y-17.3617 Z-28.8442
G1 Y-17.4728 Z-28.8948
G1 Y-17.5849 Z-28.9435
G1 Y-17.6978 Z-28.9903
G1 Y-17.8114 Z-29.0351
G1 Y-17.9259 Z-29.0778
G1 Y-18.041 Z-29.1186
G1 Y-18.1569 Z-29.1574
G1 Y-18.2734 Z-29.1941
G1 Y-18.3905 Z-29.2288
G1 Y-18.5083 Z-29.2615
G1 Y-18.6265 Z-29.2921
G1 Y-18.7453 Z-29.3206
G1 Y-18.8646 Z-29.347
G1 Y-18.9843 Z-29.3714
G1 Y-19.1045 Z-29.3937
G1 Y-19.225 Z-29.4138
G1 Y-19.3458 Z-29.4319
G1 Y-19.4669 Z-29.4478
G1 Y-19.5883 Z-29.4617
G1 Y-19.7099 Z-29.4734
G1 Y-19.8317 Z-29.4829
G1 Y-19.9536 Z-29.4904
G1 Y-20.0757 Z-29.4957
G1 Y-20.1978 Z-29.4989
G1 Y-20.32 Z-29.5
G1 X-2 F80 ( Plunge )
G1 F200 ( Set milling feed rate )
G1 Y-20.32 Z-29.5
G1 Y-20.32 Z-29.5
G1 Y-20.4422 Z-29.4989
G1 Y-20.5643 Z-29.4957
G1 Y-20.6864 Z-29.4904
G1 Y-20.8083 Z-29.4829
G1 Y-20.9301 Z-29.4734
G1 Y-21.0517 Z-29.4617
G1 Y-21.1731 Z-29.4478
G1 Y-21.2942 Z-29.4319
G1 Y-21.415 Z-29.4138
G1 Y-21.5355 Z-29.3937
G1 Y-21.6557 Z-29.3714
G1 Y-21.7754 Z-29.347
G1 Y-21.8947 Z-29.3206
G1 Y-22.0135 Z-29.2921
G1 Y-22.1317 Z-29.2615
G1 Y-22.2495 Z-29.2288
G1 Y-22.3666 Z-29.1941
G1 Y-22.4831 Z-29.1574
G1 Y-22.599 Z-29.1186
G1 Y-22.7141 Z-29.0778
G1 Y-22.8286 Z-29.0351
G1 Y-22.9422 Z-28.9903
G1 Y-23.0551 Z-28.9435
G1 Y-23.1672 Z-28.8948
G1 Y-23.2783 Z-28.8442
G1 Y-23.3886 Z-28.7916
G1 Y-23.4979 Z-28.737
G1 Y-23.6063 Z-28.6806
G1 Y-23.7137 Z-28.6223
G1 Y-23.82 Z-28.5622
G1 Y-23.9253 Z-28.5002
G1 Y-24.0294 Z-28.4363
G1 Y-24.1325 Z-28.3707
G1 Y-24.2344 Z-28.3033
G1 Y-24.335 Z-28.2341
G1 Y-24.4345 Z-28.1631
G1 Y-24.5327 Z-28.0904
G1 Y-24.6296 Z-28.0161
G1 Y-24.7252 Z-27.94
G1 Y-24.8195 Z-27.8623
G1 Y-24.9124 Z-27.783
G1 Y-25.0039 Z-27.702
G1 Y-25.094 Z-27.6195
G1 Y-25.1826 Z-27.5354
G1 Y-25.2697 Z-27.4497
G1 Y-25.3554 Z-27.3626
G1 Y-25.4395 Z-27.274
G1 Y-25.522 Z-27.1839
G1 Y-25.603 Z-27.0924
G1 Y-25.6823 Z-26.9995
G1 Y-25.76 Z-26.9052
G1 Y-25.8361 Z-26.8096
G1 Y-25.9104 Z-26.7127
G1 Y-25.9831 Z-26.6145
G1 Y-26.0541 Z-26.515
G1 Y-26.1233 Z-26.4144
G1 Y-26.1907 Z-26.3125
G1 Y-26.2563 Z-26.2094
G1 Y-26.3202 Z-26.1053
G1 Y-26.3822 Z-26
G1 Y-26.4423 Z-25.8937
G1 Y-26.5006 Z-25.7863
G1 Y-26.557 Z-25.6779
G1 Y-26.6116 Z-25.5686
G1 Y-26.6642 Z-25.4583
G1 Y-26.7148 Z-25.3472
G1 Y-26.7635 Z-25.2351
G1 Y-26.8103 Z-25.1222
G1 Y-26.8551 Z-25.0086
G1 Y-26.8978 Z-24.8941
G1 Y-26.9386 Z-24.779
G1 Y-26.9774 Z-24.6631
G1 Y-27.0141 Z-24.5466
G1 Y-27.0488 Z-24.4295
G1 Y-27.0815 Z-24.3117
G1 Y-27.1121 Z-24.1935
G1 Y-27.1406 Z-24.0747
G1 Y-27.167 Z-23.9554
G1 Y-27.1914 Z-23.8357
G1 Y-27.2137 Z-23.7155
G1 Y-27.2338 Z-23.595
G1 Y-27.2519 Z-23.4742
G1 Y-27.2678 Z-23.3531
G1 Y-27.2817 Z-23.2317
G1 Y-27.2934 Z-23.1101
G1 Y-27.3029 Z-22.9883
G1 Y-27.3104 Z-22.8664
G1 Y-27.3157 Z-22.7443
G1 Y-27.3189 Z-22.6222
G1 Y-27.32 Z-22.5
G1 Y-27.3189 Z-22.3778
G1 Y-27.3157 Z-22.2557
G1 Y-27.3104 Z-22.1336
G1 Y-27.3029 Z-22.0117
G1 Y-27.2934 Z-21.8899
G1 Y-27.2817 Z-21.7683
G1 Y-27.2678 Z-21.6469
G1 Y-27.2519 Z-21.5258
G1 Y-27.2338 Z-21.405
G1 Y-27.2137 Z-21.2845
G1 Y-27.1914 Z-21.1643
G1 Y-27.167 Z-21.0446
G1 Y-27.1406 Z-20.9253
G1 Y-27.1121 Z-20.8065
G1 Y-27.0815 Z-20.6883
G1 Y-27.0488 Z-20.5705
G1 Y-27.0141 Z-20.4534
G1 Y-26.9774 Z-20.3369
G1 Y-26.9386 Z-20.221
G1 Y-26.8978 Z-20.1059
G1 Y-26.8551 Z-19.9914
G1 Y-26.8103 Z-19.8778
G1 Y-26.7635 Z-19.7649
G1 Y-26.7148 Z-19.6528
G1 Y-26.6642 Z-19.5417
G1 Y-26.6116 Z-19.4314
G1 Y-26.557 Z-19.3221
G1 Y-26.5006 Z-19.2137
G1 Y-26.4423 Z-19.1063
G1 Y-26.3822 Z-19
G1 Y-26.3202 Z-18.8947
G1 Y-26.2563 Z-18.7906
G1 Y-26.1907 Z-18.6875
G1 Y-26.1233 Z-18.5856
G1 Y-26.0541 Z-18.485
G1 Y-25.9831 Z-18.3855
G1 Y-25.9104 Z-18.2873
G1 Y-25.8361 Z-18.1904
G1 Y-25.76 Z-18.0948
G1 Y-25.6823 Z-18.0005
G1 Y-25.603 Z-17.9076
G1 Y-25.522 Z-17.8161
G1 Y-25.4395 Z-17.726
G1 Y-25.3554 Z-17.6374
G1 Y-25.2697 Z-17.5503
G1 Y-25.1826 Z-17.4646
G1 Y-25.094 Z-17.3805
G1 Y-25.0039 Z-17.298
G1 Y-24.9124 Z-17.217
G1 Y-24.8195 Z-17.1377
G1 Y-24.7252 Z-17.06
G1 Y-24.6296 Z-16.9839
G1 Y-24.5327 Z-16.9096
G1 Y-24.4345 Z-16.8369
G1 Y-24.335 Z-16.7659
G1 Y-24.2344 Z-16.6967
G1 Y-24.1325 Z-16.6293
G1 Y-24.0294 Z-16.5637
G1 Y-23.9253 Z-16.4998
G1 Y-23.82 Z-16.4378
G1 Y-23.7137 Z-16.3777
G1 Y-23.6063 Z-16.3194
G1 Y-23.4979 Z-16.263
G1 Y-23.3886 Z-16.2084
G1 Y-23.2783 Z-16.1558
G1 Y-23.1672 Z-16.1052
G1 Y-23.0551 Z-16.0565
G1 Y-22.9422 Z-16.0097
G1 Y-22.8286 Z-15.9649
G1 Y-22.7141 Z-15.9222
G1 Y-22.599 Z-15.8814
G1 Y-22.4831 Z-15.8426
G1 Y-22.3666 Z-15.8059
G1 Y-22.2495 Z-15.7712
G1 Y-22.1317 Z-15.7385
G1 Y-22.0135 Z-15.7079
G1 Y-21.8947 Z-15.6794
G1 Y-21.7754 Z-15.653
G1 Y-21.6557 Z-15.6286
G1 Y-21.5355 Z-15.6063
G1 Y-21.415 Z-15.5862
G1 Y-21.2942 Z-15.5681
G1 Y-21.1731 Z-15.5522
G1 Y-21.0517 Z-15.5383
G1 Y-20.9301 Z-15.5266
G1 Y-20.8083 Z-15.5171
G1 Y-20.6864 Z-15.5096
G1 Y-20.5643 Z-15.5043
G1 Y-20.4422 Z-15.5011
G1 Y-20.32 Z-15.5
G1 Y-20.1978 Z-15.5011
G1 Y-20.0757 Z-15.5043
G1 Y-19.9536 Z-15.5096
G1 Y-19.8317 Z-15.5171
G1 Y-19.7099 Z-15.5266
G1 Y-19.5883 Z-15.5383
G1 Y-19.4669 Z-15.5522
G1 Y-19.3458 Z-15.5681
G1 Y-19.225 Z-15.5862
G1 Y-19.1045 Z-15.6063
G1 Y-18.9843 Z-15.6286
G1 Y-18.8646 Z-15.653
G1 Y-18.7453 Z-15.6794
G1 Y-18.6265 Z-15.7079
G1 Y-18.5083 Z-15.7385
G1 Y-18.3905 Z-15.7712
G1 Y-18.2734 Z-15.8059
G1 Y-18.1569 Z-15.8426
G1 Y-18.041 Z-15.8814
G1 Y-17.9259 Z-15.9222
G1 Y-17.8114 Z-15.9649
G1 Y-17.6978 Z-16.0097
G1 Y-17.5849 Z-16.0565
G1 Y-17.4728 Z-16.1052
G1 Y-17.3617 Z-16.1558
G1 Y-17.2514 Z-16.2084
G1 Y-17.1421 Z-16.263
G1 Y-17.0337 Z-16.3194
G1 Y-16.9263 Z-16.3777
G1 Y-16.82 Z-16.4378
G1 Y-16.7147 Z-16.4998
G1 Y-16.6106 Z-16.5637
G1 Y-16.5075 Z-16.6293
G1 Y-16.4056 Z-16.6967
G1 Y-16.305 Z-16.7659
G1 Y-16.2055 Z-16.8369
G1 Y-16.1073 Z-16.9096
G1 Y-16.0104 Z-16.9839
G1 Y-15.9148 Z-17.06
G1 Y-15.8205 Z-17.1377
G1 Y-15.7276 Z-17.217
G1 Y-15.6361 Z-17.298
G1 Y-15.546 Z-17.3805
G1 Y-15.4574 Z-17.4646
G1 Y-15.3703 Z-17.5503
G1 Y-15.2846 Z-17.6374
G1 Y-15.2005 Z-17.726
G1 Y-15.118 Z-17.8161
G1 Y-15.037 Z-17.9076
G1 Y-14.9577 Z-18.0005
G1 Y-14.88 Z-18.0948
G1 Y-14.8039 Z-18.1904
G1 Y-14.7296 Z-18.2873
G1 Y-14.6569 Z-18.3855
G1 Y-14.5859 Z-18.485
G1 Y-14.5167 Z-18.5856
G1 Y-14.4493 Z-18.6875
G1 Y-14.3837 Z-18.7906
G1 Y-14.3198 Z-18.8947
G1 Y-14.2578 Z-19
G1 Y-14.1977 Z-19.1063
G1 Y-14.1394 Z-19.2137
G1 Y-14.083 Z-19.3221
G1 Y-14.0284 Z-19.4314
G1 Y-13.9758 Z-19.5417
G1 Y-13.9252 Z-19.6528
G1 Y-13.8765 Z-19.7649
G1 Y-13.8297 Z-19.8778
G1 Y-13.7849 Z-19.9914
G1 Y-13.7422 Z-20.1059
G1 Y-13.7014 Z-20.221
G1 Y-13.6626 Z-20.3369
G1 Y-13.6259 Z-20.4534
G1 Y-13.5912 Z-20.5705
G1 Y-13.5585 Z-20.6883
G1 Y-13.5279 Z-20.8065
G1 Y-13.4994 Z-20.9253
G1 Y-13.473 Z-21.0446
G1 Y-13.4486 Z-21.1643
G1 Y-13.4263 Z-21.2845
G1 Y-13.4062 Z-21.405
G1 Y-13.3881 Z-21.5258
G1 Y-13.3722 Z-21.6469
G1 Y-13.3583 Z-21.7683
G1 Y-13.3466 Z-21.8899
G1 Y-13.3371 Z-22.0117
G1 Y-13.3296 Z-22.1336
G1 Y-13.3243 Z-22.2557
G1 Y-13.3211 Z-22.3778
G1 Y-13.32 Z-22.5
G1 Y-13.3211 Z-22.6222
G1 Y-13.3243 Z-22.7443
G1 Y-13.3296 Z-22.8664
G1 Y-13.3371 Z-22.9883
G1 Y-13.3466 Z-23.1101
G1 Y-13.3583 Z-23.2317
G1 Y-13.3722 Z-23.3531
G1 Y-13.3881 Z-23.4742
G1 Y-13.4062 Z-23.595
G1 Y-13.4263 Z-23.7155
G1 Y-13.4486 Z-23.8357
G1 Y-13.473 Z-23.9554
G1 Y-13.4994 Z-24.0747
G1 Y-13.5279 Z-24.1935
G1 Y-13.5585 Z-24.3117
G1 Y-13.5912 Z-24.4295
G1 Y-13.6259 Z-24.5466
G1 Y-13.6626 Z-24.6631
G1 Y-13.7014 Z-24.779
G1 Y-13.7422 Z-24.8941
G1 Y-13.7849 Z-25.0086
G1 Y-13.8297 Z-25.1222
G1 Y-13.8765 Z-25.2351
G1 Y-13.9252 Z-25.3472
G1 Y-13.9758 Z-25.4583
G1 Y-14.0284 Z-25.5686
G1 Y-14.083 Z-25.6779
G1 Y-14.1394 Z-25.7863
G1 Y-14.1977 Z-25.8937
G1 Y-14.2578 Z-26
G1 Y-14.3198 Z-26.1053
G1 Y-14.3837 Z-26.2094
G1 Y-14.4493 Z-26.3125
G1 Y-14.5167 Z-26.4144
G1 Y-14.5859 Z-26.515
G1 Y-14.6569 Z-26.6145
G1 Y-14.7296 Z-26.7127
G1 Y-14.8039 Z-26.8096
G1 Y-14.88 Z-26.9052
G1 Y-14.9577 Z-26.9995
G1 Y-15.037 Z-27.0924
G1 Y-15.118 Z-27.1839
G1 Y-15.2005 Z-27.274
G1 Y-15.2846 Z-27.3626
G1 Y-15.3703 Z-27.4497
G1 Y-15.4574 Z-27.5354
G1 Y-15.546 Z-27.6195
G1 Y-15.6361 Z-27.702
G1 Y-15.7276 Z-27.783
G1 Y-15.8205 Z-27.8623
G1 Y-15.9148 Z-27.94
G1 Y-16.0104 Z-28.0161
G1 Y-16.1073 Z-28.0904
G1 Y-16.2055 Z-28.1631
G1 Y-16.305 Z-28.2341
G1 Y-16.4056 Z-28.3033
G1 Y-16.5075 Z-28.3707
G1 Y-16.6106 Z-28.4363
G1 Y-16.7147 Z-28.5002
G1 Y-16.82 Z-28.5622
G1 Y-16.9263 Z-28.6223
G1 Y-17.0337 Z-28.6806
G1 Y-17.1421 Z-28.737
G1 Y-17.2514 Z-28.7916
G1 Y-17.3617 Z-28.8442
G1 Y-17.4728 Z-28.8948
G1 Y-17.5849 Z-28.9435
G1 Y-17.6978 Z-28.9903
G1 Y-17.8114 Z-29.0351
G1 Y-17.9259 Z-29.0778
G1 Y-18.041 Z-29.1186
G1 Y-18.1569 Z-29.1574
G1 Y-18.2734 Z-29.1941
G1 Y-18.3905 Z-29.2288
G1 Y-18.5083 Z-29.2615
G1 Y-18.6265 Z-29.2921
G1 Y-18.7453 Z-29.3206
G1 Y-18.8646 Z-29.347
G1 Y-18.9843 Z-29.3714
G1 Y-19.1045 Z-29.3937
G1 Y-19.225 Z-29.4138
G1 Y-19.3458 Z-29.4319
G1 Y-19.4669 Z-29.4478
G1 Y-19.5883 Z-29.4617
G1 Y-19.7099 Z-29.4734
G1 Y-19.8317 Z-29.4829
G1 Y-19.9536 Z-29.4904
G1 Y-20.0757 Z-29.4957
G1 Y-20.1978 Z-29.4989
G1 Y-20.32 Z-29.5
G1 X-3 F80 ( Plunge )
G1 F200 ( Set milling feed rate )
G1 Y-20.32 Z-29.5
G1 Y-20.32 Z-29.5
G1 Y-20.4422 Z-29.4989
G1 Y-20.5643 Z-29.4957
G1 Y-20.6864 Z-29.4904
G1 Y-20.8083 Z-29.4829
G1 Y-20.9301 Z-29.4734
G1 Y-21.0517 Z-29.4617
G1 Y-21.1731 Z-29.4478
G1 Y-21.2942 Z-29.4319
G1 Y-21.415 Z-29.4138
G1 Y-21.5355 Z-29.3937
G1 Y-21.6557 Z-29.3714
G1 Y-21.7754 Z-29.347
G1 Y-21.8947 Z-29.3206
G1 Y-22.0135 Z-29.2921
G1 Y-22.1317 Z-29.2615
G1 Y-22.2495 Z-29.2288
G1 Y-22.3666 Z-29.1941
G1 Y-22.4831 Z-29.1574
G1 Y-22.599 Z-29.1186
G1 Y-22.7141 Z-29.0778
G1 Y-22.8286 Z-29.0351
G1 Y-22.9422 Z-28.9903
G1 Y-23.0551 Z-28.9435
G1 Y-23.1672 Z-28.8948
G1 Y-23.2783 Z-28.8442
G1 Y-23.3886 Z-28.7916
G1 Y-23.4979 Z-28.737
G1 Y-23.6063 Z-28.6806
G1 Y-23.7137 Z-28.6223
G1 Y-23.82 Z-28.5622
G1 Y-23.9253 Z-28.5002
G1 Y-24.0294 Z-28.4363
G1 Y-24.1325 Z-28.3707
G1 Y-24.2344 Z-28.3033
G1 Y-24.335 Z-28.2341
G1 Y-24.4345 Z-28.1631
G1 Y-24.5327 Z-28.0904
G1 Y-24.6296 Z-28.0161
G1 Y-24.7252 Z-27.94
G1 Y-24.8195 Z-27.8623
G1 Y-24.9124 Z-27.783
G1 Y-25.0039 Z-27.702
G1 Y-25.094 Z-27.6195
G1 Y-25.1826 Z-27.5354
G1 Y-25.2697 Z-27.4497
G1 Y-25.3554 Z-27.3626
G1 Y-25.4395 Z-27.274
G1 Y-25.522 Z-27.1839
G1 Y-25.603 Z-27.0924
G1 Y-25.6823 Z-26.9995
G1 Y-25.76 Z-26.9052
G1 Y-25.8361 Z-26.8096
G1 Y-25.9104 Z-26.7127
G1 Y-25.9831 Z-26.6145
G1 Y-26.0541 Z-26.515
G1 Y-26.1233 Z-26.4144
G1 Y-26.1907 Z-26.3125
G1 Y-26.2563 Z-26.2094
G1 Y-26.3202 Z-26.1053
G1 Y-26.3822 Z-26
G1 Y-26.4423 Z-25.8937
G1 Y-26.5006 Z-25.7863
G1 Y-26.557 Z-25.6779
G1 Y-26.6116 Z-25.5686
G1 Y-26.6642 Z-25.4583
G1 Y-26.7148 Z-25.3472
G1 Y-26.7635 Z-25.2351
G1 Y-26.8103 Z-25.1222
G1 Y-26.8551 Z-25.0086
G1 Y-26.8978 Z-24.8941
G1 Y-26.9386 Z-24.779
G1 Y-26.9774 Z-24.6631
G1 Y-27.0141 Z-24.5466
G1 Y-27.0488 Z-24.4295
G1 Y-27.0815 Z-24.3117
G1 Y-27.1121 Z-24.1935
G1 Y-27.1406 Z-24.0747
G1 Y-27.167 Z-23.9554
G1 Y-27.1914 Z-23.8357
G1 Y-27.2137 Z-23.7155
G1 Y-27.2338 Z-23.595
G1 Y-27.2519 Z-23.4742
G1 Y-27.2678 Z-23.3531
G1 Y-27.2817 Z-23.2317
G1 Y-27.2934 Z-23.1101
G1 Y-27.3029 Z-22.9883
G1 Y-27.3104 Z-22.8664
G1 Y-27.3157 Z-22.7443
G1 Y-27.3189 Z-22.6222
G1 Y-27.32 Z-22.5
G1 Y-27.3189 Z-22.3778
G1 Y-27.3157 Z-22.2557
G1 Y-27.3104 Z-22.1336
G1 Y-27.3029 Z-22.0117
G1 Y-27.2934 Z-21.8899
G1 Y-27.2817 Z-21.7683
G1 Y-27.2678 Z-21.6469
G1 Y-27.2519 Z-21.5258
G1 Y-27.2338 Z-21.405
G1 Y-27.2137 Z-21.2845
G1 Y-27.1914 Z-21.1643
G1 Y-27.167 Z-21.0446
G1 Y-27.1406 Z-20.9253
G1 Y-27.1121 Z-20.8065
G1 Y-27.0815 Z-20.6883
G1 Y-27.0488 Z-20.5705
G1 Y-27.0141 Z-20.4534
G1 Y-26.9774 Z-20.3369
G1 Y-26.9386 Z-20.221
G1 Y-26.8978 Z-20.1059
G1 Y-26.8551 Z-19.9914
G1 Y-26.8103 Z-19.8778
G1 Y-26.7635 Z-19.7649
G1 Y-26.7148 Z-19.6528
G1 Y-26.6642 Z-19.5417
G1 Y-26.6116 Z-19.4314
G1 Y-26.557 Z-19.3221
G1 Y-26.5006 Z-19.2137
G1 Y-26.4423 Z-19.1063
G1 Y-26.3822 Z-19
G1 Y-26.3202 Z-18.8947
G1 Y-26.2563 Z-18.7906
G1 Y-26.1907 Z-18.6875
G1 Y-26.1233 Z-18.5856
G1 Y-26.0541 Z-18.485
G1 Y-25.9831 Z-18.3855
G1 Y-25.9104 Z-18.2873
G1 Y-25.8361 Z-18.1904
G1 Y-25.76 Z-18.0948
G1 Y-25.6823 Z-18.0005
G1 Y-25.603 Z-17.9076
G1 Y-25.522 Z-17.8161
G1 Y-25.4395 Z-17.726
G1 Y-25.3554 Z-17.6374
G1 Y-25.2697 Z-17.5503
G1 Y-25.1826 Z-17.4646
G1 Y-25.094 Z-17.3805
G1 Y-25.0039 Z-17.298
G1 Y-24.9124 Z-17.217
G1 Y-24.8195 Z-17.1377
G1 Y-24.7252 Z-17.06
G1 Y-24.6296 Z-16.9839
G1 Y-24.5327 Z-16.9096
G1 Y-24.4345 Z-16.8369
G1 Y-24.335 Z-16.7659
G1 Y-24.2344 Z-16.6967
G1 Y-24.1325 Z-16.6293
G1 Y-24.0294 Z-16.5637
G1 Y-23.9253 Z-16.4998
G1 Y-23.82 Z-16.4378
G1 Y-23.7137 Z-16.3777
G1 Y-23.6063 Z-16.3194
G1 Y-23.4979 Z-16.263
G1 Y-23.3886 Z-16.2084
G1 Y-23.2783 Z-16.1558
G1 Y-23.1672 Z-16.1052
G1 Y-23.0551 Z-16.0565
G1 Y-22.9422 Z-16.0097
G1 Y-22.8286 Z-15.9649
G1 Y-22.7141 Z-15.9222
G1 Y-22.599 Z-15.8814
G1 Y-22.4831 Z-15.8426
G1 Y-22.3666 Z-15.8059
G1 Y-22.2495 Z-15.7712
G1 Y-22.1317 Z-15.7385
G1 Y-22.0135 Z-15.7079
G1 Y-21.8947 Z-15.6794
G1 Y-21.7754 Z-15.653
G1 Y-21.6557 Z-15.6286
G1 Y-21.5355 Z-15.6063
G1 Y-21.415 Z-15.5862
G1 Y-21.2942 Z-15.5681
G1 Y-21.1731 Z-15.5522
G1 Y-21.0517 Z-15.5383
G1 Y-20.9301 Z-15.5266
G1 Y-20.8083 Z-15.5171
G1 Y-20.6864 Z-15.5096
G1 Y-20.5643 Z-15.5043
G1 Y-20.4422 Z-15.5011
G1 Y-20.32 Z-15.5
G1 Y-20.1978 Z-15.5011
G1 Y-20.0757 Z-15.5043
G1 Y-19.9536 Z-15.5096
G1 Y-19.8317 Z-15.5171
G1 Y-19.7099 Z-15.5266
G1 Y-19.5883 Z-15.5383
G1 Y-19.4669 Z-15.5522
G1 Y-19.3458 Z-15.5681
G1 Y-19.225 Z-15.5862
G1 Y-19.1045 Z-15.6063
G1 Y-18.9843 Z-15.6286
G1 Y-18.8646 Z-15.653
G1 Y-18.7453 Z-15.6794
G1 Y-18.6265 Z-15.7079
G1 Y-18.5083 Z-15.7385
G1 Y-18.3905 Z-15.7712
G1 Y-18.2734 Z-15.8059
G1 Y-18.1569 Z-15.8426
G1 Y-18.041 Z-15.8814
G1 Y-17.9259 Z-15.9222
G1 Y-17.8114 Z-15.9649
G1 Y-17.6978 Z-16.0097
G1 Y-17.5849 Z-16.0565
G1 Y-17.4728 Z-16.1052
G1 Y-17.3617 Z-16.1558
G1 Y-17.2514 Z-16.2084
G1 Y-17.1421 Z-16.263
G1 Y-17.0337 Z-16.3194
G1 Y-16.9263 Z-16.3777
G1 Y-16.82 Z-16.4378
G1 Y-16.7147 Z-16.4998
G1 Y-16.6106 Z-16.5637
G1 Y-16.5075 Z-16.6293
G1 Y-16.4056 Z-16.6967
G1 Y-16.305 Z-16.7659
G1 Y-16.2055 Z-16.8369
G1 Y-16.1073 Z-16.9096
G1 Y-16.0104 Z-16.9839
G1 Y-15.9148 Z-17.06
G1 Y-15.8205 Z-17.1377
G1 Y-15.7276 Z-17.217
G1 Y-15.6361 Z-17.298
G1 Y-15.546 Z-17.3805
G1 Y-15.4574 Z-17.4646
G1 Y-15.3703 Z-17.5503
G1 Y-15.2846 Z-17.6374
G1 Y-15.2005 Z-17.726
G1 Y-15.118 Z-17.8161
G1 Y-15.037 Z-17.9076
G1 Y-14.9577 Z-18.0005
G1 Y-14.88 Z-18.0948
G1 Y-14.8039 Z-18.1904
G1 Y-14.7296 Z-18.2873
G1 Y-14.6569 Z-18.3855
G1 Y-14.5859 Z-18.485
G1 Y-14.5167 Z-18.5856
G1 Y-14.4493 Z-18.6875
G1 Y-14.3837 Z-18.7906
G1 Y-14.3198 Z-18.8947
G1 Y-14.2578 Z-19
G1 Y-14.1977 Z-19.1063
G1 Y-14.1394 Z-19.2137
G1 Y-14.083 Z-19.3221
G1 Y-14.0284 Z-19.4314
G1 Y-13.9758 Z-19.5417
G1 Y-13.9252 Z-19.6528
G1 Y-13.8765 Z-19.7649
G1 Y-13.8297 Z-19.8778
G1 Y-13.7849 Z-19.9914
G1 Y-13.7422 Z-20.1059
G1 Y-13.7014 Z-20.221
G1 Y-13.6626 Z-20.3369
G1 Y-13.6259 Z-20.4534
G1 Y-13.5912 Z-20.5705
G1 Y-13.5585 Z-20.6883
G1 Y-13.5279 Z-20.8065
G1 Y-13.4994 Z-20.9253
G1 Y-13.473 Z-21.0446
G1 Y-13.4486 Z-21.1643
G1 Y-13.4263 Z-21.2845
G1 Y-13.4062 Z-21.405
G1 Y-13.3881 Z-21.5258
G1 Y-13.3722 Z-21.6469
G1 Y-13.3583 Z-21.7683
G1 Y-13.3466 Z-21.8899
G1 Y-13.3371 Z-22.0117
G1 Y-13.3296 Z-22.1336
G1 Y-13.3243 Z-22.2557
G1 Y-13.3211 Z-22.3778
G1 Y-13.32 Z-22.5
G1 Y-13.3211 Z-22.6222
G1 Y-13.3243 Z-22.7443
G1 Y-13.3296 Z-22.8664
G1 Y-13.3371 Z-22.9883
G1 Y-13.3466 Z-23.1101
G1 Y-13.3583 Z-23.2317
G1 Y-13.3722 Z-23.3531
G1 Y-13.3881 Z-23.4742
G1 Y-13.4062 Z-23.595
G1 Y-13.4263 Z-23.7155
G1 Y-13.4486 Z-23.8357
G1 Y-13.473 Z-23.9554
G1 Y-13.4994 Z-24.0747
G1 Y-13.5279 Z-24.1935
G1 Y-13.5585 Z-24.3117
G1 Y-13.5912 Z-24.4295
G1 Y-13.6259 Z-24.5466
G1 Y-13.6626 Z-24.6631
G1 Y-13.7014 Z-24.779
G1 Y-13.7422 Z-24.8941
G1 Y-13.7849 Z-25.0086
G1 Y-13.8297 Z-25.1222
G1 Y-13.8765 Z-25.2351
G1 Y-13.9252 Z-25.3472
G1 Y-13.9758 Z-25.4583
G1 Y-14.0284 Z-25.5686
G1 Y-14.083 Z-25.6779
G1 Y-14.1394 Z-25.7863
G1 Y-14.1977 Z-25.8937
G1 Y-14.2578 Z-26
G1 Y-14.3198 Z-26.1053
G1 Y-14.3837 Z-26.2094
G1 Y-14.4493 Z-26.3125
G1 Y-14.5167 Z-26.4144
G1 Y-14.5859 Z-26.515
G1 Y-14.6569 Z-26.6145
G1 Y-14.7296 Z-26.7127
G1 Y-14.8039 Z-26.8096
G1 Y-14.88 Z-26.9052
G1 Y-14.9577 Z-26.9995
G1 Y-15.037 Z-27.0924
G1 Y-15.118 Z-27.1839
G1 Y-15.2005 Z-27.274
G1 Y-15.2846 Z-27.3626
G1 Y-15.3703 Z-27.4497
G1 Y-15.4574 Z-27.5354
G1 Y-15.546 Z-27.6195
G1 Y-15.6361 Z-27.702
G1 Y-15.7276 Z-27.783
G1 Y-15.8205 Z-27.8623
G1 Y-15.9148 Z-27.94
G1 Y-16.0104 Z-28.0161
G1 Y-16.1073 Z-28.0904
G1 Y-16.2055 Z-28.1631
G1 Y-16.305 Z-28.2341
G1 Y-16.4056 Z-28.3033
G1 Y-16.5075 Z-28.3707
G1 Y-16.6106 Z-28.4363
G1 Y-16.7147 Z-28.5002
G1 Y-16.82 Z-28.5622
G1 Y-16.9263 Z-28.6223
G1 Y-17.0337 Z-28.6806
G1 Y-17.1421 Z-28.737
G1 Y-17.2514 Z-28.7916
G1 Y-17.3617 Z-28.8442
G1 Y-17.4728 Z-28.8948
G1 Y-17.5849 Z-28.9435
G1 Y-17.6978 Z-28.9903
G1 Y-17.8114 Z-29.0351
G1 Y-17.9259 Z-29.0778
G1 Y-18.041 Z-29.1186
G1 Y-18.1569 Z-29.1574
G1 Y-18.2734 Z-29.1941
G1 Y-18.3905 Z-29.2288
G1 Y-18.5083 Z-29.2615
G1 Y-18.6265 Z-29.2921
G1 Y-18.7453 Z-29.3206
G1 Y-18.8646 Z-29.347
G1 Y-18.9843 Z-29.3714
G1 Y-19.1045 Z-29.3937
G1 Y-19.225 Z-29.4138
G1 Y-19.3458 Z-29.4319
G1 Y-19.4669 Z-29.4478
G1 Y-19.5883 Z-29.4617
G1 Y-19.7099 Z-29.4734
G1 Y-19.8317 Z-29.4829
G1 Y-19.9536 Z-29.4904
G1 Y-20.0757 Z-29.4957
G1 Y-20.1978 Z-29.4989
G1 Y-20.32 Z-29.5
G0 X3 ( Retract )
G0 Y0 Z-29.5
G1 X-1 F80 ( Plunge )
G1 F200 ( Set milling feed rate )
G1 Y0 Z-29.5
G1 Y0 Z-29.5
G1 Y-0.1222 Z-29.4989
G1 Y-0.2443 Z-29.4957
G1 Y-0.3664 Z-29.4904
G1 Y-0.4883 Z-29.4829
G1 Y-0.6101 Z-29.4734
G1 Y-0.7317 Z-29.4617
G1 Y-0.8531 Z-29.4478
G1 Y-0.9742 Z-29.4319
G1 Y-1.095 Z-29.4138
G1 Y-1.2155 Z-29.3937
G1 Y-1.3357 Z-29.3714
G1 Y-1.4554 Z-29.347
G1 Y-1.5747 Z-29.3206
G1 Y-1.6935 Z-29.2921
G1 Y-1.8117 Z-29.2615
G1 Y-1.9295 Z-29.2288
G1 Y-2.0466 Z-29.1941
G1 Y-2.1631 Z-29.1574
G1 Y-2.279 Z-29.1186
G1 Y-2.3941 Z-29.0778
G1 Y-2.5086 Z-29.0351
G1 Y-2.6222 Z-28.9903
G1 Y-2.7351 Z-28.9435
G1 Y-2.8472 Z-28.8948
G1 Y-2.9583 Z-28.8442
G1 Y-3.0686 Z-28.7916
G1 Y-3.1779 Z-28.737
G1 Y-3.2863 Z-28.6806
G1 Y-3.3937 Z-28.6223
G1 Y-3.5 Z-28.5622
G1 Y-3.6053 Z-28.5002
G1 Y-3.7094 Z-28.4363
G1 Y-3.8125 Z-28.3707
G1 Y-3.9144 Z-28.3033
G1 Y-4.015 Z-28.2341
G1 Y-4.1145 Z-28.1631
G1 Y-4.2127 Z-28.0904
G1 Y-4.3096 Z-28.0161
G1 Y-4.4052 Z-27.94
G1 Y-4.4995 Z-27.8623
G1 Y-4.5924 Z-27.783
G1 Y-4.6839 Z-27.702
G1 Y-4.774 Z-27.6195
G1 Y-4.8626 Z-27.5354
G1 Y-4.9497 Z-27.4497
G1 Y-5.0354 Z-27.3626
G1 Y-5.1195 Z-27.274
G1 Y-5.202 Z-27.1839
G1 Y-5.283 Z-27.0924
G1 Y-5.3623 Z-26.9995
G1 Y-5.44 Z-26.9052
G1 Y-5.5161 Z-26.8096
G1 Y-5.5904 Z-26.7127
G1 Y-5.6631 Z-26.6145
G1 Y-5.7341 Z-26.515
G1 Y-5.8033 Z-26.4144
G1 Y-5.8707 Z-26.3125
G1 Y-5.9363 Z-26.2094
G1 Y-6.0002 Z-26.1053
G1 Y-6.0622 Z-26
G1 Y-6.1223 Z-25.8937
G1 Y-6.1806 Z-25.7863
G1 Y-6.237 Z-25.6779
G1 Y-6.2916 Z-25.5686
G1 Y-6.3442 Z-25.4583
G1 Y-6.3948 Z-25.3472
G1 Y-6.4435 Z-25.2351
G1 Y-6.4903 Z-25.1222
G1 Y-6.5351 Z-25.0086
G1 Y-6.5778 Z-24.8941
G1 Y-6.6186 Z-24.779
G1 Y-6.6574 Z-24.6631
G1 Y-6.6941 Z-24.5466
G1 Y-6.7288 Z-24.4295
G1 Y-6.7615 Z-24.3117
G1 Y-6.7921 Z-24.1935
G1 Y-6.8206 Z-24.0747
G1 Y-6.847 Z-23.9554
G1 Y-6.8714 Z-23.8357
G1 Y-6.8937 Z-23.7155
G1 Y-6.9138 Z-23.595
G1 Y-6.9319 Z-23.4742
G1 Y-6.9478 Z-23.3531
G1 Y-6.9617 Z-23.2317
G1 Y-6.9734 Z-23.1101
G1 Y-6.9829 Z-22.9883
G1 Y-6.9904 Z-22.8664
G1 Y-6.9957 Z-22.7443
G1 Y-6.9989 Z-22.6222
G1 Y-7 Z-22.5
G1 Y-6.9989 Z-22.3778
G1 Y-6.9957 Z-22.2557
G1 Y-6.9904 Z-22.1336
G1 Y-6.9829 Z-22.0117
G1 Y-6.9734 Z-21.8899
G1 Y-6.9617 Z-21.7683
G1 Y-6.9478 Z-21.6469
G1 Y-6.9319 Z-21.5258
G1 Y-6.9138 Z-21.405
G1 Y-6.8937 Z-21.2845
G1 Y-6.8714 Z-21.1643
G1 Y-6.847 Z-21.0446
G1 Y-6.8206 Z-20.9253
G1 Y-6.7921 Z-20.8065
G1 Y-6.7615 Z-20.6883
G1 Y-6.7288 Z-20.5705
G1 Y-6.6941 Z-20.4534
G1 Y-6.6574 Z-20.3369
G1 Y-6.6186 Z-20.221
G1 Y-6.5778 Z-20.1059
G1 Y-6.5351 Z-19.9914
G1 Y-6.4903 Z-19.8778
G1 Y-6.4435 Z-19.7649
G1 Y-6.3948 Z-19.6528
G1 Y-6.3442 Z-19.5417
G1 Y-6.2916 Z-19.4314
G1 Y-6.237 Z-19.3221
G1 Y-6.1806 Z-19.2137
G1 Y-6.1223 Z-19.1063
G1 Y-6.0622 Z-19
G1 Y-6.0002 Z-18.8947
G1 Y-5.9363 Z-18.7906
G1 Y-5.8707 Z-18.6875
G1 Y-5.8033 Z-18.5856
G1 Y-5.7341 Z-18.485
G1 Y-5.6631 Z-18.3855
G1 Y-5.5904 Z-18.2873
G1 Y-5.5161 Z-18.1904
G1 Y-5.44 Z-18.0948
G1 Y-5.3623 Z-18.0005
G1 Y-5.283 Z-17.9076
G1 Y-5.202 Z-17.8161
G1 Y-5.1195 Z-17.726
G1 Y-5.0354 Z-17.6374
G1 Y-4.9497 Z-17.5503
G1 Y-4.8626 Z-17.4646
G1 Y-4.774 Z-17.3805
G1 Y-4.6839 Z-17.298
G1 Y-4.5924 Z-17.217
G1 Y-4.4995 Z-17.1377
G1 Y-4.4052 Z-17.06
G1 Y-4.3096 Z-16.9839
G1 Y-4.2127 Z-16.9096
G1 Y-4.1145 Z-16.8369
G1 Y-4.015 Z-16.7659
G1 Y-3.9144 Z-16.6967
G1 Y-3.8125 Z-16.6293
G1 Y-3.7094 Z-16.5637
G1 Y-3.6053 Z-16.4998
G1 Y-3.5 Z-16.4378
G1 Y-3.3937 Z-16.3777
G1 Y-3.2863 Z-16.3194
G1 Y-3.1779 Z-16.263
G1 Y-3.0686 Z-16.2084
G1 Y-2.9583 Z-16.1558
G1 Y-2.8472 Z-16.1052
G1 Y-2.7351 Z-16.0565
G1 Y-2.6222 Z-16.0097
G1 Y-2.5086 Z-15.9649
G1 Y-2.3941 Z-15.9222
G1 Y-2.279 Z-15.8814
G1 Y-2.1631 Z-15.8426
G1 Y-2.0466 Z-15.8059
G1 Y-1.9295 Z-15.7712
G1 Y-1.8117 Z-15.7385
G1 Y-1.6935 Z-15.7079
G1 Y-1.5747 Z-15.6794
G1 Y-1.4554 Z-15.653
G1 Y-1.3357 Z-15.6286
G1 Y-1.2155 Z-15.6063
G1 Y-1.095 Z-15.5862
G1 Y-0.9742 Z-15.5681
G1 Y-0.8531 Z-15.5522
G1 Y-0.7317 Z-15.5383
G1 Y-0.6101 Z-15.5266
G1 Y-0.4883 Z-15.5171
G1 Y-0.3664 Z-15.5096
G1 Y-0.2443 Z-15.5043
G1 Y-0.1222 Z-15.5011
G1 Y-0 Z-15.5
G1 Y0.1222 Z-15.5011
G1 Y0.2443 Z-15.5043
G1 Y0.3664 Z-15.5096
G1 Y0.4883 Z-15.5171
G1 Y0.6101 Z-15.5266
G1 Y0.7317 Z-15.5383
G1 Y0.8531 Z-15.5522
G1 Y0.9742 Z-15.5681
G1 Y1.095 Z-15.5862
G1 Y1.2155 Z-15.6063
G1 Y1.3357 Z-15.6286
G1 Y1.4554 Z-15.653
G1 Y1.5747 Z-15.6794
G1 Y1.6935 Z-15.7079
G1 Y1.8117 Z-15.7385
G1 Y1.9295 Z-15.7712
G1 Y2.0466 Z-15.8059
G1 Y2.1631 Z-15.8426
G1 Y2.279 Z-15.8814
G1 Y2.3941 Z-15.9222
G1 Y2.5086 Z-15.9649
G1 Y2.6222 Z-16.0097
G1 Y2.7351 Z-16.0565
G1 Y2.8472 Z-16.1052
G1 Y2.9583 Z-16.1558
G1 Y3.0686 Z-16.2084
G1 Y3.1779 Z-16.263
G1 Y3.2863 Z-16.3194
G1 Y3.3937 Z-16.3777
G1 Y3.5 Z-16.4378
G1 Y3.6053 Z-16.4998
G1 Y3.7094 Z-16.5637
G1 Y3.8125 Z-16.6293
G1 Y3.9144 Z-16.6967
G1 Y4.015 Z-16.7659
G1 Y4.1145 Z-16.8369
G1 Y4.2127 Z-16.9096
G1 Y4.3096 Z-16.9839
G1 Y4.4052 Z-17.06
G1 Y4.4995 Z-17.1377
G1 Y4.5924 Z-17.217
G1 Y4.6839 Z-17.298
G1 Y4.774 Z-17.3805
G1 Y4.8626 Z-17.4646
G1 Y4.9497 Z-17.5503
G1 Y5.0354 Z-17.6374
G1 Y5.1195 Z-17.726
G1 Y5.202 Z-17.8161
G1 Y5.283 Z-17.9076
G1 Y5.3623 Z-18.0005
G1 Y5.44 Z-18.0948
G1 Y5.5161 Z-18.1904
G1 Y5.5904 Z-18.2873
G1 Y5.6631 Z-18.3855
G1 Y5.7341 Z-18.485
G1 Y5.8033 Z-18.5856
G1 Y5.8707 Z-18.6875
G1 Y5.9363 Z-18.7906
G1 Y6.0002 Z-18.8947
G1 Y6.0622 Z-19
G1 Y6.1223 Z-19.1063
G1 Y6.1806 Z-19.2137
G1 Y6.237 Z-19.3221
G1 Y6.2916 Z-19.4314
G1 Y6.3442 Z-19.5417
G1 Y6.3948 Z-19.6528
G1 Y6.4435 Z-19.7649
G1 Y6.4903 Z-19.8778
G1 Y6.5351 Z-19.9914
G1 Y6.5778 Z-20.1059
G1 Y6.6186 Z-20.221
G1 Y6.6574 Z-20.3369
G1 Y6.6941 Z-20.4534
G1 Y6.7288 Z-20.5705
G1 Y6.7615 Z-20.6883
G1 Y6.7921 Z-20.8065
G1 Y6.8206 Z-20.9253
G1 Y6.847 Z-21.0446
G1 Y6.8714 Z-21.1643
G1 Y6.8937 Z-21.2845
G1 Y6.9138 Z-21.405
G1 Y6.9319 Z-21.5258
G1 Y6.9478 Z-21.6469
G1 Y6.9617 Z-21.7683
G1 Y6.9734 Z-21.8899
G1 Y6.9829 Z-22.0117
G1 Y6.9904 Z-22.1336
G1 Y6.9957 Z-22.2557
G1 Y6.9989 Z-22.3778
G1 Y7 Z-22.5
G1 Y6.9989 Z-22.6222
G1 Y6.9957 Z-22.7443
G1 Y6.9904 Z-22.8664
G1 Y6.9829 Z-22.9883
G1 Y6.9734 Z-23.1101
G1 Y6.9617 Z-23.2317
G1 Y6.9478 Z-23.3531
G1 Y6.9319 Z-23.4742
G1 Y6.9138 Z-23.595
G1 Y6.8937 Z-23.7155
G1 Y6.8714 Z-23.8357
G1 Y6.847 Z-23.9554
G1 Y6.8206 Z-24.0747
G1 Y6.7921 Z-24.1935
G1 Y6.7615 Z-24.3117
G1 Y6.7288 Z-24.4295
G1 Y6.6941 Z-24.5466
G1 Y6.6574 Z-24.6631
G1 Y6.6186 Z-24.779
G1 Y6.5778 Z-24.8941
G1 Y6.5351 Z-25.0086
G1 Y6.4903 Z-25.1222
G1 Y6.4435 Z-25.2351
G1 Y6.3948 Z-25.3472
G1 Y6.3442 Z-25.4583
G1 Y6.2916 Z-25.5686
G1 Y6.237 Z-25.6779
G1 Y6.1806 Z-25.7863
G1 Y6.1223 Z-25.8937
G1 Y6.0622 Z-26
G1 Y6.0002 Z-26.1053
G1 Y5.9363 Z-26.2094
G1 Y5.8707 Z-26.3125
G1 Y5.8033 Z-26.4144
G1 Y5.7341 Z-26.515
G1 Y5.6631 Z-26.6145
G1 Y5.5904 Z-26.7127
G1 Y5.5161 Z-26.8096
G1 Y5.44 Z-26.9052
G1 Y5.3623 Z-26.9995
G1 Y5.283 Z-27.0924
G1 Y5.202 Z-27.1839
G1 Y5.1195 Z-27.274
G1 Y5.0354 Z-27.3626
G1 Y4.9497 Z-27.4497
G1 Y4.8626 Z-27.5354
G1 Y4.774 Z-27.6195
G1 Y4.6839 Z-27.702
G1 Y4.5924 Z-27.783
G1 Y4.4995 Z-27.8623
G1 Y4.4052 Z-27.94
G1 Y4.3096 Z-28.0161
G1 Y4.2127 Z-28.0904
G1 Y4.1145 Z-28.1631
G1 Y4.015 Z-28.2341
G1 Y3.9144 Z-28.3033
G1 Y3.8125 Z-28.3707
G1 Y3.7094 Z-28.4363
G1 Y3.6053 Z-28.5002
G1 Y3.5 Z-28.5622
G1 Y3.3937 Z-28.6223
G1 Y3.2863 Z-28.6806
G1 Y3.1779 Z-28.737
G1 Y3.0686 Z-28.7916
G1 Y2.9583 Z-28.8442
G1 Y2.8472 Z-28.8948
G1 Y2.7351 Z-28.9435
G1 Y2.6222 Z-28.9903
G1 Y2.5086 Z-29.0351
G1 Y2.3941 Z-29.0778
G1 Y2.279 Z-29.1186
G1 Y2.1631 Z-29.1574
G1 Y2.0466 Z-29.1941
G1 Y1.9295 Z-29.2288
G1 Y1.8117 Z-29.2615
G1 Y1.6935 Z-29.2921
G1 Y1.5747 Z-29.3206
G1 Y1.4554 Z-29.347
G1 Y1.3357 Z-29.3714
G1 Y1.2155 Z-29.3937
G1 Y1.095 Z-29.4138
G1 Y0.9742 Z-29.4319
G1 Y0.8531 Z-29.4478
G1 Y0.7317 Z-29.4617
G1 Y0.6101 Z-29.4734
G1 Y0.4883 Z-29.4829
G1 Y0.3664 Z-29.4904
G1 Y0.2443 Z-29.4957
G1 Y0.1222 Z-29.4989
G1 Y0 Z-29.5
G1 X-2 F80 ( Plunge )
G1 F200 ( Set milling feed rate )
G1 Y0 Z-29.5
G1 Y0 Z-29.5
G1 Y-0.1222 Z-29.4989
G1 Y-0.2443 Z-29.4957
G1 Y-0.3664 Z-29.4904
G1 Y-0.4883 Z-29.4829
G1 Y-0.6101 Z-29.4734
G1 Y-0.7317 Z-29.4617
G1 Y-0.8531 Z-29.4478
G1 Y-0.9742 Z-29.4319
G1 Y-1.095 Z-29.4138
G1 Y-1.2155 Z-29.3937
G1 Y-1.3357 Z-29.3714
G1 Y-1.4554 Z-29.347
G1 Y-1.5747 Z-29.3206
G1 Y-1.6935 Z-29.2921
G1 Y-1.8117 Z-29.2615
G1 Y-1.9295 Z-29.2288
G1 Y-2.0466 Z-29.1941
G1 Y-2.1631 Z-29.1574
G1 Y-2.279 Z-29.1186
G1 Y-2.3941 Z-29.0778
G1 Y-2.5086 Z-29.0351
G1 Y-2.6222 Z-28.9903
G1 Y-2.7351 Z-28.9435
G1 Y-2.8472 Z-28.8948
G1 Y-2.9583 Z-28.8442
G1 Y-3.0686 Z-28.7916
G1 Y-3.1779 Z-28.737
G1 Y-3.2863 Z-28.6806
G1 Y-3.3937 Z-28.6223
G1 Y-3.5 Z-28.5622
G1 Y-3.6053 Z-28.5002
G1 Y-3.7094 Z-28.4363
G1 Y-3.8125 Z-28.3707
G1 Y-3.9144 Z-28.3033
G1 Y-4.015 Z-28.2341
G1 Y-4.1145 Z-28.1631
G1 Y-4.2127 Z-28.0904
G1 Y-4.3096 Z-28.0161
G1 Y-4.4052 Z-27.94
G1 Y-4.4995 Z-27.8623
G1 Y-4.5924 Z-27.783
G1 Y-4.6839 Z-27.702
G1 Y-4.774 Z-27.6195
G1 Y-4.8626 Z-27.5354
G1 Y-4.9497 Z-27.4497
G1 Y-5.0354 Z-27.3626
G1 Y-5.1195 Z-27.274
G1 Y-5.202 Z-27.1839
G1 Y-5.283 Z-27.0924
G1 Y-5.3623 Z-26.9995
G1 Y-5.44 Z-26.9052
G1 Y-5.5161 Z-26.8096
G1 Y-5.5904 Z-26.7127
G1 Y-5.6631 Z-26.6145
G1 Y-5.7341 Z-26.515
G1 Y-5.8033 Z-26.4144
G1 Y-5.8707 Z-26.3125
G1 Y-5.9363 Z-26.2094
G1 Y-6.0002 Z-26.1053
G1 Y-6.0622 Z-26
G1 Y-6.1223 Z-25.8937
G1 Y-6.1806 Z-25.7863
G1 Y-6.237 Z-25.6779
G1 Y-6.2916 Z-25.5686
G1 Y-6.3442 Z-25.4583
G1 Y-6.3948 Z-25.3472
G1 Y-6.4435 Z-25.2351
G1 Y-6.4903 Z-25.1222
G1 Y-6.5351 Z-25.0086
G1 Y-6.5778 Z-24.8941
G1 Y-6.6186 Z-24.779
G1 Y-6.6574 Z-24.6631
G1 Y-6.6941 Z-24.5466
G1 Y-6.7288 Z-24.4295
G1 Y-6.7615 Z-24.3117
G1 Y-6.7921 Z-24.1935
G1 Y-6.8206 Z-24.0747
G1 Y-6.847 Z-23.9554
G1 Y-6.8714 Z-23.8357
G1 Y-6.8937 Z-23.7155
G1 Y-6.9138 Z-23.595
G1 Y-6.9319 Z-23.4742
G1 Y-6.9478 Z-23.3531
G1 Y-6.9617 Z-23.2317
G1 Y-6.9734 Z-23.1101
G1 Y-6.9829 Z-22.9883
G1 Y-6.9904 Z-22.8664
G1 Y-6.9957 Z-22.7443
G1 Y-6.9989 Z-22.6222
G1 Y-7 Z-22.5
G1 Y-6.9989 Z-22.3778
G1 Y-6.9957 Z-22.2557
G1 Y-6.9904 Z-22.1336
G1 Y-6.9829 Z-22.0117
G1 Y-6.9734 Z-21.8899
G1 Y-6.9617 Z-21.7683
G1 Y-6.9478 Z-21.6469
G1 Y-6.9319 Z-21.5258
G1 Y-6.9138 Z-21.405
G1 Y-6.8937 Z-21.2845
G1 Y-6.8714 Z-21.1643
G1 Y-6.847 Z-21.0446
G1 Y-6.8206 Z-20.9253
G1 Y-6.7921 Z-20.8065
G1 Y-6.7615 Z-20.6883
G1 Y-6.7288 Z-20.5705
G1 Y-6.6941 Z-20.4534
G1 Y-6.6574 Z-20.3369
G1 Y-6.6186 Z-20.221
G1 Y-6.5778 Z-20.1059
G1 Y-6.5351 Z-19.9914
G1 Y-6.4903 Z-19.8778
G1 Y-6.4435 Z-19.7649
G1 Y-6.3948 Z-19.6528
G1 Y-6.3442 Z-19.5417
G1 Y-6.2916 Z-19.4314
G1 Y-6.237 Z-19.3221
G1 Y-6.1806 Z-19.2137
G1 Y-6.1223 Z-19.1063
G1 Y-6.0622 Z-19
G1 Y-6.0002 Z-18.8947
G1 Y-5.9363 Z-18.7906
G1 Y-5.8707 Z-18.6875
G1 Y-5.8033 Z-18.5856
G1 Y-5.7341 Z-18.485
G1 Y-5.6631 Z-18.3855
G1 Y-5.5904 Z-18.2873
G1 Y-5.5161 Z-18.1904
G1 Y-5.44 Z-18.0948
G1 Y-5.3623 Z-18.0005
G1 Y-5.283 Z-17.9076
G1 Y-5.202 Z-17.8161
G1 Y-5.1195 Z-17.726
G1 Y-5.0354 Z-17.6374
G1 Y-4.9497 Z-17.5503
G1 Y-4.8626 Z-17.4646
G1 Y-4.774 Z-17.3805
G1 Y-4.6839 Z-17.298
G1 Y-4.5924 Z-17.217
G1 Y-4.4995 Z-17.1377
G1 Y-4.4052 Z-17.06
G1 Y-4.3096 Z-16.9839
G1 Y-4.2127 Z-16.9096
G1 Y-4.1145 Z-16.8369
G1 Y-4.015 Z-16.7659
G1 Y-3.9144 Z-16.6967
G1 Y-3.8125 Z-16.6293
G1 Y-3.7094 Z-16.5637
G1 Y-3.6053 Z-16.4998
G1 Y-3.5 Z-16.4378
G1 Y-3.3937 Z-16.3777
G1 Y-3.2863 Z-16.3194
G1 Y-3.1779 Z-16.263
G1 Y-3.0686 Z-16.2084
G1 Y-2.9583 Z-16.1558
G1 Y-2.8472 Z-16.1052
G1 Y-2.7351 Z-16.0565
G1 Y-2.6222 Z-16.0097
G1 Y-2.5086 Z-15.9649
G1 Y-2.3941 Z-15.9222
G1 Y-2.279 Z-15.8814
G1 Y-2.1631 Z-15.8426
G1 Y-2.0466 Z-15.8059
G1 Y-1.9295 Z-15.7712
G1 Y-1.8117 Z-15.7385
G1 Y-1.6935 Z-15.7079
G1 Y-1.5747 Z-15.6794
G1 Y-1.4554 Z-15.653
G1 Y-1.3357 Z-15.6286
G1 Y-1.2155 Z-15.6063
G1 Y-1.095 Z-15.5862
G1 Y-0.9742 Z-15.5681
G1 Y-0.8531 Z-15.5522
G1 Y-0.7317 Z-15.5383
G1 Y-0.6101 Z-15.5266
G1 Y-0.4883 Z-15.5171
G1 Y-0.3664 Z-15.5096
G1 Y-0.2443 Z-15.5043
G1 Y-0.1222 Z-15.5011
G1 Y-0 Z-15.5
G1 Y0.1222 Z-15.5011
G1 Y0.2443 Z-15.5043
G1 Y0.3664 Z-15.5096
G1 Y0.4883 Z-15.5171
G1 Y0.6101 Z-15.5266
G1 Y0.7317 Z-15.5383
G1 Y0.8531 Z-15.5522
G1 Y0.9742 Z-15.5681
G1 Y1.095 Z-15.5862
G1 Y1.2155 Z-15.6063
G1 Y1.3357 Z-15.6286
G1 Y1.4554 Z-15.653
G1 Y1.5747 Z-15.6794
G1 Y1.6935 Z-15.7079
G1 Y1.8117 Z-15.7385
G1 Y1.9295 Z-15.7712
G1 Y2.0466 Z-15.8059
G1 Y2.1631 Z-15.8426
G1 Y2.279 Z-15.8814
G1 Y2.3941 Z-15.9222
G1 Y2.5086 Z-15.9649
G1 Y2.6222 Z-16.0097
G1 Y2.7351 Z-16.0565
G1 Y2.8472 Z-16.1052
G1 Y2.9583 Z-16.1558
G1 Y3.0686 Z-16.2084
G1 Y3.1779 Z-16.263
G1 Y3.2863 Z-16.3194
G1 Y3.3937 Z-16.3777
G1 Y3.5 Z-16.4378
G1 Y3.6053 Z-16.4998
G1 Y3.7094 Z-16.5637
G1 Y3.8125 Z-16.6293
G1 Y3.9144 Z-16.6967
G1 Y4.015 Z-16.7659
G1 Y4.1145 Z-16.8369
G1 Y4.2127 Z-16.9096
G1 Y4.3096 Z-16.9839
G1 Y4.4052 Z-17.06
G1 Y4.4995 Z-17.1377
G1 Y4.5924 Z-17.217
G1 Y4.6839 Z-17.298
G1 Y4.774 Z-17.3805
G1 Y4.8626 Z-17.4646
G1 Y4.9497 Z-17.5503
G1 Y5.0354 Z-17.6374
G1 Y5.1195 Z-17.726
G1 Y5.202 Z-17.8161
G1 Y5.283 Z-17.9076
G1 Y5.3623 Z-18.0005
G1 Y5.44 Z-18.0948
G1 Y5.5161 Z-18.1904
G1 Y5.5904 Z-18.2873
G1 Y5.6631 Z-18.3855
G1 Y5.7341 Z-18.485
G1 Y5.8033 Z-18.5856
G1 Y5.8707 Z-18.6875
G1 Y5.9363 Z-18.7906
G1 Y6.0002 Z-18.8947
G1 Y6.0622 Z-19
G1 Y6.1223 Z-19.1063
G1 Y6.1806 Z-19.2137
G1 Y6.237 Z-19.3221
G1 Y6.2916 Z-19.4314
G1 Y6.3442 Z-19.5417
G1 Y6.3948 Z-19.6528
G1 Y6.4435 Z-19.7649
G1 Y6.4903 Z-19.8778
G1 Y6.5351 Z-19.9914
G1 Y6.5778 Z-20.1059
G1 Y6.6186 Z-20.221
G1 Y6.6574 Z-20.3369
G1 Y6.6941 Z-20.4534
G1 Y6.7288 Z-20.5705
G1 Y6.7615 Z-20.6883
G1 Y6.7921 Z-20.8065
G1 Y6.8206 Z-20.9253
G1 Y6.847 Z-21.0446
G1 Y6.8714 Z-21.1643
G1 Y6.8937 Z-21.2845
G1 Y6.9138 Z-21.405
G1 Y6.9319 Z-21.5258
G1 Y6.9478 Z-21.6469
G1 Y6.9617 Z-21.7683
G1 Y6.9734 Z-21.8899
G1 Y6.9829 Z-22.0117
G1 Y6.9904 Z-22.1336
G1 Y6.9957 Z-22.2557
G1 Y6.9989 Z-22.3778
G1 Y7 Z-22.5
G1 Y6.9989 Z-22.6222
G1 Y6.9957 Z-22.7443
G1 Y6.9904 Z-22.8664
G1 Y6.9829 Z-22.9883
G1 Y6.9734 Z-23.1101
G1 Y6.9617 Z-23.2317
G1 Y6.9478 Z-23.3531
G1 Y6.9319 Z-23.4742
G1 Y6.9138 Z-23.595
G1 Y6.8937 Z-23.7155
G1 Y6.8714 Z-23.8357
G1 Y6.847 Z-23.9554
G1 Y6.8206 Z-24.0747
G1 Y6.7921 Z-24.1935
G1 Y6.7615 Z-24.3117
G1 Y6.7288 Z-24.4295
G1 Y6.6941 Z-24.5466
G1 Y6.6574 Z-24.6631
G1 Y6.6186 Z-24.779
G1 Y6.5778 Z-24.8941
G1 Y6.5351 Z-25.0086
G1 Y6.4903 Z-25.1222
G1 Y6.4435 Z-25.2351
G1 Y6.3948 Z-25.3472
G1 Y6.3442 Z-25.4583
G1 Y6.2916 Z-25.5686
G1 Y6.237 Z-25.6779
G1 Y6.1806 Z-25.7863
G1 Y6.1223 Z-25.8937
G1 Y6.0622 Z-26
G1 Y6.0002 Z-26.1053
G1 Y5.9363 Z-26.2094
G1 Y5.8707 Z-26.3125
G1 Y5.8033 Z-26.4144
G1 Y5.7341 Z-26.515
G1 Y5.6631 Z-26.6145
G1 Y5.5904 Z-26.7127
G1 Y5.5161 Z-26.8096
G1 Y5.44 Z-26.9052
G1 Y5.3623 Z-26.9995
G1 Y5.283 Z-27.0924
G1 Y5.202 Z-27.1839
G1 Y5.1195 Z-27.274
G1 Y5.0354 Z-27.3626
G1 Y4.9497 Z-27.4497
G1 Y4.8626 Z-27.5354
G1 Y4.774 Z-27.6195
G1 Y4.6839 Z-27.702
G1 Y4.5924 Z-27.783
G1 Y4.4995 Z-27.8623
G1 Y4.4052 Z-27.94
G1 Y4.3096 Z-28.0161
G1 Y4.2127 Z-28.0904
G1 Y4.1145 Z-28.1631
G1 Y4.015 Z-28.2341
G1 Y3.9144 Z-28.3033
G1 Y3.8125 Z-28.3707
G1 Y3.7094 Z-28.4363
G1 Y3.6053 Z-28.5002
G1 Y3.5 Z-28.5622
G1 Y3.3937 Z-28.6223
G1 Y3.2863 Z-28.6806
G1 Y3.1779 Z-28.737
G1 Y3.0686 Z-28.7916
G1 Y2.9583 Z-28.8442
G1 Y2.8472 Z-28.8948
G1 Y2.7351 Z-28.9435
G1 Y2.6222 Z-28.9903
G1 Y2.5086 Z-29.0351
G1 Y2.3941 Z-29.0778
G1 Y2.279 Z-29.1186
G1 Y2.1631 Z-29.1574
G1 Y2.0466 Z-29.1941
G1 Y1.9295 Z-29.2288
G1 Y1.8117 Z-29.2615
G1 Y1.6935 Z-29.2921
G1 Y1.5747 Z-29.3206
G1 Y1.4554 Z-29.347
G1 Y1.3357 Z-29.3714
G1 Y1.2155 Z-29.3937
G1 Y1.095 Z-29.4138
G1 Y0.9742 Z-29.4319
G1 Y0.8531 Z-29.4478
G1 Y0.7317 Z-29.4617
G1 Y0.6101 Z-29.4734
G1 Y0.4883 Z-29.4829
G1 Y0.3664 Z-29.4904
G1 Y0.2443 Z-29.4957
G1 Y0.1222 Z-29.4989
G1 Y0 Z-29.5
G1 X-3 F80 ( Plunge )
G1 F200 ( Set milling feed rate )
G1 Y0 Z-29.5
G1 Y0 Z-29.5
G1 Y-0.1222 Z-29.4989
G1 Y-0.2443 Z-29.4957
G1 Y-0.3664 Z-29.4904
G1 Y-0.4883 Z-29.4829
G1 Y-0.6101 Z-29.4734
G1 Y-0.7317 Z-29.4617
G1 Y-0.8531 Z-29.4478
G1 Y-0.9742 Z-29.4319
G1 Y-1.095 Z-29.4138
G1 Y-1.2155 Z-29.3937
G1 Y-1.3357 Z-29.3714
G1 Y-1.4554 Z-29.347
G1 Y-1.5747 Z-29.3206
G1 Y-1.6935 Z-29.2921
G1 Y-1.8117 Z-29.2615
G1 Y-1.9295 Z-29.2288
G1 Y-2.0466 Z-29.1941
G1 Y-2.1631 Z-29.1574
G1 Y-2.279 Z-29.1186
G1 Y-2.3941 Z-29.0778
G1 Y-2.5086 Z-29.0351
G1 Y-2.6222 Z-28.9903
G1 Y-2.7351 Z-28.9435
G1 Y-2.8472 Z-28.8948
G1 Y-2.9583 Z-28.8442
G1 Y-3.0686 Z-28.7916
G1 Y-3.1779 Z-28.737
G1 Y-3.2863 Z-28.6806
G1 Y-3.3937 Z-28.6223
G1 Y-3.5 Z-28.5622
G1 Y-3.6053 Z-28.5002
G1 Y-3.7094 Z-28.4363
G1 Y-3.8125 Z-28.3707
G1 Y-3.9144 Z-28.3033
G1 Y-4.015 Z-28.2341
G1 Y-4.1145 Z-28.1631
G1 Y-4.2127 Z-28.0904
G1 Y-4.3096 Z-28.0161
G1 Y-4.4052 Z-27.94
G1 Y-4.4995 Z-27.8623
G1 Y-4.5924 Z-27.783
G1 Y-4.6839 Z-27.702
G1 Y-4.774 Z-27.6195
G1 Y-4.8626 Z-27.5354
G1 Y-4.9497 Z-27.4497
G1 Y-5.0354 Z-27.3626
G1 Y-5.1195 Z-27.274
G1 Y-5.202 Z-27.1839
G1 Y-5.283 Z-27.0924
G1 Y-5.3623 Z-26.9995
G1 Y-5.44 Z-26.9052
G1 Y-5.5161 Z-26.8096
G1 Y-5.5904 Z-26.7127
G1 Y-5.6631 Z-26.6145
G1 Y-5.7341 Z-26.515
G1 Y-5.8033 Z-26.4144
G1 Y-5.8707 Z-26.3125
G1 Y-5.9363 Z-26.2094
G1 Y-6.0002 Z-26.1053
G1 Y-6.0622 Z-26
G1 Y-6.1223 Z-25.8937
G1 Y-6.1806 Z-25.7863
G1 Y-6.237 Z-25.6779
G1 Y-6.2916 Z-25.5686
G1 Y-6.3442 Z-25.4583
G1 Y-6.3948 Z-25.3472
G1 Y-6.4435 Z-25.2351
G1 Y-6.4903 Z-25.1222
G1 Y-6.5351 Z-25.0086
G1 Y-6.5778 Z-24.8941
G1 Y-6.6186 Z-24.779
G1 Y-6.6574 Z-24.6631
G1 Y-6.6941 Z-24.5466
G1 Y-6.7288 Z-24.4295
G1 Y-6.7615 Z-24.3117
G1 Y-6.7921 Z-24.1935
G1 Y-6.8206 Z-24.0747
G1 Y-6.847 Z-23.9554
G1 Y-6.8714 Z-23.8357
G1 Y-6.8937 Z-23.7155
G1 Y-6.9138 Z-23.595
G1 Y-6.9319 Z-23.4742
G1 Y-6.9478 Z-23.3531
G1 Y-6.9617 Z-23.2317
G1 Y-6.9734 Z-23.1101
G1 Y-6.9829 Z-22.9883
G1 Y-6.9904 Z-22.8664
G1 Y-6.9957 Z-22.7443
G1 Y-6.9989 Z-22.6222
G1 Y-7 Z-22.5
G1 Y-6.9989 Z-22.3778
G1 Y-6.9957 Z-22.2557
G1 Y-6.9904 Z-22.1336
G1 Y-6.9829 Z-22.0117
G1 Y-6.9734 Z-21.8899
G1 Y-6.9617 Z-21.7683
G1 Y-6.9478 Z-21.6469
G1 Y-6.9319 Z-21.5258
G1 Y-6.9138 Z-21.405
G1 Y-6.8937 Z-21.2845
G1 Y-6.8714 Z-21.1643
G1 Y-6.847 Z-21.0446
G1 Y-6.8206 Z-20.9253
G1 Y-6.7921 Z-20.8065
G1 Y-6.7615 Z-20.6883
G1 Y-6.7288 Z-20.5705
G1 Y-6.6941 Z-20.4534
G1 Y-6.6574 Z-20.3369
G1 Y-6.6186 Z-20.221
G1 Y-6.5778 Z-20.1059
G1 Y-6.5351 Z-19.9914
G1 Y-6.4903 Z-19.8778
G1 Y-6.4435 Z-19.7649
G1 Y-6.3948 Z-19.6528
G1 Y-6.3442 Z-19.5417
G1 Y-6.2916 Z-19.4314
G1 Y-6.237 Z-19.3221
G1 Y-6.1806 Z-19.2137
G1 Y-6.1223 Z-19.1063
G1 Y-6.0622 Z-19
G1 Y-6.0002 Z-18.8947
G1 Y-5.9363 Z-18.7906
G1 Y-5.8707 Z-18.6875
G1 Y-5.8033 Z-18.5856
G1 Y-5.7341 Z-18.485
G1 Y-5.6631 Z-18.3855
G1 Y-5.5904 Z-18.2873
G1 Y-5.5161 Z-18.1904
G1 Y-5.44 Z-18.0948
G1 Y-5.3623 Z-18.0005
G1 Y-5.283 Z-17.9076
G1 Y-5.202 Z-17.8161
G1 Y-5.1195 Z-17.726
G1 Y-5.0354 Z-17.6374
G1 Y-4.9497 Z-17.5503
G1 Y-4.8626 Z-17.4646
G1 Y-4.774 Z-17.3805
G1 Y-4.6839 Z-17.298
G1 Y-4.5924 Z-17.217
G1 Y-4.4995 Z-17.1377
G1 Y-4.4052 Z-17.06
G1 Y-4.3096 Z-16.9839
G1 Y-4.2127 Z-16.9096
G1 Y-4.1145 Z-16.8369
G1 Y-4.015 Z-16.7659
G1 Y-3.9144 Z-16.6967
G1 Y-3.8125 Z-16.6293
G1 Y-3.7094 Z-16.5637
G1 Y-3.6053 Z-16.4998
G1 Y-3.5 Z-16.4378
G1 Y-3.3937 Z-16.3777
G1 Y-3.2863 Z-16.3194
G1 Y-3.1779 Z-16.263
G1 Y-3.0686 Z-16.2084
G1 Y-2.9583 Z-16.1558
G1 Y-2.8472 Z-16.1052
G1 Y-2.7351 Z-16.0565
G1 Y-2.6222 Z-16.0097
G1 Y-2.5086 Z-15.9649
G1 Y-2.3941 Z-15.9222
G1 Y-2.279 Z-15.8814
G1 Y-2.1631 Z-15.8426
G1 Y-2.0466 Z-15.8059
G1 Y-1.9295 Z-15.7712
G1 Y-1.8117 Z-15.7385
G1 Y-1.6935 Z-15.7079
G1 Y-1.5747 Z-15.6794
G1 Y-1.4554 Z-15.653
G1 Y-1.3357 Z-15.6286
G1 Y-1.2155 Z-15.6063
G1 Y-1.095 Z-15.5862
G1 Y-0.9742 Z-15.5681
G1 Y-0.8531 Z-15.5522
G1 Y-0.7317 Z-15.5383
G1 Y-0.6101 Z-15.5266
G1 Y-0.4883 Z-15.5171
G1 Y-0.3664 Z-15.5096
G1 Y-0.2443 Z-15.5043
G1 Y-0.1222 Z-15.5011
G1 Y-0 Z-15.5
G1 Y0.1222 Z-15.5011
G1 Y0.2443 Z-15.5043
G1 Y0.3664 Z-15.5096
G1 Y0.4883 Z-15.5171
G1 Y0.6101 Z-15.5266
G1 Y0.7317 Z-15.5383
G1 Y0.8531 Z-15.5522
G1 Y0.9742 Z-15.5681
G1 Y1.095 Z-15.5862
G1 Y1.2155 Z-15.6063
G1 Y1.3357 Z-15.6286
G1 Y1.4554 Z-15.653
G1 Y1.5747 Z-15.6794
G1 Y1.6935 Z-15.7079
G1 Y1.8117 Z-15.7385
G1 Y1.9295 Z-15.7712
G1 Y2.0466 Z-15.8059
G1 Y2.1631 Z-15.8426
G1 Y2.279 Z-15.8814
G1 Y2.3941 Z-15.9222
G1 Y2.5086 Z-15.9649
G1 Y2.6222 Z-16.0097
G1 Y2.7351 Z-16.0565
G1 Y2.8472 Z-16.1052
G1 Y2.9583 Z-16.1558
G1 Y3.0686 Z-16.2084
G1 Y3.1779 Z-16.263
G1 Y3.2863 Z-16.3194
G1 Y3.3937 Z-16.3777
G1 Y3.5 Z-16.4378
G1 Y3.6053 Z-16.4998
G1 Y3.7094 Z-16.5637
G1 Y3.8125 Z-16.6293
G1 Y3.9144 Z-16.6967
G1 Y4.015 Z-16.7659
G1 Y4.1145 Z-16.8369
G1 Y4.2127 Z-16.9096
G1 Y4.3096 Z-16.9839
G1 Y4.4052 Z-17.06
G1 Y4.4995 Z-17.1377
G1 Y4.5924 Z-17.217
G1 Y4.6839 Z-17.298
G1 Y4.774 Z-17.3805
G1 Y4.8626 Z-17.4646
G1 Y4.9497 Z-17.5503
G1 Y5.0354 Z-17.6374
G1 Y5.1195 Z-17.726
G1 Y5.202 Z-17.8161
G1 Y5.283 Z-17.9076
G1 Y5.3623 Z-18.0005
G1 Y5.44 Z-18.0948
G1 Y5.5161 Z-18.1904
G1 Y5.5904 Z-18.2873
G1 Y5.6631 Z-18.3855
G1 Y5.7341 Z-18.485
G1 Y5.8033 Z-18.5856
G1 Y5.8707 Z-18.6875
G1 Y5.9363 Z-18.7906
G1 Y6.0002 Z-18.8947
G1 Y6.0622 Z-19
G1 Y6.1223 Z-19.1063
G1 Y6.1806 Z-19.2137
G1 Y6.237 Z-19.3221
G1 Y6.2916 Z-19.4314
G1 Y6.3442 Z-19.5417
G1 Y6.3948 Z-19.6528
G1 Y6.4435 Z-19.7649
G1 Y6.4903 Z-19.8778
G1 Y6.5351 Z-19.9914
G1 Y6.5778 Z-20.1059
G1 Y6.6186 Z-20.221
G1 Y6.6574 Z-20.3369
G1 Y6.6941 Z-20.4534
G1 Y6.7288 Z-20.5705
G1 Y6.7615 Z-20.6883
G1 Y6.7921 Z-20.8065
G1 Y6.8206 Z-20.9253
G1 Y6.847 Z-21.0446
G1 Y6.8714 Z-21.1643
G1 Y6.8937 Z-21.2845
G1 Y6.9138 Z-21.405
G1 Y6.9319 Z-21.5258
G1 Y6.9478 Z-21.6469
G1 Y6.9617 Z-21.7683
G1 Y6.9734 Z-21.8899
G1 Y6.9829 Z-22.0117
G1 Y6.9904 Z-22.1336
G1 Y6.9957 Z-22.2557
G1 Y6.9989 Z-22.3778
G1 Y7 Z-22.5
G1 Y6.9989 Z-22.6222
G1 Y6.9957 Z-22.7443
G1 Y6.9904 Z-22.8664
G1 Y6.9829 Z-22.9883
G1 Y6.9734 Z-23.1101
G1 Y6.9617 Z-23.2317
G1 Y6.9478 Z-23.3531
G1 Y6.9319 Z-23.4742
G1 Y6.9138 Z-23.595
G1 Y6.8937 Z-23.7155
G1 Y6.8714 Z-23.8357
G1 Y6.847 Z-23.9554
G1 Y6.8206 Z-24.0747
G1 Y6.7921 Z-24.1935
G1 Y6.7615 Z-24.3117
G1 Y6.7288 Z-24.4295
G1 Y6.6941 Z-24.5466
G1 Y6.6574 Z-24.6631
G1 Y6.6186 Z-24.779
G1 Y6.5778 Z-24.8941
G1 Y6.5351 Z-25.0086
G1 Y6.4903 Z-25.1222
G1 Y6.4435 Z-25.2351
G1 Y6.3948 Z-25.3472
G1 Y6.3442 Z-25.4583
G1 Y6.2916 Z-25.5686
G1 Y6.237 Z-25.6779
G1 Y6.1806 Z-25.7863
G1 Y6.1223 Z-25.8937
G1 Y6.0622 Z-26
G1 Y6.0002 Z-26.1053
G1 Y5.9363 Z-26.2094
G1 Y5.8707 Z-26.3125
G1 Y5.8033 Z-26.4144
G1 Y5.7341 Z-26.515
G1 Y5.6631 Z-26.6145
G1 Y5.5904 Z-26.7127
G1 Y5.5161 Z-26.8096
G1 Y5.44 Z-26.9052
G1 Y5.3623 Z-26.9995
G1 Y5.283 Z-27.0924
G1 Y5.202 Z-27.1839
G1 Y5.1195 Z-27.274
G1 Y5.0354 Z-27.3626
G1 Y4.9497 Z-27.4497
G1 Y4.8626 Z-27.5354
G1 Y4.774 Z-27.6195
G1 Y4.6839 Z-27.702
G1 Y4.5924 Z-27.783
G1 Y4.4995 Z-27.8623
G1 Y4.4052 Z-27.94
G1 Y4.3096 Z-28.0161
G1 Y4.2127 Z-28.0904
G1 Y4.1145 Z-28.1631
G1 Y4.015 Z-28.2341
G1 Y3.9144 Z-28.3033
G1 Y3.8125 Z-28.3707
G1 Y3.7094 Z-28.4363
G1 Y3.6053 Z-28.5002
G1 Y3.5 Z-28.5622
G1 Y3.3937 Z-28.6223
G1 Y3.2863 Z-28.6806
G1 Y3.1779 Z-28.737
G1 Y3.0686 Z-28.7916
G1 Y2.9583 Z-28.8442
G1 Y2.8472 Z-28.8948
G1 Y2.7351 Z-28.9435
G1 Y2.6222 Z-28.9903
G1 Y2.5086 Z-29.0351
G1 Y2.3941 Z-29.0778
G1 Y2.279 Z-29.1186
G1 Y2.1631 Z-29.1574
G1 Y2.0466 Z-29.1941
G1 Y1.9295 Z-29.2288
G1 Y1.8117 Z-29.2615
G1 Y1.6935 Z-29.2921
G1 Y1.5747 Z-29.3206
G1 Y1.4554 Z-29.347
G1 Y1.3357 Z-29.3714
G1 Y1.2155 Z-29.3937
G1 Y1.095 Z-29.4138
G1 Y0.9742 Z-29.4319
G1 Y0.8531 Z-29.4478
G1 Y0.7317 Z-29.4617
G1 Y0.6101 Z-29.4734
G1 Y0.4883 Z-29.4829
G1 Y0.3664 Z-29.4904
G1 Y0.2443 Z-29.4957
G1 Y0.1222 Z-29.4989
G1 Y0 Z-29.5
G0 X3 ( Retract )
G0 Y20.32 Z-29.5
G1 X-1 F80 ( Plunge )
G1 F200 ( Set milling feed rate )
G1 Y20.32 Z-29.5
G1 Y20.32 Z-29.5
G1 Y20.1978 Z-29.4989
G1 Y20.0757 Z-29.4957
G1 Y19.9536 Z-29.4904
G1 Y19.8317 Z-29.4829
G1 Y19.7099 Z-29.4734
G1 Y19.5883 Z-29.4617
G1 Y19.4669 Z-29.4478
G1 Y19.3458 Z-29.4319
G1 Y19.225 Z-29.4138
G1 Y19.1045 Z-29.3937
G1 Y18.9843 Z-29.3714
G1 Y18.8646 Z-29.347
G1 Y18.7453 Z-29.3206
G1 Y18.6265 Z-29.2921
G1 Y18.5083 Z-29.2615
G1 Y18.3905 Z-29.2288
G1 Y18.2734 Z-29.1941
G1 Y18.1569 Z-29.1574
G1 Y18.041 Z-29.1186
G1 Y17.9259 Z-29.0778
G1 Y17.8114 Z-29.0351
G1 Y17.6978 Z-28.9903
G1 Y17.5849 Z-28.9435
G1 Y17.4728 Z-28.8948
G1 Y17.3617 Z-28.8442
G1 Y17.2514 Z-28.7916
G1 Y17.1421 Z-28.737
G1 Y17.0337 Z-28.6806
G1 Y16.9263 Z-28.6223
G1 Y16.82 Z-28.5622
G1 Y16.7147 Z-28.5002
G1 Y16.6106 Z-28.4363
G1 Y16.5075 Z-28.3707
G1 Y16.4056 Z-28.3033
G1 Y16.305 Z-28.2341
G1 Y16.2055 Z-28.1631
G1 Y16.1073 Z-28.0904
G1 Y16.0104 Z-28.0161
G1 Y15.9148 Z-27.94
G1 Y15.8205 Z-27.8623
G1 Y15.7276 Z-27.783
G1 Y15.6361 Z-27.702
G1 Y15.546 Z-27.6195
G1 Y15.4574 Z-27.5354
G1 Y15.3703 Z-27.4497
G1 Y15.2846 Z-27.3626
G1 Y15.2005 Z-27.274
G1 Y15.118 Z-27.1839
G1 Y15.037 Z-27.0924
G1 Y14.9577 Z-26.9995
G1 Y14.88 Z-26.9052
G1 Y14.8039 Z-26.8096
G1 Y14.7296 Z-26.7127
G1 Y14.6569 Z-26.6145
G1 Y14.5859 Z-26.515
G1 Y14.5167 Z-26.4144
G1 Y14.4493 Z-26.3125
G1 Y14.3837 Z-26.2094
G1 Y14.3198 Z-26.1053
G1 Y14.2578 Z-26
G1 Y14.1977 Z-25.8937
G1 Y14.1394 Z-25.7863
G1 Y14.083 Z-25.6779
G1 Y14.0284 Z-25.5686
G1 Y13.9758 Z-25.4583
G1 Y13.9252 Z-25.3472
G1 Y13.8765 Z-25.2351
G1 Y13.8297 Z-25.1222
G1 Y13.7849 Z-25.0086
G1 Y13.7422 Z-24.8941
G1 Y13.7014 Z-24.779
G1 Y13.6626 Z-24.6631
G1 Y13.6259 Z-24.5466
G1 Y13.5912 Z-24.4295
G1 Y13.5585 Z-24.3117
G1 Y13.5279 Z-24.1935
G1 Y13.4994 Z-24.0747
G1 Y13.473 Z-23.9554
G1 Y13.4486 Z-23.8357
G1 Y13.4263 Z-23.7155
G1 Y13.4062 Z-23.595
G1 Y13.3881 Z-23.4742
G1 Y13.3722 Z-23.3531
G1 Y13.3583 Z-23.2317
G1 Y13.3466 Z-23.1101
G1 Y13.3371 Z-22.9883
G1 Y13.3296 Z-22.8664
G1 Y13.3243 Z-22.7443
G1 Y13.3211 Z-22.6222
G1 Y13.32 Z-22.5
G1 Y13.3211 Z-22.3778
G1 Y13.3243 Z-22.2557
G1 Y13.3296 Z-22.1336
G1 Y13.3371 Z-22.0117
G1 Y13.3466 Z-21.8899
G1 Y13.3583 Z-21.7683
G1 Y13.3722 Z-21.6469
G1 Y13.3881 Z-21.5258
G1 Y13.4062 Z-21.405
G1 Y13.4263 Z-21.2845
G1 Y13.4486 Z-21.1643
G1 Y13.473 Z-21.0446
G1 Y13.4994 Z-20.9253
G1 Y13.5279 Z-20.8065
G1 Y13.5585 Z-20.6883
G1 Y13.5912 Z-20.5705
G1 Y13.6259 Z-20.4534
G1 Y13.6626 Z-20.3369
G1 Y13.7014 Z-20.221
G1 Y13.7422 Z-20.1059
G1 Y13.7849 Z-19.9914
G1 Y13.8297 Z-19.8778
G1 Y13.8765 Z-19.7649
G1 Y13.9252 Z-19.6528
G1 Y13.9758 Z-19.5417
G1 Y14.0284 Z-19.4314
G1 Y14.083 Z-19.3221
G1 Y14.1394 Z-19.2137
G1 Y14.1977 Z-19.1063
G1 Y14.2578 Z-19
G1 Y14.3198 Z-18.8947
G1 Y14.3837 Z-18.7906
G1 Y14.4493 Z-18.6875
G1 Y14.5167 Z-18.5856
G1 Y14.5859 Z-18.485
G1 Y14.6569 Z-18.3855
G1 Y14.7296 Z-18.2873
G1 Y14.8039 Z-18.1904
G1 Y14.88 Z-18.0948
G1 Y14.9577 Z-18.0005
G1 Y15.037 Z-17.9076
G1 Y15.118 Z-17.8161
G1 Y15.2005 Z-17.726
G1 Y15.2846 Z-17.6374
G1 Y15.3703 Z-17.5503
G1 Y15.4574 Z-17.4646
G1 Y15.546 Z-17.3805
G1 Y15.6361 Z-17.298
G1 Y15.7276 Z-17.217
G1 Y15.8205 Z-17.1377
G1 Y15.9148 Z-17.06
G1 Y16.0104 Z-16.9839
G1 Y16.1073 Z-16.9096
G1 Y16.2055 Z-16.8369
G1 Y16.305 Z-16.7659
G1 Y16.4056 Z-16.6967
G1 Y16.5075 Z-16.6293
G1 Y16.6106 Z-16.5637
G1 Y16.7147 Z-16.4998
G1 Y16.82 Z-16.4378
G1 Y16.9263 Z-16.3777
G1 Y17.0337 Z-16.3194
G1 Y17.1421 Z-16.263
G1 Y17.2514 Z-16.2084
G1 Y17.3617 Z-16.1558
G1 Y17.4728 Z-16.1052
G1 Y17.5849 Z-16.0565
G1 Y17.6978 Z-16.0097
G1 Y17.8114 Z-15.9649
G1 Y17.9259 Z-15.9222
G1 Y18.041 Z-15.8814
G1 Y18.1569 Z-15.8426
G1 Y18.2734 Z-15.8059
G1 Y18.3905 Z-15.7712
G1 Y18.5083 Z-15.7385
G1 Y18.6265 Z-15.7079
G1 Y18.7453 Z-15.6794
G1 Y18.8646 Z-15.653
G1 Y18.9843 Z-15.6286
G1 Y19.1045 Z-15.6063
G1 Y19.225 Z-15.5862
G1 Y19.3458 Z-15.5681
G1 Y19.4669 Z-15.5522
G1 Y19.5883 Z-15.5383
G1 Y19.7099 Z-15.5266
G1 Y19.8317 Z-15.5171
G1 Y19.9536 Z-15.5096
G1 Y20.0757 Z-15.5043
G1 Y20.1978 Z-15.5011
G1 Y20.32 Z-15.5
G1 Y20.4422 Z-15.5011
G1 Y20.5643 Z-15.5043
G1 Y20.6864 Z-15.5096
G1 Y20.8083 Z-15.5171
G1 Y20.9301 Z-15.5266
G1 Y21.0517 Z-15.5383
G1 Y21.1731 Z-15.5522
G1 Y21.2942 Z-15.5681
G1 Y21.415 Z-15.5862
G1 Y21.5355 Z-15.6063
G1 Y21.6557 Z-15.6286
G1 Y21.7754 Z-15.653
G1 Y21.8947 Z-15.6794
G1 Y22.0135 Z-15.7079
G1 Y22.1317 Z-15.7385
G1 Y22.2495 Z-15.7712
G1 Y22.3666 Z-15.8059
G1 Y22.4831 Z-15.8426
G1 Y22.599 Z-15.8814
G1 Y22.7141 Z-15.9222
G1 Y22.8286 Z-15.9649
G1 Y22.9422 Z-16.0097
G1 Y23.0551 Z-16.0565
G1 Y23.1672 Z-16.1052
G1 Y23.2783 Z-16.1558
G1 Y23.3886 Z-16.2084
G1 Y23.4979 Z-16.263
G1 Y23.6063 Z-16.3194
G1 Y23.7137 Z-16.3777
G1 Y23.82 Z-16.4378
G1 Y23.9253 Z-16.4998
G1 Y24.0294 Z-16.5637
G1 Y24.1325 Z-16.6293
G1 Y24.2344 Z-16.6967
G1 Y24.335 Z-16.7659
G1 Y24.4345 Z-16.8369
G1 Y24.5327 Z-16.9096
G1 Y24.6296 Z-16.9839
G1 Y24.7252 Z-17.06
G1 Y24.8195 Z-17.1377
G1 Y24.9124 Z-17.217
G1 Y25.0039 Z-17.298
G1 Y25.094 Z-17.3805
G1 Y25.1826 Z-17.4646
G1 Y25.2697 Z-17.5503
G1 Y25.3554 Z-17.6374
G1 Y25.4395 Z-17.726
G1 Y25.522 Z-17.8161
G1 Y25.603 Z-17.9076
G1 Y25.6823 Z-18.0005
G1 Y25.76 Z-18.0948
G1 Y25.8361 Z-18.1904
G1 Y25.9104 Z-18.2873
G1 Y25.9831 Z-18.3855
G1 Y26.0541 Z-18.485
G1 Y26.1233 Z-18.5856
G1 Y26.1907 Z-18.6875
G1 Y26.2563 Z-18.7906
G1 Y26.3202 Z-18.8947
G1 Y26.3822 Z-19
G1 Y26.4423 Z-19.1063
G1 Y26.5006 Z-19.2137
G1 Y26.557 Z-19.3221
G1 Y26.6116 Z-19.4314
G1 Y26.6642 Z-19.5417
G1 Y26.7148 Z-19.6528
G1 Y26.7635 Z-19.7649
G1 Y26.8103 Z-19.8778
G1 Y26.8551 Z-19.9914
G1 Y26.8978 Z-20.1059
G1 Y26.9386 Z-20.221
G1 Y26.9774 Z-20.3369
G1 Y27.0141 Z-20.4534
G1 Y27.0488 Z-20.5705
G1 Y27.0815 Z-20.6883
G1 Y27.1121 Z-20.8065
G1 Y27.1406 Z-20.9253
G1 Y27.167 Z-21.0446
G1 Y27.1914 Z-21.1643
G1 Y27.2137 Z-21.2845
G1 Y27.2338 Z-21.405
G1 Y27.2519 Z-21.5258
G1 Y27.2678 Z-21.6469
G1 Y27.2817 Z-21.7683
G1 Y27.2934 Z-21.8899
G1 Y27.3029 Z-22.0117
G1 Y27.3104 Z-22.1336
G1 Y27.3157 Z-22.2557
G1 Y27.3189 Z-22.3778
G1 Y27.32 Z-22.5
G1 Y27.3189 Z-22.6222
G1 Y27.3157 Z-22.7443
G1 Y27.3104 Z-22.8664
G1 Y27.3029 Z-22.9883
G1 Y27.2934 Z-23.1101
G1 Y27.2817 Z-23.2317
G1 Y27.2678 Z-23.3531
G1 Y27.2519 Z-23.4742
G1 Y27.2338 Z-23.595
G1 Y27.2137 Z-23.7155
G1 Y27.1914 Z-23.8357
G1 Y27.167 Z-23.9554
G1 Y27.1406 Z-24.0747
G1 Y27.1121 Z-24.1935
G1 Y27.0815 Z-24.3117
G1 Y27.0488 Z-24.4295
G1 Y27.0141 Z-24.5466
G1 Y26.9774 Z-24.6631
G1 Y26.9386 Z-24.779
G1 Y26.8978 Z-24.8941
G1 Y26.8551 Z-25.0086
G1 Y26.8103 Z-25.1222
G1 Y26.7635 Z-25.2351
G1 Y26.7148 Z-25.3472
G1 Y26.6642 Z-25.4583
G1 Y26.6116 Z-25.5686
G1 Y26.557 Z-25.6779
G1 Y26.5006 Z-25.7863
G1 Y26.4423 Z-25.8937
G1 Y26.3822 Z-26
G1 Y26.3202 Z-26.1053
G1 Y26.2563 Z-26.2094
G1 Y26.1907 Z-26.3125
G1 Y26.1233 Z-26.4144
G1 Y26.0541 Z-26.515
G1 Y25.9831 Z-26.6145
G1 Y25.9104 Z-26.7127
G1 Y25.8361 Z-26.8096
G1 Y25.76 Z-26.9052
G1 Y25.6823 Z-26.9995
G1 Y25.603 Z-27.0924
G1 Y25.522 Z-27.1839
G1 Y25.4395 Z-27.274
G1 Y25.3554 Z-27.3626
G1 Y25.2697 Z-27.4497
G1 Y25.1826 Z-27.5354
G1 Y25.094 Z-27.6195
G1 Y25.0039 Z-27.702
G1 Y24.9124 Z-27.783
G1 Y24.8195 Z-27.8623
G1 Y24.7252 Z-27.94
G1 Y24.6296 Z-28.0161
G1 Y24.5327 Z-28.0904
G1 Y24.4345 Z-28.1631
G1 Y24.335 Z-28.2341
G1 Y24.2344 Z-28.3033
G1 Y24.1325 Z-28.3707
G1 Y24.0294 Z-28.4363
G1 Y23.9253 Z-28.5002
G1 Y23.82 Z-28.5622
G1 Y23.7137 Z-28.6223
G1 Y23.6063 Z-28.6806
G1 Y23.4979 Z-28.737
G1 Y23.3886 Z-28.7916
G1 Y23.2783 Z-28.8442
G1 Y23.1672 Z-28.8948
G1 Y23.0551 Z-28.9435
G1 Y22.9422 Z-28.9903
G1 Y22.8286 Z-29.0351
G1 Y22.7141 Z-29.0778
G1 Y22.599 Z-29.1186
G1 Y22.4831 Z-29.1574
G1 Y22.3666 Z-29.1941
G1 Y22.2495 Z-29.2288
G1 Y22.1317 Z-29.2615
G1 Y22.0135 Z-29.2921
G1 Y21.8947 Z-29.3206
G1 Y21.7754 Z-29.347
G1 Y21.6557 Z-29.3714
G1 Y21.5355 Z-29.3937
G1 Y21.415 Z-29.4138
G1 Y21.2942 Z-29.4319
G1 Y21.1731 Z-29.4478
G1 Y21.0517 Z-29.4617
G1 Y20.9301 Z-29.4734
G1 Y20.8083 Z-29.4829
G1 Y20.6864 Z-29.4904
G1 Y20.5643 Z-29.4957
G1 Y20.4422 Z-29.4989
G1 Y20.32 Z-29.5
G1 X-2 F80 ( Plunge )
G1 F200 ( Set milling feed rate )
G1 Y20.32 Z-29.5
G1 Y20.32 Z-29.5
G1 Y20.1978 Z-29.4989
G1 Y20.0757 Z-29.4957
G1 Y19.9536 Z-29.4904
G1 Y19.8317 Z-29.4829
G1 Y19.7099 Z-29.4734
G1 Y19.5883 Z-29.4617
G1 Y19.4669 Z-29.4478
G1 Y19.3458 Z-29.4319
G1 Y19.225 Z-29.4138
G1 Y19.1045 Z-29.3937
G1 Y18.9843 Z-29.3714
G1 Y18.8646 Z-29.347
G1 Y18.7453 Z-29.3206
G1 Y18.6265 Z-29.2921
G1 Y18.5083 Z-29.2615
G1 Y18.3905 Z-29.2288
G1 Y18.2734 Z-29.1941
G1 Y18.1569 Z-29.1574
G1 Y18.041 Z-29.1186
G1 Y17.9259 Z-29.0778
G1 Y17.8114 Z-29.0351
G1 Y17.6978 Z-28.9903
G1 Y17.5849 Z-28.9435
G1 Y17.4728 Z-28.8948
G1 Y17.3617 Z-28.8442
G1 Y17.2514 Z-28.7916
G1 Y17.1421 Z-28.737
G1 Y17.0337 Z-28.6806
G1 Y16.9263 Z-28.6223
G1 Y16.82 Z-28.5622
G1 Y16.7147 Z-28.5002
G1 Y16.6106 Z-28.4363
G1 Y16.5075 Z-28.3707
G1 Y16.4056 Z-28.3033
G1 Y16.305 Z-28.2341
G1 Y16.2055 Z-28.1631
G1 Y16.1073 Z-28.0904
G1 Y16.0104 Z-28.0161
G1 Y15.9148 Z-27.94
G1 Y15.8205 Z-27.8623
G1 Y15.7276 Z-27.783
G1 Y15.6361 Z-27.702
G1 Y15.546 Z-27.6195
G1 Y15.4574 Z-27.5354
G1 Y15.3703 Z-27.4497
G1 Y15.2846 Z-27.3626
G1 Y15.2005 Z-27.274
G1 Y15.118 Z-27.1839
G1 Y15.037 Z-27.0924
G1 Y14.9577 Z-26.9995
G1 Y14.88 Z-26.9052
G1 Y14.8039 Z-26.8096
G1 Y14.7296 Z-26.7127
G1 Y14.6569 Z-26.6145
G1 Y14.5859 Z-26.515
G1 Y14.5167 Z-26.4144
G1 Y14.4493 Z-26.3125
G1 Y14.3837 Z-26.2094
G1 Y14.3198 Z-26.1053
G1 Y14.2578 Z-26
G1 Y14.1977 Z-25.8937
G1 Y14.1394 Z-25.7863
G1 Y14.083 Z-25.6779
G1 Y14.0284 Z-25.5686
G1 Y13.9758 Z-25.4583
G1 Y13.9252 Z-25.3472
G1 Y13.8765 Z-25.2351
G1 Y13.8297 Z-25.1222
G1 Y13.7849 Z-25.0086
G1 Y13.7422 Z-24.8941
G1 Y13.7014 Z-24.779
G1 Y13.6626 Z-24.6631
G1 Y13.6259 Z-24.5466
G1 Y13.5912 Z-24.4295
G1 Y13.5585 Z-24.3117
G1 Y13.5279 Z-24.1935
G1 Y13.4994 Z-24.0747
G1 Y13.473 Z-23.9554
G1 Y13.4486 Z-23.8357
G1 Y13.4263 Z-23.7155
G1 Y13.4062 Z-23.595
G1 Y13.3881 Z-23.4742
G1 Y13.3722 Z-23.3531
G1 Y13.3583 Z-23.2317
G1 Y13.3466 Z-23.1101
G1 Y13.3371 Z-22.9883
G1 Y13.3296 Z-22.8664
G1 Y13.3243 Z-22.7443
G1 Y13.3211 Z-22.6222
G1 Y13.32 Z-22.5
G1 Y13.3211 Z-22.3778
G1 Y13.3243 Z-22.2557
G1 Y13.3296 Z-22.1336
G1 Y13.3371 Z-22.0117
G1 Y13.3466 Z-21.8899
G1 Y13.3583 Z-21.7683
G1 Y13.3722 Z-21.6469
G1 Y13.3881 Z-21.5258
G1 Y13.4062 Z-21.405
G1 Y13.4263 Z-21.2845
G1 Y13.4486 Z-21.1643
G1 Y13.473 Z-21.0446
G1 Y13.4994 Z-20.9253
G1 Y13.5279 Z-20.8065
G1 Y13.5585 Z-20.6883
G1 Y13.5912 Z-20.5705
G1 Y13.6259 Z-20.4534
G1 Y13.6626 Z-20.3369
G1 Y13.7014 Z-20.221
G1 Y13.7422 Z-20.1059
G1 Y13.7849 Z-19.9914
G1 Y13.8297 Z-19.8778
G1 Y13.8765 Z-19.7649
G1 Y13.9252 Z-19.6528
G1 Y13.9758 Z-19.5417
G1 Y14.0284 Z-19.4314
G1 Y14.083 Z-19.3221
G1 Y14.1394 Z-19.2137
G1 Y14.1977 Z-19.1063
G1 Y14.2578 Z-19
G1 Y14.3198 Z-18.8947
G1 Y14.3837 Z-18.7906
G1 Y14.4493 Z-18.6875
G1 Y14.5167 Z-18.5856
G1 Y14.5859 Z-18.485
G1 Y14.6569 Z-18.3855
G1 Y14.7296 Z-18.2873
G1 Y14.8039 Z-18.1904
G1 Y14.88 Z-18.0948
G1 Y14.9577 Z-18.0005
G1 Y15.037 Z-17.9076
G1 Y15.118 Z-17.8161
G1 Y15.2005 Z-17.726
G1 Y15.2846 Z-17.6374
G1 Y15.3703 Z-17.5503
G1 Y15.4574 Z-17.4646
G1 Y15.546 Z-17.3805
G1 Y15.6361 Z-17.298
G1 Y15.7276 Z-17.217
G1 Y15.8205 Z-17.1377
G1 Y15.9148 Z-17.06
G1 Y16.0104 Z-16.9839
G1 Y16.1073 Z-16.9096
G1 Y16.2055 Z-16.8369
G1 Y16.305 Z-16.7659
G1 Y16.4056 Z-16.6967
G1 Y16.5075 Z-16.6293
G1 Y16.6106 Z-16.5637
G1 Y16.7147 Z-16.4998
G1 Y16.82 Z-16.4378
G1 Y16.9263 Z-16.3777
G1 Y17.0337 Z-16.3194
G1 Y17.1421 Z-16.263
G1 Y17.2514 Z-16.2084
G1 Y17.3617 Z-16.1558
G1 Y17.4728 Z-16.1052
G1 Y17.5849 Z-16.0565
G1 Y17.6978 Z-16.0097
G1 Y17.8114 Z-15.9649
G1 Y17.9259 Z-15.9222
G1 Y18.041 Z-15.8814
G1 Y18.1569 Z-15.8426
G1 Y18.2734 Z-15.8059
G1 Y18.3905 Z-15.7712
G1 Y18.5083 Z-15.7385
G1 Y18.6265 Z-15.7079
G1 Y18.7453 Z-15.6794
G1 Y18.8646 Z-15.653
G1 Y18.9843 Z-15.6286
G1 Y19.1045 Z-15.6063
G1 Y19.225 Z-15.5862
G1 Y19.3458 Z-15.5681
G1 Y19.4669 Z-15.5522
G1 Y19.5883 Z-15.5383
G1 Y19.7099 Z-15.5266
G1 Y19.8317 Z-15.5171
G1 Y19.9536 Z-15.5096
G1 Y20.0757 Z-15.5043
G1 Y20.1978 Z-15.5011
G1 Y20.32 Z-15.5
G1 Y20.4422 Z-15.5011
G1 Y20.5643 Z-15.5043
G1 Y20.6864 Z-15.5096
G1 Y20.8083 Z-15.5171
G1 Y20.9301 Z-15.5266
G1 Y21.0517 Z-15.5383
G1 Y21.1731 Z-15.5522
G1 Y21.2942 Z-15.5681
G1 Y21.415 Z-15.5862
G1 Y21.5355 Z-15.6063
G1 Y21.6557 Z-15.6286
G1 Y21.7754 Z-15.653
G1 Y21.8947 Z-15.6794
G1 Y22.0135 Z-15.7079
G1 Y22.1317 Z-15.7385
G1 Y22.2495 Z-15.7712
G1 Y22.3666 Z-15.8059
G1 Y22.4831 Z-15.8426
G1 Y22.599 Z-15.8814
G1 Y22.7141 Z-15.9222
G1 Y22.8286 Z-15.9649
G1 Y22.9422 Z-16.0097
G1 Y23.0551 Z-16.0565
G1 Y23.1672 Z-16.1052
G1 Y23.2783 Z-16.1558
G1 Y23.3886 Z-16.2084
G1 Y23.4979 Z-16.263
G1 Y23.6063 Z-16.3194
G1 Y23.7137 Z-16.3777
G1 Y23.82 Z-16.4378
G1 Y23.9253 Z-16.4998
G1 Y24.0294 Z-16.5637
G1 Y24.1325 Z-16.6293
G1 Y24.2344 Z-16.6967
G1 Y24.335 Z-16.7659
G1 Y24.4345 Z-16.8369
G1 Y24.5327 Z-16.9096
G1 Y24.6296 Z-16.9839
G1 Y24.7252 Z-17.06
G1 Y24.8195 Z-17.1377
G1 Y24.9124 Z-17.217
G1 Y25.0039 Z-17.298
G1 Y25.094 Z-17.3805
G1 Y25.1826 Z-17.4646
G1 Y25.2697 Z-17.5503
G1 Y25.3554 Z-17.6374
G1 Y25.4395 Z-17.726
G1 Y25.522 Z-17.8161
G1 Y25.603 Z-17.9076
G1 Y25.6823 Z-18.0005
G1 Y25.76 Z-18.0948
G1 Y25.8361 Z-18.1904
G1 Y25.9104 Z-18.2873
G1 Y25.9831 Z-18.3855
G1 Y26.0541 Z-18.485
G1 Y26.1233 Z-18.5856
G1 Y26.1907 Z-18.6875
G1 Y26.2563 Z-18.7906
G1 Y26.3202 Z-18.8947
G1 Y26.3822 Z-19
G1 Y26.4423 Z-19.1063
G1 Y26.5006 Z-19.2137
G1 Y26.557 Z-19.3221
G1 Y26.6116 Z-19.4314
G1 Y26.6642 Z-19.5417
G1 Y26.7148 Z-19.6528
G1 Y26.7635 Z-19.7649
G1 Y26.8103 Z-19.8778
G1 Y26.8551 Z-19.9914
G1 Y26.8978 Z-20.1059
G1 Y26.9386 Z-20.221
G1 Y26.9774 Z-20.3369
G1 Y27.0141 Z-20.4534
G1 Y27.0488 Z-20.5705
G1 Y27.0815 Z-20.6883
G1 Y27.1121 Z-20.8065
G1 Y27.1406 Z-20.9253
G1 Y27.167 Z-21.0446
G1 Y27.1914 Z-21.1643
G1 Y27.2137 Z-21.2845
G1 Y27.2338 Z-21.405
G1 Y27.2519 Z-21.5258
G1 Y27.2678 Z-21.6469
G1 Y27.2817 Z-21.7683
G1 Y27.2934 Z-21.8899
G1 Y27.3029 Z-22.0117
G1 Y27.3104 Z-22.1336
G1 Y27.3157 Z-22.2557
G1 Y27.3189 Z-22.3778
G1 Y27.32 Z-22.5
G1 Y27.3189 Z-22.6222
G1 Y27.3157 Z-22.7443
G1 Y27.3104 Z-22.8664
G1 Y27.3029 Z-22.9883
G1 Y27.2934 Z-23.1101
G1 Y27.2817 Z-23.2317
G1 Y27.2678 Z-23.3531
G1 Y27.2519 Z-23.4742
G1 Y27.2338 Z-23.595
G1 Y27.2137 Z-23.7155
G1 Y27.1914 Z-23.8357
G1 Y27.167 Z-23.9554
G1 Y27.1406 Z-24.0747
G1 Y27.1121 Z-24.1935
G1 Y27.0815 Z-24.3117
G1 Y27.0488 Z-24.4295
G1 Y27.0141 Z-24.5466
G1 Y26.9774 Z-24.6631
G1 Y26.9386 Z-24.779
G1 Y26.8978 Z-24.8941
G1 Y26.8551 Z-25.0086
G1 Y26.8103 Z-25.1222
G1 Y26.7635 Z-25.2351
G1 Y26.7148 Z-25.3472
G1 Y26.6642 Z-25.4583
G1 Y26.6116 Z-25.5686
G1 Y26.557 Z-25.6779
G1 Y26.5006 Z-25.7863
G1 Y26.4423 Z-25.8937
G1 Y26.3822 Z-26
G1 Y26.3202 Z-26.1053
G1 Y26.2563 Z-26.2094
G1 Y26.1907 Z-26.3125
G1 Y26.1233 Z-26.4144
G1 Y26.0541 Z-26.515
G1 Y25.9831 Z-26.6145
G1 Y25.9104 Z-26.7127
G1 Y25.8361 Z-26.8096
G1 Y25.76 Z-26.9052
G1 Y25.6823 Z-26.9995
G1 Y25.603 Z-27.0924
G1 Y25.522 Z-27.1839
G1 Y25.4395 Z-27.274
G1 Y25.3554 Z-27.3626
G1 Y25.2697 Z-27.4497
G1 Y25.1826 Z-27.5354
G1 Y25.094 Z-27.6195
G1 Y25.0039 Z-27.702
G1 Y24.9124 Z-27.783
G1 Y24.8195 Z-27.8623
G1 Y24.7252 Z-27.94
G1 Y24.6296 Z-28.0161
G1 Y24.5327 Z-28.0904
G1 Y24.4345 Z-28.1631
G1 Y24.335 Z-28.2341
G1 Y24.2344 Z-28.3033
G1 Y24.1325 Z-28.3707
G1 Y24.0294 Z-28.4363
G1 Y23.9253 Z-28.5002
G1 Y23.82 Z-28.5622
G1 Y23.7137 Z-28.6223
G1 Y23.6063 Z-28.6806
G1 Y23.4979 Z-28.737
G1 Y23.3886 Z-28.7916
G1 Y23.2783 Z-28.8442
G1 Y23.1672 Z-28.8948
G1 Y23.0551 Z-28.9435
G1 Y22.9422 Z-28.9903
G1 Y22.8286 Z-29.0351
G1 Y22.7141 Z-29.0778
G1 Y22.599 Z-29.1186
G1 Y22.4831 Z-29.1574
G1 Y22.3666 Z-29.1941
G1 Y22.2495 Z-29.2288
G1 Y22.1317 Z-29.2615
G1 Y22.0135 Z-29.2921
G1 Y21.8947 Z-29.3206
G1 Y21.7754 Z-29.347
G1 Y21.6557 Z-29.3714
G1 Y21.5355 Z-29.3937
G1 Y21.415 Z-29.4138
G1 Y21.2942 Z-29.4319
G1 Y21.1731 Z-29.4478
G1 Y21.0517 Z-29.4617
G1 Y20.9301 Z-29.4734
G1 Y20.8083 Z-29.4829
G1 Y20.6864 Z-29.4904
G1 Y20.5643 Z-29.4957
G1 Y20.4422 Z-29.4989
G1 Y20.32 Z-29.5
G1 X-3 F80 ( Plunge )
G1 F200 ( Set milling feed rate )
G1 Y20.32 Z-29.5
G1 Y20.32 Z-29.5
G1 Y20.1978 Z-29.4989
G1 Y20.0757 Z-29.4957
G1 Y19.9536 Z-29.4904
G1 Y19.8317 Z-29.4829
G1 Y19.7099 Z-29.4734
G1 Y19.5883 Z-29.4617
G1 Y19.4669 Z-29.4478
G1 Y19.3458 Z-29.4319
G1 Y19.225 Z-29.4138
G1 Y19.1045 Z-29.3937
G1 Y18.9843 Z-29.3714
G1 Y18.8646 Z-29.347
G1 Y18.7453 Z-29.3206
G1 Y18.6265 Z-29.2921
G1 Y18.5083 Z-29.2615
G1 Y18.3905 Z-29.2288
G1 Y18.2734 Z-29.1941
G1 Y18.1569 Z-29.1574
G1 Y18.041 Z-29.1186
G1 Y17.9259 Z-29.0778
G1 Y17.8114 Z-29.0351
G1 Y17.6978 Z-28.9903
G1 Y17.5849 Z-28.9435
G1 Y17.4728 Z-28.8948
G1 Y17.3617 Z-28.8442
G1 Y17.2514 Z-28.7916
G1 Y17.1421 Z-28.737
G1 Y17.0337 Z-28.6806
G1 Y16.9263 Z-28.6223
G1 Y16.82 Z-28.5622
G1 Y16.7147 Z-28.5002
G1 Y16.6106 Z-28.4363
G1 Y16.5075 Z-28.3707
G1 Y16.4056 Z-28.3033
G1 Y16.305 Z-28.2341
G1 Y16.2055 Z-28.1631
G1 Y16.1073 Z-28.0904
G1 Y16.0104 Z-28.0161
G1 Y15.9148 Z-27.94
G1 Y15.8205 Z-27.8623
G1 Y15.7276 Z-27.783
G1 Y15.6361 Z-27.702
G1 Y15.546 Z-27.6195
G1 Y15.4574 Z-27.5354
G1 Y15.3703 Z-27.4497
G1 Y15.2846 Z-27.3626
G1 Y15.2005 Z-27.274
G1 Y15.118 Z-27.1839
G1 Y15.037 Z-27.0924
G1 Y14.9577 Z-26.9995
G1 Y14.88 Z-26.9052
G1 Y14.8039 Z-26.8096
G1 Y14.7296 Z-26.7127
G1 Y14.6569 Z-26.6145
G1 Y14.5859 Z-26.515
G1 Y14.5167 Z-26.4144
G1 Y14.4493 Z-26.3125
G1 Y14.3837 Z-26.2094
G1 Y14.3198 Z-26.1053
G1 Y14.2578 Z-26
G1 Y14.1977 Z-25.8937
G1 Y14.1394 Z-25.7863
G1 Y14.083 Z-25.6779
G1 Y14.0284 Z-25.5686
G1 Y13.9758 Z-25.4583
G1 Y13.9252 Z-25.3472
G1 Y13.8765 Z-25.2351
G1 Y13.8297 Z-25.1222
G1 Y13.7849 Z-25.0086
G1 Y13.7422 Z-24.8941
G1 Y13.7014 Z-24.779
G1 Y13.6626 Z-24.6631
G1 Y13.6259 Z-24.5466
G1 Y13.5912 Z-24.4295
G1 Y13.5585 Z-24.3117
G1 Y13.5279 Z-24.1935
G1 Y13.4994 Z-24.0747
G1 Y13.473 Z-23.9554
G1 Y13.4486 Z-23.8357
G1 Y13.4263 Z-23.7155
G1 Y13.4062 Z-23.595
G1 Y13.3881 Z-23.4742
G1 Y13.3722 Z-23.3531
G1 Y13.3583 Z-23.2317
G1 Y13.3466 Z-23.1101
G1 Y13.3371 Z-22.9883
G1 Y13.3296 Z-22.8664
G1 Y13.3243 Z-22.7443
G1 Y13.3211 Z-22.6222
G1 Y13.32 Z-22.5
G1 Y13.3211 Z-22.3778
G1 Y13.3243 Z-22.2557
G1 Y13.3296 Z-22.1336
G1 Y13.3371 Z-22.0117
G1 Y13.3466 Z-21.8899
G1 Y13.3583 Z-21.7683
G1 Y13.3722 Z-21.6469
G1 Y13.3881 Z-21.5258
G1 Y13.4062 Z-21.405
G1 Y13.4263 Z-21.2845
G1 Y13.4486 Z-21.1643
G1 Y13.473 Z-21.0446
G1 Y13.4994 Z-20.9253
G1 Y13.5279 Z-20.8065
G1 Y13.5585 Z-20.6883
G1 Y13.5912 Z-20.5705
G1 Y13.6259 Z-20.4534
G1 Y13.6626 Z-20.3369
G1 Y13.7014 Z-20.221
G1 Y13.7422 Z-20.1059
G1 Y13.7849 Z-19.9914
G1 Y13.8297 Z-19.8778
G1 Y13.8765 Z-19.7649
G1 Y13.9252 Z-19.6528
G1 Y13.9758 Z-19.5417
G1 Y14.0284 Z-19.4314
G1 Y14.083 Z-19.3221
G1 Y14.1394 Z-19.2137
G1 Y14.1977 Z-19.1063
G1 Y14.2578 Z-19
G1 Y14.3198 Z-18.8947
G1 Y14.3837 Z-18.7906
G1 Y14.4493 Z-18.6875
G1 Y14.5167 Z-18.5856
G1 Y14.5859 Z-18.485
G1 Y14.6569 Z-18.3855
G1 Y14.7296 Z-18.2873
G1 Y14.8039 Z-18.1904
G1 Y14.88 Z-18.0948
G1 Y14.9577 Z-18.0005
G1 Y15.037 Z-17.9076
G1 Y15.118 Z-17.8161
G1 Y15.2005 Z-17.726
G1 Y15.2846 Z-17.6374
G1 Y15.3703 Z-17.5503
G1 Y15.4574 Z-17.4646
G1 Y15.546 Z-17.3805
G1 Y15.6361 Z-17.298
G1 Y15.7276 Z-17.217
G1 Y15.8205 Z-17.1377
G1 Y15.9148 Z-17.06
G1 Y16.0104 Z-16.9839
G1 Y16.1073 Z-16.9096
G1 Y16.2055 Z-16.8369
G1 Y16.305 Z-16.7659
G1 Y16.4056 Z-16.6967
G1 Y16.5075 Z-16.6293
G1 Y16.6106 Z-16.5637
G1 Y16.7147 Z-16.4998
G1 Y16.82 Z-16.4378
G1 Y16.9263 Z-16.3777
G1 Y17.0337 Z-16.3194
G1 Y17.1421 Z-16.263
G1 Y17.2514 Z-16.2084
G1 Y17.3617 Z-16.1558
G1 Y17.4728 Z-16.1052
G1 Y17.5849 Z-16.0565
G1 Y17.6978 Z-16.0097
G1 Y17.8114 Z-15.9649
G1 Y17.9259 Z-15.9222
G1 Y18.041 Z-15.8814
G1 Y18.1569 Z-15.8426
G1 Y18.2734 Z-15.8059
G1 Y18.3905 Z-15.7712
G1 Y18.5083 Z-15.7385
G1 Y18.6265 Z-15.7079
G1 Y18.7453 Z-15.6794
G1 Y18.8646 Z-15.653
G1 Y18.9843 Z-15.6286
G1 Y19.1045 Z-15.6063
G1 Y19.225 Z-15.5862
G1 Y19.3458 Z-15.5681
G1 Y19.4669 Z-15.5522
G1 Y19.5883 Z-15.5383
G1 Y19.7099 Z-15.5266
G1 Y19.8317 Z-15.5171
G1 Y19.9536 Z-15.5096
G1 Y20.0757 Z-15.5043
G1 Y20.1978 Z-15.5011
G1 Y20.32 Z-15.5
G1 Y20.4422 Z-15.5011
G1 Y20.5643 Z-15.5043
G1 Y20.6864 Z-15.5096
G1 Y20.8083 Z-15.5171
G1 Y20.9301 Z-15.5266
G1 Y21.0517 Z-15.5383
G1 Y21.1731 Z-15.5522
G1 Y21.2942 Z-15.5681
G1 Y21.415 Z-15.5862
G1 Y21.5355 Z-15.6063
G1 Y21.6557 Z-15.6286
G1 Y21.7754 Z-15.653
G1 Y21.8947 Z-15.6794
G1 Y22.0135 Z-15.7079
G1 Y22.1317 Z-15.7385
G1 Y22.2495 Z-15.7712
G1 Y22.3666 Z-15.8059
G1 Y22.4831 Z-15.8426
G1 Y22.599 Z-15.8814
G1 Y22.7141 Z-15.9222
G1 Y22.8286 Z-15.9649
G1 Y22.9422 Z-16.0097
G1 Y23.0551 Z-16.0565
G1 Y23.1672 Z-16.1052
G1 Y23.2783 Z-16.1558
G1 Y23.3886 Z-16.2084
G1 Y23.4979 Z-16.263
G1 Y23.6063 Z-16.3194
G1 Y23.7137 Z-16.3777
G1 Y23.82 Z-16.4378
G1 Y23.9253 Z-16.4998
G1 Y24.0294 Z-16.5637
G1 Y24.1325 Z-16.6293
G1 Y24.2344 Z-16.6967
G1 Y24.335 Z-16.7659
G1 Y24.4345 Z-16.8369
G1 Y24.5327 Z-16.9096
G1 Y24.6296 Z-16.9839
G1 Y24.7252 Z-17.06
G1 Y24.8195 Z-17.1377
G1 Y24.9124 Z-17.217
G1 Y25.0039 Z-17.298
G1 Y25.094 Z-17.3805
G1 Y25.1826 Z-17.4646
G1 Y25.2697 Z-17.5503
G1 Y25.3554 Z-17.6374
G1 Y25.4395 Z-17.726
G1 Y25.522 Z-17.8161
G1 Y25.603 Z-17.9076
G1 Y25.6823 Z-18.0005
G1 Y25.76 Z-18.0948
G1 Y25.8361 Z-18.1904
G1 Y25.9104 Z-18.2873
G1 Y25.9831 Z-18.3855
G1 Y26.0541 Z-18.485
G1 Y26.1233 Z-18.5856
G1 Y26.1907 Z-18.6875
G1 Y26.2563 Z-18.7906
G1 Y26.3202 Z-18.8947
G1 Y26.3822 Z-19
G1 Y26.4423 Z-19.1063
G1 Y26.5006 Z-19.2137
G1 Y26.557 Z-19.3221
G1 Y26.6116 Z-19.4314
G1 Y26.6642 Z-19.5417
G1 Y26.7148 Z-19.6528
G1 Y26.7635 Z-19.7649
G1 Y26.8103 Z-19.8778
G1 Y26.8551 Z-19.9914
G1 Y26.8978 Z-20.1059
G1 Y26.9386 Z-20.221
G1 Y26.9774 Z-20.3369
G1 Y27.0141 Z-20.4534
G1 Y27.0488 Z-20.5705
G1 Y27.0815 Z-20.6883
G1 Y27.1121 Z-20.8065
G1 Y27.1406 Z-20.9253
G1 Y27.167 Z-21.0446
G1 Y27.1914 Z-21.1643
G1 Y27.2137 Z-21.2845
G1 Y27.2338 Z-21.405
G1 Y27.2519 Z-21.5258
G1 Y27.2678 Z-21.6469
G1 Y27.2817 Z-21.7683
G1 Y27.2934 Z-21.8899
G1 Y27.3029 Z-22.0117
G1 Y27.3104 Z-22.1336
G1 Y27.3157 Z-22.2557
G1 Y27.3189 Z-22.3778
G1 Y27.32 Z-22.5
G1 Y27.3189 Z-22.6222
G1 Y27.3157 Z-22.7443
G1 Y27.3104 Z-22.8664
G1 Y27.3029 Z-22.9883
G1 Y27.2934 Z-23.1101
G1 Y27.2817 Z-23.2317
G1 Y27.2678 Z-23.3531
G1 Y27.2519 Z-23.4742
G1 Y27.2338 Z-23.595
G1 Y27.2137 Z-23.7155
G1 Y27.1914 Z-23.8357
G1 Y27.167 Z-23.9554
G1 Y27.1406 Z-24.0747
G1 Y27.1121 Z-24.1935
G1 Y27.0815 Z-24.3117
G1 Y27.0488 Z-24.4295
G1 Y27.0141 Z-24.5466
G1 Y26.9774 Z-24.6631
G1 Y26.9386 Z-24.779
G1 Y26.8978 Z-24.8941
G1 Y26.8551 Z-25.0086
G1 Y26.8103 Z-25.1222
G1 Y26.7635 Z-25.2351
G1 Y26.7148 Z-25.3472
G1 Y26.6642 Z-25.4583
G1 Y26.6116 Z-25.5686
G1 Y26.557 Z-25.6779
G1 Y26.5006 Z-25.7863
G1 Y26.4423 Z-25.8937
G1 Y26.3822 Z-26
G1 Y26.3202 Z-26.1053
G1 Y26.2563 Z-26.2094
G1 Y26.1907 Z-26.3125
G1 Y26.1233 Z-26.4144
G1 Y26.0541 Z-26.515
G1 Y25.9831 Z-26.6145
G1 Y25.9104 Z-26.7127
G1 Y25.8361 Z-26.8096
G1 Y25.76 Z-26.9052
G1 Y25.6823 Z-26.9995
G1 Y25.603 Z-27.0924
G1 Y25.522 Z-27.1839
G1 Y25.4395 Z-27.274
G1 Y25.3554 Z-27.3626
G1 Y25.2697 Z-27.4497
G1 Y25.1826 Z-27.5354
G1 Y25.094 Z-27.6195
G1 Y25.0039 Z-27.702
G1 Y24.9124 Z-27.783
G1 Y24.8195 Z-27.8623
G1 Y24.7252 Z-27.94
G1 Y24.6296 Z-28.0161
G1 Y24.5327 Z-28.0904
G1 Y24.4345 Z-28.1631
G1 Y24.335 Z-28.2341
G1 Y24.2344 Z-28.3033
G1 Y24.1325 Z-28.3707
G1 Y24.0294 Z-28.4363
G1 Y23.9253 Z-28.5002
G1 Y23.82 Z-28.5622
G1 Y23.7137 Z-28.6223
G1 Y23.6063 Z-28.6806
G1 Y23.4979 Z-28.737
G1 Y23.3886 Z-28.7916
G1 Y23.2783 Z-28.8442
G1 Y23.1672 Z-28.8948
G1 Y23.0551 Z-28.9435
G1 Y22.9422 Z-28.9903
G1 Y22.8286 Z-29.0351
G1 Y22.7141 Z-29.0778
G1 Y22.599 Z-29.1186
G1 Y22.4831 Z-29.1574
G1 Y22.3666 Z-29.1941
G1 Y22.2495 Z-29.2288
G1 Y22.1317 Z-29.2615
G1 Y22.0135 Z-29.2921
G1 Y21.8947 Z-29.3206
G1 Y21.7754 Z-29.347
G1 Y21.6557 Z-29.3714
G1 Y21.5355 Z-29.3937
G1 Y21.415 Z-29.4138
G1 Y21.2942 Z-29.4319
G1 Y21.1731 Z-29.4478
G1 Y21.0517 Z-29.4617
G1 Y20.9301 Z-29.4734
G1 Y20.8083 Z-29.4829
G1 Y20.6864 Z-29.4904
G1 Y20.5643 Z-29.4957
G1 Y20.4422 Z-29.4989
G1 Y20.32 Z-29.5
G0 X3 ( Retract )
G0 Z3 ( Retract )
M5 ( Spindle off )
G4 P1 ( Wait for spindle to stop )
M9 ( Coolant off )
M2 ( Program end )
( end, rd=475.211 mm, rt=0.508307 min, md=728.836 mm, mt=3.77918 min )
