( ./gcode_splitter_sidemill.py )
G94 ( Millimeters per minute feed rate )
G21 ( Units == Millimeters )
G90 ( Absolute coordinates )
G0 S10000 ( RPM spindle speed )
G1 F200 ( Feedrate )
G0 Z3 ( Retract to tool change height )
T0
M5 ( Spindle stop )
G4 P1 ( Wait for spindle to stop )
( MSG, Change tool bit to cutter diameter 2mm) )
M0 ( Temporary machine stop )
M3 ( Spindle on clockwise )
G4 P1 ( Wait for spindle to get up to speed )
G0 Z3 ( Retract )
G0 X3 ( Retract )
G0 Y29.5 Z-3
G0 X3 ( Retract )
G0 Y29.5
G0 X-1 ( Plunge )
G1 F200 ( Set milling feed rate )
G1 Y-29.5
G0 X3 ( Retract )
G0 Y29.5
G0 X-2 ( Plunge )
G1 F200 ( Set milling feed rate )
G1 Y-29.5
G0 X3 ( Retract )
G0 Y29.5
G0 X-3 ( Plunge )
G1 F200 ( Set milling feed rate )
G1 Y-29.5
G0 X3 ( Retract )
G0 Y0
G0 Y-14.5 Z-13
G1 X-1 F80 ( Plunge )
G1 F200 ( Set milling feed rate )
G1 Y-5.5
G1 Z-21
G1 Y-14.5
G1 Z-13
G1 X-2 F80 ( Plunge )
G1 F200 ( Set milling feed rate )
G1 Y-5.5
G1 Z-21
G1 Y-14.5
G1 Z-13
G1 X-3 F80 ( Plunge )
G1 F200 ( Set milling feed rate )
G1 Y-5.5
G1 Z-21
G1 Y-14.5
G1 Z-13
G0 X3 ( Retract )
G0 X3 ( Retract )
G0 Y9 Z-20.75
G1 X-1 F80 ( Plunge )
G1 F200 ( Set milling feed rate )
G1 Y9 Z-20.75
G1 Y9 Z-20.75
G1 Y8.952 Z-20.7496
G1 Y8.904 Z-20.7483
G1 Y8.8561 Z-20.7462
G1 Y8.8082 Z-20.7433
G1 Y8.7603 Z-20.7395
G1 Y8.7125 Z-20.7349
G1 Y8.6649 Z-20.7295
G1 Y8.6173 Z-20.7232
G1 Y8.5698 Z-20.7161
G1 Y8.5225 Z-20.7082
G1 Y8.4753 Z-20.6995
G1 Y8.4282 Z-20.6899
G1 Y8.3814 Z-20.6795
G1 Y8.3347 Z-20.6683
G1 Y8.2882 Z-20.6563
G1 Y8.242 Z-20.6435
G1 Y8.196 Z-20.6298
G1 Y8.1502 Z-20.6154
G1 Y8.1047 Z-20.6002
G1 Y8.0594 Z-20.5842
G1 Y8.0145 Z-20.5673
G1 Y7.9698 Z-20.5498
G1 Y7.9255 Z-20.5314
G1 Y7.8815 Z-20.5123
G1 Y7.8378 Z-20.4923
G1 Y7.7945 Z-20.4717
G1 Y7.7515 Z-20.4503
G1 Y7.709 Z-20.4281
G1 Y7.6668 Z-20.4052
G1 Y7.625 Z-20.3816
G1 Y7.5836 Z-20.3572
G1 Y7.5427 Z-20.3321
G1 Y7.5022 Z-20.3063
G1 Y7.4622 Z-20.2799
G1 Y7.4227 Z-20.2527
G1 Y7.3836 Z-20.2248
G1 Y7.345 Z-20.1962
G1 Y7.3069 Z-20.167
G1 Y7.2694 Z-20.1372
G1 Y7.2323 Z-20.1066
G1 Y7.1958 Z-20.0755
G1 Y7.1599 Z-20.0436
G1 Y7.1245 Z-20.0112
G1 Y7.0897 Z-19.9782
G1 Y7.0555 Z-19.9445
G1 Y7.0218 Z-19.9103
G1 Y6.9888 Z-19.8755
G1 Y6.9564 Z-19.8401
G1 Y6.9245 Z-19.8042
G1 Y6.8934 Z-19.7677
G1 Y6.8628 Z-19.7306
G1 Y6.833 Z-19.6931
G1 Y6.8038 Z-19.655
G1 Y6.7752 Z-19.6164
G1 Y6.7473 Z-19.5773
G1 Y6.7201 Z-19.5378
G1 Y6.6937 Z-19.4978
G1 Y6.6679 Z-19.4573
G1 Y6.6428 Z-19.4164
G1 Y6.6184 Z-19.375
G1 Y6.5948 Z-19.3332
G1 Y6.5719 Z-19.291
G1 Y6.5497 Z-19.2485
G1 Y6.5283 Z-19.2055
G1 Y6.5077 Z-19.1622
G1 Y6.4877 Z-19.1185
G1 Y6.4686 Z-19.0745
G1 Y6.4502 Z-19.0302
G1 Y6.4327 Z-18.9855
G1 Y6.4158 Z-18.9406
G1 Y6.3998 Z-18.8953
G1 Y6.3846 Z-18.8498
G1 Y6.3702 Z-18.804
G1 Y6.3565 Z-18.758
G1 Y6.3437 Z-18.7118
G1 Y6.3317 Z-18.6653
G1 Y6.3205 Z-18.6186
G1 Y6.3101 Z-18.5718
G1 Y6.3005 Z-18.5247
G1 Y6.2918 Z-18.4775
G1 Y6.2839 Z-18.4302
G1 Y6.2768 Z-18.3827
G1 Y6.2705 Z-18.3351
G1 Y6.2651 Z-18.2875
G1 Y6.2605 Z-18.2397
G1 Y6.2567 Z-18.1918
G1 Y6.2538 Z-18.1439
G1 Y6.2517 Z-18.096
G1 Y6.2504 Z-18.048
G1 Y6.25 Z-18
G1 Y6.2504 Z-17.952
G1 Y6.2517 Z-17.904
G1 Y6.2538 Z-17.8561
G1 Y6.2567 Z-17.8082
G1 Y6.2605 Z-17.7603
G1 Y6.2651 Z-17.7125
G1 Y6.2705 Z-17.6649
G1 Y6.2768 Z-17.6173
G1 Y6.2839 Z-17.5698
G1 Y6.2918 Z-17.5225
G1 Y6.3005 Z-17.4753
G1 Y6.3101 Z-17.4282
G1 Y6.3205 Z-17.3814
G1 Y6.3317 Z-17.3347
G1 Y6.3437 Z-17.2882
G1 Y6.3565 Z-17.242
G1 Y6.3702 Z-17.196
G1 Y6.3846 Z-17.1502
G1 Y6.3998 Z-17.1047
G1 Y6.4158 Z-17.0594
G1 Y6.4327 Z-17.0145
G1 Y6.4502 Z-16.9698
G1 Y6.4686 Z-16.9255
G1 Y6.4877 Z-16.8815
G1 Y6.5077 Z-16.8378
G1 Y6.5283 Z-16.7945
G1 Y6.5497 Z-16.7515
G1 Y6.5719 Z-16.709
G1 Y6.5948 Z-16.6668
G1 Y6.6184 Z-16.625
G1 Y6.6428 Z-16.5836
G1 Y6.6679 Z-16.5427
G1 Y6.6937 Z-16.5022
G1 Y6.7201 Z-16.4622
G1 Y6.7473 Z-16.4227
G1 Y6.7752 Z-16.3836
G1 Y6.8038 Z-16.345
G1 Y6.833 Z-16.3069
G1 Y6.8628 Z-16.2694
G1 Y6.8934 Z-16.2323
G1 Y6.9245 Z-16.1958
G1 Y6.9564 Z-16.1599
G1 Y6.9888 Z-16.1245
G1 Y7.0218 Z-16.0897
G1 Y7.0555 Z-16.0555
G1 Y7.0897 Z-16.0218
G1 Y7.1245 Z-15.9888
G1 Y7.1599 Z-15.9564
G1 Y7.1958 Z-15.9245
G1 Y7.2323 Z-15.8934
G1 Y7.2694 Z-15.8628
G1 Y7.3069 Z-15.833
G1 Y7.345 Z-15.8038
G1 Y7.3836 Z-15.7752
G1 Y7.4227 Z-15.7473
G1 Y7.4622 Z-15.7201
G1 Y7.5022 Z-15.6937
G1 Y7.5427 Z-15.6679
G1 Y7.5836 Z-15.6428
G1 Y7.625 Z-15.6184
G1 Y7.6668 Z-15.5948
G1 Y7.709 Z-15.5719
G1 Y7.7515 Z-15.5497
G1 Y7.7945 Z-15.5283
G1 Y7.8378 Z-15.5077
G1 Y7.8815 Z-15.4877
G1 Y7.9255 Z-15.4686
G1 Y7.9698 Z-15.4502
G1 Y8.0145 Z-15.4327
G1 Y8.0594 Z-15.4158
G1 Y8.1047 Z-15.3998
G1 Y8.1502 Z-15.3846
G1 Y8.196 Z-15.3702
G1 Y8.242 Z-15.3565
G1 Y8.2882 Z-15.3437
G1 Y8.3347 Z-15.3317
G1 Y8.3814 Z-15.3205
G1 Y8.4282 Z-15.3101
G1 Y8.4753 Z-15.3005
G1 Y8.5225 Z-15.2918
G1 Y8.5698 Z-15.2839
G1 Y8.6173 Z-15.2768
G1 Y8.6649 Z-15.2705
G1 Y8.7125 Z-15.2651
G1 Y8.7603 Z-15.2605
G1 Y8.8082 Z-15.2567
G1 Y8.8561 Z-15.2538
G1 Y8.904 Z-15.2517
G1 Y8.952 Z-15.2504
G1 Y9 Z-15.25
G1 Y9.048 Z-15.2504
G1 Y9.096 Z-15.2517
G1 Y9.1439 Z-15.2538
G1 Y9.1918 Z-15.2567
G1 Y9.2397 Z-15.2605
G1 Y9.2875 Z-15.2651
G1 Y9.3351 Z-15.2705
G1 Y9.3827 Z-15.2768
G1 Y9.4302 Z-15.2839
G1 Y9.4775 Z-15.2918
G1 Y9.5247 Z-15.3005
G1 Y9.5718 Z-15.3101
G1 Y9.6186 Z-15.3205
G1 Y9.6653 Z-15.3317
G1 Y9.7118 Z-15.3437
G1 Y9.758 Z-15.3565
G1 Y9.804 Z-15.3702
G1 Y9.8498 Z-15.3846
G1 Y9.8953 Z-15.3998
G1 Y9.9406 Z-15.4158
G1 Y9.9855 Z-15.4327
G1 Y10.0302 Z-15.4502
G1 Y10.0745 Z-15.4686
G1 Y10.1185 Z-15.4877
G1 Y10.1622 Z-15.5077
G1 Y10.2055 Z-15.5283
G1 Y10.2485 Z-15.5497
G1 Y10.291 Z-15.5719
G1 Y10.3332 Z-15.5948
G1 Y10.375 Z-15.6184
G1 Y10.4164 Z-15.6428
G1 Y10.4573 Z-15.6679
G1 Y10.4978 Z-15.6937
G1 Y10.5378 Z-15.7201
G1 Y10.5773 Z-15.7473
G1 Y10.6164 Z-15.7752
G1 Y10.655 Z-15.8038
G1 Y10.6931 Z-15.833
G1 Y10.7306 Z-15.8628
G1 Y10.7677 Z-15.8934
G1 Y10.8042 Z-15.9245
G1 Y10.8401 Z-15.9564
G1 Y10.8755 Z-15.9888
G1 Y10.9103 Z-16.0218
G1 Y10.9445 Z-16.0555
G1 Y10.9782 Z-16.0897
G1 Y11.0112 Z-16.1245
G1 Y11.0436 Z-16.1599
G1 Y11.0755 Z-16.1958
G1 Y11.1066 Z-16.2323
G1 Y11.1372 Z-16.2694
G1 Y11.167 Z-16.3069
G1 Y11.1962 Z-16.345
G1 Y11.2248 Z-16.3836
G1 Y11.2527 Z-16.4227
G1 Y11.2799 Z-16.4622
G1 Y11.3063 Z-16.5022
G1 Y11.3321 Z-16.5427
G1 Y11.3572 Z-16.5836
G1 Y11.3816 Z-16.625
G1 Y11.4052 Z-16.6668
G1 Y11.4281 Z-16.709
G1 Y11.4503 Z-16.7515
G1 Y11.4717 Z-16.7945
G1 Y11.4923 Z-16.8378
G1 Y11.5123 Z-16.8815
G1 Y11.5314 Z-16.9255
G1 Y11.5498 Z-16.9698
G1 Y11.5673 Z-17.0145
G1 Y11.5842 Z-17.0594
G1 Y11.6002 Z-17.1047
G1 Y11.6154 Z-17.1502
G1 Y11.6298 Z-17.196
G1 Y11.6435 Z-17.242
G1 Y11.6563 Z-17.2882
G1 Y11.6683 Z-17.3347
G1 Y11.6795 Z-17.3814
G1 Y11.6899 Z-17.4282
G1 Y11.6995 Z-17.4753
G1 Y11.7082 Z-17.5225
G1 Y11.7161 Z-17.5698
G1 Y11.7232 Z-17.6173
G1 Y11.7295 Z-17.6649
G1 Y11.7349 Z-17.7125
G1 Y11.7395 Z-17.7603
G1 Y11.7433 Z-17.8082
G1 Y11.7462 Z-17.8561
G1 Y11.7483 Z-17.904
G1 Y11.7496 Z-17.952
G1 Y11.75 Z-18
G1 Y11.7496 Z-18.048
G1 Y11.7483 Z-18.096
G1 Y11.7462 Z-18.1439
G1 Y11.7433 Z-18.1918
G1 Y11.7395 Z-18.2397
G1 Y11.7349 Z-18.2875
G1 Y11.7295 Z-18.3351
G1 Y11.7232 Z-18.3827
G1 Y11.7161 Z-18.4302
G1 Y11.7082 Z-18.4775
G1 Y11.6995 Z-18.5247
G1 Y11.6899 Z-18.5718
G1 Y11.6795 Z-18.6186
G1 Y11.6683 Z-18.6653
G1 Y11.6563 Z-18.7118
G1 Y11.6435 Z-18.758
G1 Y11.6298 Z-18.804
G1 Y11.6154 Z-18.8498
G1 Y11.6002 Z-18.8953
G1 Y11.5842 Z-18.9406
G1 Y11.5673 Z-18.9855
G1 Y11.5498 Z-19.0302
G1 Y11.5314 Z-19.0745
G1 Y11.5123 Z-19.1185
G1 Y11.4923 Z-19.1622
G1 Y11.4717 Z-19.2055
G1 Y11.4503 Z-19.2485
G1 Y11.4281 Z-19.291
G1 Y11.4052 Z-19.3332
G1 Y11.3816 Z-19.375
G1 Y11.3572 Z-19.4164
G1 Y11.3321 Z-19.4573
G1 Y11.3063 Z-19.4978
G1 Y11.2799 Z-19.5378
G1 Y11.2527 Z-19.5773
G1 Y11.2248 Z-19.6164
G1 Y11.1962 Z-19.655
G1 Y11.167 Z-19.6931
G1 Y11.1372 Z-19.7306
G1 Y11.1066 Z-19.7677
G1 Y11.0755 Z-19.8042
G1 Y11.0436 Z-19.8401
G1 Y11.0112 Z-19.8755
G1 Y10.9782 Z-19.9103
G1 Y10.9445 Z-19.9445
G1 Y10.9103 Z-19.9782
G1 Y10.8755 Z-20.0112
G1 Y10.8401 Z-20.0436
G1 Y10.8042 Z-20.0755
G1 Y10.7677 Z-20.1066
G1 Y10.7306 Z-20.1372
G1 Y10.6931 Z-20.167
G1 Y10.655 Z-20.1962
G1 Y10.6164 Z-20.2248
G1 Y10.5773 Z-20.2527
G1 Y10.5378 Z-20.2799
G1 Y10.4978 Z-20.3063
G1 Y10.4573 Z-20.3321
G1 Y10.4164 Z-20.3572
G1 Y10.375 Z-20.3816
G1 Y10.3332 Z-20.4052
G1 Y10.291 Z-20.4281
G1 Y10.2485 Z-20.4503
G1 Y10.2055 Z-20.4717
G1 Y10.1622 Z-20.4923
G1 Y10.1185 Z-20.5123
G1 Y10.0745 Z-20.5314
G1 Y10.0302 Z-20.5498
G1 Y9.9855 Z-20.5673
G1 Y9.9406 Z-20.5842
G1 Y9.8953 Z-20.6002
G1 Y9.8498 Z-20.6154
G1 Y9.804 Z-20.6298
G1 Y9.758 Z-20.6435
G1 Y9.7118 Z-20.6563
G1 Y9.6653 Z-20.6683
G1 Y9.6186 Z-20.6795
G1 Y9.5718 Z-20.6899
G1 Y9.5247 Z-20.6995
G1 Y9.4775 Z-20.7082
G1 Y9.4302 Z-20.7161
G1 Y9.3827 Z-20.7232
G1 Y9.3351 Z-20.7295
G1 Y9.2875 Z-20.7349
G1 Y9.2397 Z-20.7395
G1 Y9.1918 Z-20.7433
G1 Y9.1439 Z-20.7462
G1 Y9.096 Z-20.7483
G1 Y9.048 Z-20.7496
G1 Y9 Z-20.75
G1 X-2 F80 ( Plunge )
G1 F200 ( Set milling feed rate )
G1 Y9 Z-20.75
G1 Y9 Z-20.75
G1 Y8.952 Z-20.7496
G1 Y8.904 Z-20.7483
G1 Y8.8561 Z-20.7462
G1 Y8.8082 Z-20.7433
G1 Y8.7603 Z-20.7395
G1 Y8.7125 Z-20.7349
G1 Y8.6649 Z-20.7295
G1 Y8.6173 Z-20.7232
G1 Y8.5698 Z-20.7161
G1 Y8.5225 Z-20.7082
G1 Y8.4753 Z-20.6995
G1 Y8.4282 Z-20.6899
G1 Y8.3814 Z-20.6795
G1 Y8.3347 Z-20.6683
G1 Y8.2882 Z-20.6563
G1 Y8.242 Z-20.6435
G1 Y8.196 Z-20.6298
G1 Y8.1502 Z-20.6154
G1 Y8.1047 Z-20.6002
G1 Y8.0594 Z-20.5842
G1 Y8.0145 Z-20.5673
G1 Y7.9698 Z-20.5498
G1 Y7.9255 Z-20.5314
G1 Y7.8815 Z-20.5123
G1 Y7.8378 Z-20.4923
G1 Y7.7945 Z-20.4717
G1 Y7.7515 Z-20.4503
G1 Y7.709 Z-20.4281
G1 Y7.6668 Z-20.4052
G1 Y7.625 Z-20.3816
G1 Y7.5836 Z-20.3572
G1 Y7.5427 Z-20.3321
G1 Y7.5022 Z-20.3063
G1 Y7.4622 Z-20.2799
G1 Y7.4227 Z-20.2527
G1 Y7.3836 Z-20.2248
G1 Y7.345 Z-20.1962
G1 Y7.3069 Z-20.167
G1 Y7.2694 Z-20.1372
G1 Y7.2323 Z-20.1066
G1 Y7.1958 Z-20.0755
G1 Y7.1599 Z-20.0436
G1 Y7.1245 Z-20.0112
G1 Y7.0897 Z-19.9782
G1 Y7.0555 Z-19.9445
G1 Y7.0218 Z-19.9103
G1 Y6.9888 Z-19.8755
G1 Y6.9564 Z-19.8401
G1 Y6.9245 Z-19.8042
G1 Y6.8934 Z-19.7677
G1 Y6.8628 Z-19.7306
G1 Y6.833 Z-19.6931
G1 Y6.8038 Z-19.655
G1 Y6.7752 Z-19.6164
G1 Y6.7473 Z-19.5773
G1 Y6.7201 Z-19.5378
G1 Y6.6937 Z-19.4978
G1 Y6.6679 Z-19.4573
G1 Y6.6428 Z-19.4164
G1 Y6.6184 Z-19.375
G1 Y6.5948 Z-19.3332
G1 Y6.5719 Z-19.291
G1 Y6.5497 Z-19.2485
G1 Y6.5283 Z-19.2055
G1 Y6.5077 Z-19.1622
G1 Y6.4877 Z-19.1185
G1 Y6.4686 Z-19.0745
G1 Y6.4502 Z-19.0302
G1 Y6.4327 Z-18.9855
G1 Y6.4158 Z-18.9406
G1 Y6.3998 Z-18.8953
G1 Y6.3846 Z-18.8498
G1 Y6.3702 Z-18.804
G1 Y6.3565 Z-18.758
G1 Y6.3437 Z-18.7118
G1 Y6.3317 Z-18.6653
G1 Y6.3205 Z-18.6186
G1 Y6.3101 Z-18.5718
G1 Y6.3005 Z-18.5247
G1 Y6.2918 Z-18.4775
G1 Y6.2839 Z-18.4302
G1 Y6.2768 Z-18.3827
G1 Y6.2705 Z-18.3351
G1 Y6.2651 Z-18.2875
G1 Y6.2605 Z-18.2397
G1 Y6.2567 Z-18.1918
G1 Y6.2538 Z-18.1439
G1 Y6.2517 Z-18.096
G1 Y6.2504 Z-18.048
G1 Y6.25 Z-18
G1 Y6.2504 Z-17.952
G1 Y6.2517 Z-17.904
G1 Y6.2538 Z-17.8561
G1 Y6.2567 Z-17.8082
G1 Y6.2605 Z-17.7603
G1 Y6.2651 Z-17.7125
G1 Y6.2705 Z-17.6649
G1 Y6.2768 Z-17.6173
G1 Y6.2839 Z-17.5698
G1 Y6.2918 Z-17.5225
G1 Y6.3005 Z-17.4753
G1 Y6.3101 Z-17.4282
G1 Y6.3205 Z-17.3814
G1 Y6.3317 Z-17.3347
G1 Y6.3437 Z-17.2882
G1 Y6.3565 Z-17.242
G1 Y6.3702 Z-17.196
G1 Y6.3846 Z-17.1502
G1 Y6.3998 Z-17.1047
G1 Y6.4158 Z-17.0594
G1 Y6.4327 Z-17.0145
G1 Y6.4502 Z-16.9698
G1 Y6.4686 Z-16.9255
G1 Y6.4877 Z-16.8815
G1 Y6.5077 Z-16.8378
G1 Y6.5283 Z-16.7945
G1 Y6.5497 Z-16.7515
G1 Y6.5719 Z-16.709
G1 Y6.5948 Z-16.6668
G1 Y6.6184 Z-16.625
G1 Y6.6428 Z-16.5836
G1 Y6.6679 Z-16.5427
G1 Y6.6937 Z-16.5022
G1 Y6.7201 Z-16.4622
G1 Y6.7473 Z-16.4227
G1 Y6.7752 Z-16.3836
G1 Y6.8038 Z-16.345
G1 Y6.833 Z-16.3069
G1 Y6.8628 Z-16.2694
G1 Y6.8934 Z-16.2323
G1 Y6.9245 Z-16.1958
G1 Y6.9564 Z-16.1599
G1 Y6.9888 Z-16.1245
G1 Y7.0218 Z-16.0897
G1 Y7.0555 Z-16.0555
G1 Y7.0897 Z-16.0218
G1 Y7.1245 Z-15.9888
G1 Y7.1599 Z-15.9564
G1 Y7.1958 Z-15.9245
G1 Y7.2323 Z-15.8934
G1 Y7.2694 Z-15.8628
G1 Y7.3069 Z-15.833
G1 Y7.345 Z-15.8038
G1 Y7.3836 Z-15.7752
G1 Y7.4227 Z-15.7473
G1 Y7.4622 Z-15.7201
G1 Y7.5022 Z-15.6937
G1 Y7.5427 Z-15.6679
G1 Y7.5836 Z-15.6428
G1 Y7.625 Z-15.6184
G1 Y7.6668 Z-15.5948
G1 Y7.709 Z-15.5719
G1 Y7.7515 Z-15.5497
G1 Y7.7945 Z-15.5283
G1 Y7.8378 Z-15.5077
G1 Y7.8815 Z-15.4877
G1 Y7.9255 Z-15.4686
G1 Y7.9698 Z-15.4502
G1 Y8.0145 Z-15.4327
G1 Y8.0594 Z-15.4158
G1 Y8.1047 Z-15.3998
G1 Y8.1502 Z-15.3846
G1 Y8.196 Z-15.3702
G1 Y8.242 Z-15.3565
G1 Y8.2882 Z-15.3437
G1 Y8.3347 Z-15.3317
G1 Y8.3814 Z-15.3205
G1 Y8.4282 Z-15.3101
G1 Y8.4753 Z-15.3005
G1 Y8.5225 Z-15.2918
G1 Y8.5698 Z-15.2839
G1 Y8.6173 Z-15.2768
G1 Y8.6649 Z-15.2705
G1 Y8.7125 Z-15.2651
G1 Y8.7603 Z-15.2605
G1 Y8.8082 Z-15.2567
G1 Y8.8561 Z-15.2538
G1 Y8.904 Z-15.2517
G1 Y8.952 Z-15.2504
G1 Y9 Z-15.25
G1 Y9.048 Z-15.2504
G1 Y9.096 Z-15.2517
G1 Y9.1439 Z-15.2538
G1 Y9.1918 Z-15.2567
G1 Y9.2397 Z-15.2605
G1 Y9.2875 Z-15.2651
G1 Y9.3351 Z-15.2705
G1 Y9.3827 Z-15.2768
G1 Y9.4302 Z-15.2839
G1 Y9.4775 Z-15.2918
G1 Y9.5247 Z-15.3005
G1 Y9.5718 Z-15.3101
G1 Y9.6186 Z-15.3205
G1 Y9.6653 Z-15.3317
G1 Y9.7118 Z-15.3437
G1 Y9.758 Z-15.3565
G1 Y9.804 Z-15.3702
G1 Y9.8498 Z-15.3846
G1 Y9.8953 Z-15.3998
G1 Y9.9406 Z-15.4158
G1 Y9.9855 Z-15.4327
G1 Y10.0302 Z-15.4502
G1 Y10.0745 Z-15.4686
G1 Y10.1185 Z-15.4877
G1 Y10.1622 Z-15.5077
G1 Y10.2055 Z-15.5283
G1 Y10.2485 Z-15.5497
G1 Y10.291 Z-15.5719
G1 Y10.3332 Z-15.5948
G1 Y10.375 Z-15.6184
G1 Y10.4164 Z-15.6428
G1 Y10.4573 Z-15.6679
G1 Y10.4978 Z-15.6937
G1 Y10.5378 Z-15.7201
G1 Y10.5773 Z-15.7473
G1 Y10.6164 Z-15.7752
G1 Y10.655 Z-15.8038
G1 Y10.6931 Z-15.833
G1 Y10.7306 Z-15.8628
G1 Y10.7677 Z-15.8934
G1 Y10.8042 Z-15.9245
G1 Y10.8401 Z-15.9564
G1 Y10.8755 Z-15.9888
G1 Y10.9103 Z-16.0218
G1 Y10.9445 Z-16.0555
G1 Y10.9782 Z-16.0897
G1 Y11.0112 Z-16.1245
G1 Y11.0436 Z-16.1599
G1 Y11.0755 Z-16.1958
G1 Y11.1066 Z-16.2323
G1 Y11.1372 Z-16.2694
G1 Y11.167 Z-16.3069
G1 Y11.1962 Z-16.345
G1 Y11.2248 Z-16.3836
G1 Y11.2527 Z-16.4227
G1 Y11.2799 Z-16.4622
G1 Y11.3063 Z-16.5022
G1 Y11.3321 Z-16.5427
G1 Y11.3572 Z-16.5836
G1 Y11.3816 Z-16.625
G1 Y11.4052 Z-16.6668
G1 Y11.4281 Z-16.709
G1 Y11.4503 Z-16.7515
G1 Y11.4717 Z-16.7945
G1 Y11.4923 Z-16.8378
G1 Y11.5123 Z-16.8815
G1 Y11.5314 Z-16.9255
G1 Y11.5498 Z-16.9698
G1 Y11.5673 Z-17.0145
G1 Y11.5842 Z-17.0594
G1 Y11.6002 Z-17.1047
G1 Y11.6154 Z-17.1502
G1 Y11.6298 Z-17.196
G1 Y11.6435 Z-17.242
G1 Y11.6563 Z-17.2882
G1 Y11.6683 Z-17.3347
G1 Y11.6795 Z-17.3814
G1 Y11.6899 Z-17.4282
G1 Y11.6995 Z-17.4753
G1 Y11.7082 Z-17.5225
G1 Y11.7161 Z-17.5698
G1 Y11.7232 Z-17.6173
G1 Y11.7295 Z-17.6649
G1 Y11.7349 Z-17.7125
G1 Y11.7395 Z-17.7603
G1 Y11.7433 Z-17.8082
G1 Y11.7462 Z-17.8561
G1 Y11.7483 Z-17.904
G1 Y11.7496 Z-17.952
G1 Y11.75 Z-18
G1 Y11.7496 Z-18.048
G1 Y11.7483 Z-18.096
G1 Y11.7462 Z-18.1439
G1 Y11.7433 Z-18.1918
G1 Y11.7395 Z-18.2397
G1 Y11.7349 Z-18.2875
G1 Y11.7295 Z-18.3351
G1 Y11.7232 Z-18.3827
G1 Y11.7161 Z-18.4302
G1 Y11.7082 Z-18.4775
G1 Y11.6995 Z-18.5247
G1 Y11.6899 Z-18.5718
G1 Y11.6795 Z-18.6186
G1 Y11.6683 Z-18.6653
G1 Y11.6563 Z-18.7118
G1 Y11.6435 Z-18.758
G1 Y11.6298 Z-18.804
G1 Y11.6154 Z-18.8498
G1 Y11.6002 Z-18.8953
G1 Y11.5842 Z-18.9406
G1 Y11.5673 Z-18.9855
G1 Y11.5498 Z-19.0302
G1 Y11.5314 Z-19.0745
G1 Y11.5123 Z-19.1185
G1 Y11.4923 Z-19.1622
G1 Y11.4717 Z-19.2055
G1 Y11.4503 Z-19.2485
G1 Y11.4281 Z-19.291
G1 Y11.4052 Z-19.3332
G1 Y11.3816 Z-19.375
G1 Y11.3572 Z-19.4164
G1 Y11.3321 Z-19.4573
G1 Y11.3063 Z-19.4978
G1 Y11.2799 Z-19.5378
G1 Y11.2527 Z-19.5773
G1 Y11.2248 Z-19.6164
G1 Y11.1962 Z-19.655
G1 Y11.167 Z-19.6931
G1 Y11.1372 Z-19.7306
G1 Y11.1066 Z-19.7677
G1 Y11.0755 Z-19.8042
G1 Y11.0436 Z-19.8401
G1 Y11.0112 Z-19.8755
G1 Y10.9782 Z-19.9103
G1 Y10.9445 Z-19.9445
G1 Y10.9103 Z-19.9782
G1 Y10.8755 Z-20.0112
G1 Y10.8401 Z-20.0436
G1 Y10.8042 Z-20.0755
G1 Y10.7677 Z-20.1066
G1 Y10.7306 Z-20.1372
G1 Y10.6931 Z-20.167
G1 Y10.655 Z-20.1962
G1 Y10.6164 Z-20.2248
G1 Y10.5773 Z-20.2527
G1 Y10.5378 Z-20.2799
G1 Y10.4978 Z-20.3063
G1 Y10.4573 Z-20.3321
G1 Y10.4164 Z-20.3572
G1 Y10.375 Z-20.3816
G1 Y10.3332 Z-20.4052
G1 Y10.291 Z-20.4281
G1 Y10.2485 Z-20.4503
G1 Y10.2055 Z-20.4717
G1 Y10.1622 Z-20.4923
G1 Y10.1185 Z-20.5123
G1 Y10.0745 Z-20.5314
G1 Y10.0302 Z-20.5498
G1 Y9.9855 Z-20.5673
G1 Y9.9406 Z-20.5842
G1 Y9.8953 Z-20.6002
G1 Y9.8498 Z-20.6154
G1 Y9.804 Z-20.6298
G1 Y9.758 Z-20.6435
G1 Y9.7118 Z-20.6563
G1 Y9.6653 Z-20.6683
G1 Y9.6186 Z-20.6795
G1 Y9.5718 Z-20.6899
G1 Y9.5247 Z-20.6995
G1 Y9.4775 Z-20.7082
G1 Y9.4302 Z-20.7161
G1 Y9.3827 Z-20.7232
G1 Y9.3351 Z-20.7295
G1 Y9.2875 Z-20.7349
G1 Y9.2397 Z-20.7395
G1 Y9.1918 Z-20.7433
G1 Y9.1439 Z-20.7462
G1 Y9.096 Z-20.7483
G1 Y9.048 Z-20.7496
G1 Y9 Z-20.75
G1 X-3 F80 ( Plunge )
G1 F200 ( Set milling feed rate )
G1 Y9 Z-20.75
G1 Y9 Z-20.75
G1 Y8.952 Z-20.7496
G1 Y8.904 Z-20.7483
G1 Y8.8561 Z-20.7462
G1 Y8.8082 Z-20.7433
G1 Y8.7603 Z-20.7395
G1 Y8.7125 Z-20.7349
G1 Y8.6649 Z-20.7295
G1 Y8.6173 Z-20.7232
G1 Y8.5698 Z-20.7161
G1 Y8.5225 Z-20.7082
G1 Y8.4753 Z-20.6995
G1 Y8.4282 Z-20.6899
G1 Y8.3814 Z-20.6795
G1 Y8.3347 Z-20.6683
G1 Y8.2882 Z-20.6563
G1 Y8.242 Z-20.6435
G1 Y8.196 Z-20.6298
G1 Y8.1502 Z-20.6154
G1 Y8.1047 Z-20.6002
G1 Y8.0594 Z-20.5842
G1 Y8.0145 Z-20.5673
G1 Y7.9698 Z-20.5498
G1 Y7.9255 Z-20.5314
G1 Y7.8815 Z-20.5123
G1 Y7.8378 Z-20.4923
G1 Y7.7945 Z-20.4717
G1 Y7.7515 Z-20.4503
G1 Y7.709 Z-20.4281
G1 Y7.6668 Z-20.4052
G1 Y7.625 Z-20.3816
G1 Y7.5836 Z-20.3572
G1 Y7.5427 Z-20.3321
G1 Y7.5022 Z-20.3063
G1 Y7.4622 Z-20.2799
G1 Y7.4227 Z-20.2527
G1 Y7.3836 Z-20.2248
G1 Y7.345 Z-20.1962
G1 Y7.3069 Z-20.167
G1 Y7.2694 Z-20.1372
G1 Y7.2323 Z-20.1066
G1 Y7.1958 Z-20.0755
G1 Y7.1599 Z-20.0436
G1 Y7.1245 Z-20.0112
G1 Y7.0897 Z-19.9782
G1 Y7.0555 Z-19.9445
G1 Y7.0218 Z-19.9103
G1 Y6.9888 Z-19.8755
G1 Y6.9564 Z-19.8401
G1 Y6.9245 Z-19.8042
G1 Y6.8934 Z-19.7677
G1 Y6.8628 Z-19.7306
G1 Y6.833 Z-19.6931
G1 Y6.8038 Z-19.655
G1 Y6.7752 Z-19.6164
G1 Y6.7473 Z-19.5773
G1 Y6.7201 Z-19.5378
G1 Y6.6937 Z-19.4978
G1 Y6.6679 Z-19.4573
G1 Y6.6428 Z-19.4164
G1 Y6.6184 Z-19.375
G1 Y6.5948 Z-19.3332
G1 Y6.5719 Z-19.291
G1 Y6.5497 Z-19.2485
G1 Y6.5283 Z-19.2055
G1 Y6.5077 Z-19.1622
G1 Y6.4877 Z-19.1185
G1 Y6.4686 Z-19.0745
G1 Y6.4502 Z-19.0302
G1 Y6.4327 Z-18.9855
G1 Y6.4158 Z-18.9406
G1 Y6.3998 Z-18.8953
G1 Y6.3846 Z-18.8498
G1 Y6.3702 Z-18.804
G1 Y6.3565 Z-18.758
G1 Y6.3437 Z-18.7118
G1 Y6.3317 Z-18.6653
G1 Y6.3205 Z-18.6186
G1 Y6.3101 Z-18.5718
G1 Y6.3005 Z-18.5247
G1 Y6.2918 Z-18.4775
G1 Y6.2839 Z-18.4302
G1 Y6.2768 Z-18.3827
G1 Y6.2705 Z-18.3351
G1 Y6.2651 Z-18.2875
G1 Y6.2605 Z-18.2397
G1 Y6.2567 Z-18.1918
G1 Y6.2538 Z-18.1439
G1 Y6.2517 Z-18.096
G1 Y6.2504 Z-18.048
G1 Y6.25 Z-18
G1 Y6.2504 Z-17.952
G1 Y6.2517 Z-17.904
G1 Y6.2538 Z-17.8561
G1 Y6.2567 Z-17.8082
G1 Y6.2605 Z-17.7603
G1 Y6.2651 Z-17.7125
G1 Y6.2705 Z-17.6649
G1 Y6.2768 Z-17.6173
G1 Y6.2839 Z-17.5698
G1 Y6.2918 Z-17.5225
G1 Y6.3005 Z-17.4753
G1 Y6.3101 Z-17.4282
G1 Y6.3205 Z-17.3814
G1 Y6.3317 Z-17.3347
G1 Y6.3437 Z-17.2882
G1 Y6.3565 Z-17.242
G1 Y6.3702 Z-17.196
G1 Y6.3846 Z-17.1502
G1 Y6.3998 Z-17.1047
G1 Y6.4158 Z-17.0594
G1 Y6.4327 Z-17.0145
G1 Y6.4502 Z-16.9698
G1 Y6.4686 Z-16.9255
G1 Y6.4877 Z-16.8815
G1 Y6.5077 Z-16.8378
G1 Y6.5283 Z-16.7945
G1 Y6.5497 Z-16.7515
G1 Y6.5719 Z-16.709
G1 Y6.5948 Z-16.6668
G1 Y6.6184 Z-16.625
G1 Y6.6428 Z-16.5836
G1 Y6.6679 Z-16.5427
G1 Y6.6937 Z-16.5022
G1 Y6.7201 Z-16.4622
G1 Y6.7473 Z-16.4227
G1 Y6.7752 Z-16.3836
G1 Y6.8038 Z-16.345
G1 Y6.833 Z-16.3069
G1 Y6.8628 Z-16.2694
G1 Y6.8934 Z-16.2323
G1 Y6.9245 Z-16.1958
G1 Y6.9564 Z-16.1599
G1 Y6.9888 Z-16.1245
G1 Y7.0218 Z-16.0897
G1 Y7.0555 Z-16.0555
G1 Y7.0897 Z-16.0218
G1 Y7.1245 Z-15.9888
G1 Y7.1599 Z-15.9564
G1 Y7.1958 Z-15.9245
G1 Y7.2323 Z-15.8934
G1 Y7.2694 Z-15.8628
G1 Y7.3069 Z-15.833
G1 Y7.345 Z-15.8038
G1 Y7.3836 Z-15.7752
G1 Y7.4227 Z-15.7473
G1 Y7.4622 Z-15.7201
G1 Y7.5022 Z-15.6937
G1 Y7.5427 Z-15.6679
G1 Y7.5836 Z-15.6428
G1 Y7.625 Z-15.6184
G1 Y7.6668 Z-15.5948
G1 Y7.709 Z-15.5719
G1 Y7.7515 Z-15.5497
G1 Y7.7945 Z-15.5283
G1 Y7.8378 Z-15.5077
G1 Y7.8815 Z-15.4877
G1 Y7.9255 Z-15.4686
G1 Y7.9698 Z-15.4502
G1 Y8.0145 Z-15.4327
G1 Y8.0594 Z-15.4158
G1 Y8.1047 Z-15.3998
G1 Y8.1502 Z-15.3846
G1 Y8.196 Z-15.3702
G1 Y8.242 Z-15.3565
G1 Y8.2882 Z-15.3437
G1 Y8.3347 Z-15.3317
G1 Y8.3814 Z-15.3205
G1 Y8.4282 Z-15.3101
G1 Y8.4753 Z-15.3005
G1 Y8.5225 Z-15.2918
G1 Y8.5698 Z-15.2839
G1 Y8.6173 Z-15.2768
G1 Y8.6649 Z-15.2705
G1 Y8.7125 Z-15.2651
G1 Y8.7603 Z-15.2605
G1 Y8.8082 Z-15.2567
G1 Y8.8561 Z-15.2538
G1 Y8.904 Z-15.2517
G1 Y8.952 Z-15.2504
G1 Y9 Z-15.25
G1 Y9.048 Z-15.2504
G1 Y9.096 Z-15.2517
G1 Y9.1439 Z-15.2538
G1 Y9.1918 Z-15.2567
G1 Y9.2397 Z-15.2605
G1 Y9.2875 Z-15.2651
G1 Y9.3351 Z-15.2705
G1 Y9.3827 Z-15.2768
G1 Y9.4302 Z-15.2839
G1 Y9.4775 Z-15.2918
G1 Y9.5247 Z-15.3005
G1 Y9.5718 Z-15.3101
G1 Y9.6186 Z-15.3205
G1 Y9.6653 Z-15.3317
G1 Y9.7118 Z-15.3437
G1 Y9.758 Z-15.3565
G1 Y9.804 Z-15.3702
G1 Y9.8498 Z-15.3846
G1 Y9.8953 Z-15.3998
G1 Y9.9406 Z-15.4158
G1 Y9.9855 Z-15.4327
G1 Y10.0302 Z-15.4502
G1 Y10.0745 Z-15.4686
G1 Y10.1185 Z-15.4877
G1 Y10.1622 Z-15.5077
G1 Y10.2055 Z-15.5283
G1 Y10.2485 Z-15.5497
G1 Y10.291 Z-15.5719
G1 Y10.3332 Z-15.5948
G1 Y10.375 Z-15.6184
G1 Y10.4164 Z-15.6428
G1 Y10.4573 Z-15.6679
G1 Y10.4978 Z-15.6937
G1 Y10.5378 Z-15.7201
G1 Y10.5773 Z-15.7473
G1 Y10.6164 Z-15.7752
G1 Y10.655 Z-15.8038
G1 Y10.6931 Z-15.833
G1 Y10.7306 Z-15.8628
G1 Y10.7677 Z-15.8934
G1 Y10.8042 Z-15.9245
G1 Y10.8401 Z-15.9564
G1 Y10.8755 Z-15.9888
G1 Y10.9103 Z-16.0218
G1 Y10.9445 Z-16.0555
G1 Y10.9782 Z-16.0897
G1 Y11.0112 Z-16.1245
G1 Y11.0436 Z-16.1599
G1 Y11.0755 Z-16.1958
G1 Y11.1066 Z-16.2323
G1 Y11.1372 Z-16.2694
G1 Y11.167 Z-16.3069
G1 Y11.1962 Z-16.345
G1 Y11.2248 Z-16.3836
G1 Y11.2527 Z-16.4227
G1 Y11.2799 Z-16.4622
G1 Y11.3063 Z-16.5022
G1 Y11.3321 Z-16.5427
G1 Y11.3572 Z-16.5836
G1 Y11.3816 Z-16.625
G1 Y11.4052 Z-16.6668
G1 Y11.4281 Z-16.709
G1 Y11.4503 Z-16.7515
G1 Y11.4717 Z-16.7945
G1 Y11.4923 Z-16.8378
G1 Y11.5123 Z-16.8815
G1 Y11.5314 Z-16.9255
G1 Y11.5498 Z-16.9698
G1 Y11.5673 Z-17.0145
G1 Y11.5842 Z-17.0594
G1 Y11.6002 Z-17.1047
G1 Y11.6154 Z-17.1502
G1 Y11.6298 Z-17.196
G1 Y11.6435 Z-17.242
G1 Y11.6563 Z-17.2882
G1 Y11.6683 Z-17.3347
G1 Y11.6795 Z-17.3814
G1 Y11.6899 Z-17.4282
G1 Y11.6995 Z-17.4753
G1 Y11.7082 Z-17.5225
G1 Y11.7161 Z-17.5698
G1 Y11.7232 Z-17.6173
G1 Y11.7295 Z-17.6649
G1 Y11.7349 Z-17.7125
G1 Y11.7395 Z-17.7603
G1 Y11.7433 Z-17.8082
G1 Y11.7462 Z-17.8561
G1 Y11.7483 Z-17.904
G1 Y11.7496 Z-17.952
G1 Y11.75 Z-18
G1 Y11.7496 Z-18.048
G1 Y11.7483 Z-18.096
G1 Y11.7462 Z-18.1439
G1 Y11.7433 Z-18.1918
G1 Y11.7395 Z-18.2397
G1 Y11.7349 Z-18.2875
G1 Y11.7295 Z-18.3351
G1 Y11.7232 Z-18.3827
G1 Y11.7161 Z-18.4302
G1 Y11.7082 Z-18.4775
G1 Y11.6995 Z-18.5247
G1 Y11.6899 Z-18.5718
G1 Y11.6795 Z-18.6186
G1 Y11.6683 Z-18.6653
G1 Y11.6563 Z-18.7118
G1 Y11.6435 Z-18.758
G1 Y11.6298 Z-18.804
G1 Y11.6154 Z-18.8498
G1 Y11.6002 Z-18.8953
G1 Y11.5842 Z-18.9406
G1 Y11.5673 Z-18.9855
G1 Y11.5498 Z-19.0302
G1 Y11.5314 Z-19.0745
G1 Y11.5123 Z-19.1185
G1 Y11.4923 Z-19.1622
G1 Y11.4717 Z-19.2055
G1 Y11.4503 Z-19.2485
G1 Y11.4281 Z-19.291
G1 Y11.4052 Z-19.3332
G1 Y11.3816 Z-19.375
G1 Y11.3572 Z-19.4164
G1 Y11.3321 Z-19.4573
G1 Y11.3063 Z-19.4978
G1 Y11.2799 Z-19.5378
G1 Y11.2527 Z-19.5773
G1 Y11.2248 Z-19.6164
G1 Y11.1962 Z-19.655
G1 Y11.167 Z-19.6931
G1 Y11.1372 Z-19.7306
G1 Y11.1066 Z-19.7677
G1 Y11.0755 Z-19.8042
G1 Y11.0436 Z-19.8401
G1 Y11.0112 Z-19.8755
G1 Y10.9782 Z-19.9103
G1 Y10.9445 Z-19.9445
G1 Y10.9103 Z-19.9782
G1 Y10.8755 Z-20.0112
G1 Y10.8401 Z-20.0436
G1 Y10.8042 Z-20.0755
G1 Y10.7677 Z-20.1066
G1 Y10.7306 Z-20.1372
G1 Y10.6931 Z-20.167
G1 Y10.655 Z-20.1962
G1 Y10.6164 Z-20.2248
G1 Y10.5773 Z-20.2527
G1 Y10.5378 Z-20.2799
G1 Y10.4978 Z-20.3063
G1 Y10.4573 Z-20.3321
G1 Y10.4164 Z-20.3572
G1 Y10.375 Z-20.3816
G1 Y10.3332 Z-20.4052
G1 Y10.291 Z-20.4281
G1 Y10.2485 Z-20.4503
G1 Y10.2055 Z-20.4717
G1 Y10.1622 Z-20.4923
G1 Y10.1185 Z-20.5123
G1 Y10.0745 Z-20.5314
G1 Y10.0302 Z-20.5498
G1 Y9.9855 Z-20.5673
G1 Y9.9406 Z-20.5842
G1 Y9.8953 Z-20.6002
G1 Y9.8498 Z-20.6154
G1 Y9.804 Z-20.6298
G1 Y9.758 Z-20.6435
G1 Y9.7118 Z-20.6563
G1 Y9.6653 Z-20.6683
G1 Y9.6186 Z-20.6795
G1 Y9.5718 Z-20.6899
G1 Y9.5247 Z-20.6995
G1 Y9.4775 Z-20.7082
G1 Y9.4302 Z-20.7161
G1 Y9.3827 Z-20.7232
G1 Y9.3351 Z-20.7295
G1 Y9.2875 Z-20.7349
G1 Y9.2397 Z-20.7395
G1 Y9.1918 Z-20.7433
G1 Y9.1439 Z-20.7462
G1 Y9.096 Z-20.7483
G1 Y9.048 Z-20.7496
G1 Y9 Z-20.75
G0 X3 ( Retract )
G0 Y0 Z-17
G1 X-3 F80 ( Plunge )
G0 X3 ( Retract )
G0 Z3 ( Retract )
M5 ( Spindle off )
G4 P1 ( Wait for spindle to stop )
M9 ( Coolant off )
M2 ( Program end )
( end, rd=303.713 mm, rt=0.3155 min, md=348.836 mm, mt=1.87918 min )
