( ./gcode_splitter_sidemill.py )
G94 ( Millimeters per minute feed rate )
G21 ( Units == Millimeters )
G90 ( Absolute coordinates )
G0 S5000 ( RPM spindle speed )
G1 F200 ( Feedrate )
G0 Z3 ( Retract to tool change height )
T0
M5 ( Spindle stop )
G4 P1 ( Wait for spindle to stop )
( MSG, Change tool bit to cutter diameter 2mm) )
M0 ( Temporary machine stop )
M3 ( Spindle on clockwise )
G4 P1 ( Wait for spindle to get up to speed )
G0 Z3 ( Retract )
G0 X3 ( Retract )
G0 Y52.5 Z-3
G0 X3 ( Retract )
G0 Y52.5
G0 X-1 ( Plunge )
G1 F200 ( Set milling feed rate )
G1 Y-52.5
G0 X3 ( Retract )
G0 Y52.5
G0 X-2 ( Plunge )
G1 F200 ( Set milling feed rate )
G1 Y-52.5
G0 X3 ( Retract )
G0 Y52.5
G0 X-3 ( Plunge )
G1 F200 ( Set milling feed rate )
G1 Y-52.5
G0 X3 ( Retract )
G0 Y0
G0 X3 ( Retract )
G0 Y-20.32 Z-28.5
G1 X-1 F80 ( Plunge )
G1 F200 ( Set milling feed rate )
G1 Y-20.32 Z-28.5
G1 Y-20.32 Z-28.5
G1 Y-20.4422 Z-28.4989
G1 Y-20.5643 Z-28.4957
G1 Y-20.6864 Z-28.4904
G1 Y-20.8083 Z-28.4829
G1 Y-20.9301 Z-28.4734
G1 Y-21.0517 Z-28.4617
G1 Y-21.1731 Z-28.4478
G1 Y-21.2942 Z-28.4319
G1 Y-21.415 Z-28.4138
G1 Y-21.5355 Z-28.3937
G1 Y-21.6557 Z-28.3714
G1 Y-21.7754 Z-28.347
G1 Y-21.8947 Z-28.3206
G1 Y-22.0135 Z-28.2921
G1 Y-22.1317 Z-28.2615
G1 Y-22.2495 Z-28.2288
G1 Y-22.3666 Z-28.1941
G1 Y-22.4831 Z-28.1574
G1 Y-22.599 Z-28.1186
G1 Y-22.7141 Z-28.0778
G1 Y-22.8286 Z-28.0351
G1 Y-22.9422 Z-27.9903
G1 Y-23.0551 Z-27.9435
G1 Y-23.1672 Z-27.8948
G1 Y-23.2783 Z-27.8442
G1 Y-23.3886 Z-27.7916
G1 Y-23.4979 Z-27.737
G1 Y-23.6063 Z-27.6806
G1 Y-23.7137 Z-27.6223
G1 Y-23.82 Z-27.5622
G1 Y-23.9253 Z-27.5002
G1 Y-24.0294 Z-27.4363
G1 Y-24.1325 Z-27.3707
G1 Y-24.2344 Z-27.3033
G1 Y-24.335 Z-27.2341
G1 Y-24.4345 Z-27.1631
G1 Y-24.5327 Z-27.0904
G1 Y-24.6296 Z-27.0161
G1 Y-24.7252 Z-26.94
G1 Y-24.8195 Z-26.8623
G1 Y-24.9124 Z-26.783
G1 Y-25.0039 Z-26.702
G1 Y-25.094 Z-26.6195
G1 Y-25.1826 Z-26.5354
G1 Y-25.2697 Z-26.4497
G1 Y-25.3554 Z-26.3626
G1 Y-25.4395 Z-26.274
G1 Y-25.522 Z-26.1839
G1 Y-25.603 Z-26.0924
G1 Y-25.6823 Z-25.9995
G1 Y-25.76 Z-25.9052
G1 Y-25.8361 Z-25.8096
G1 Y-25.9104 Z-25.7127
G1 Y-25.9831 Z-25.6145
G1 Y-26.0541 Z-25.515
G1 Y-26.1233 Z-25.4144
G1 Y-26.1907 Z-25.3125
G1 Y-26.2563 Z-25.2094
G1 Y-26.3202 Z-25.1053
G1 Y-26.3822 Z-25
G1 Y-26.4423 Z-24.8937
G1 Y-26.5006 Z-24.7863
G1 Y-26.557 Z-24.6779
G1 Y-26.6116 Z-24.5686
G1 Y-26.6642 Z-24.4583
G1 Y-26.7148 Z-24.3472
G1 Y-26.7635 Z-24.2351
G1 Y-26.8103 Z-24.1222
G1 Y-26.8551 Z-24.0086
G1 Y-26.8978 Z-23.8941
G1 Y-26.9386 Z-23.779
G1 Y-26.9774 Z-23.6631
G1 Y-27.0141 Z-23.5466
G1 Y-27.0488 Z-23.4295
G1 Y-27.0815 Z-23.3117
G1 Y-27.1121 Z-23.1935
G1 Y-27.1406 Z-23.0747
G1 Y-27.167 Z-22.9554
G1 Y-27.1914 Z-22.8357
G1 Y-27.2137 Z-22.7155
G1 Y-27.2338 Z-22.595
G1 Y-27.2519 Z-22.4742
G1 Y-27.2678 Z-22.3531
G1 Y-27.2817 Z-22.2317
G1 Y-27.2934 Z-22.1101
G1 Y-27.3029 Z-21.9883
G1 Y-27.3104 Z-21.8664
G1 Y-27.3157 Z-21.7443
G1 Y-27.3189 Z-21.6222
G1 Y-27.32 Z-21.5
G1 Y-27.3189 Z-21.3778
G1 Y-27.3157 Z-21.2557
G1 Y-27.3104 Z-21.1336
G1 Y-27.3029 Z-21.0117
G1 Y-27.2934 Z-20.8899
G1 Y-27.2817 Z-20.7683
G1 Y-27.2678 Z-20.6469
G1 Y-27.2519 Z-20.5258
G1 Y-27.2338 Z-20.405
G1 Y-27.2137 Z-20.2845
G1 Y-27.1914 Z-20.1643
G1 Y-27.167 Z-20.0446
G1 Y-27.1406 Z-19.9253
G1 Y-27.1121 Z-19.8065
G1 Y-27.0815 Z-19.6883
G1 Y-27.0488 Z-19.5705
G1 Y-27.0141 Z-19.4534
G1 Y-26.9774 Z-19.3369
G1 Y-26.9386 Z-19.221
G1 Y-26.8978 Z-19.1059
G1 Y-26.8551 Z-18.9914
G1 Y-26.8103 Z-18.8778
G1 Y-26.7635 Z-18.7649
G1 Y-26.7148 Z-18.6528
G1 Y-26.6642 Z-18.5417
G1 Y-26.6116 Z-18.4314
G1 Y-26.557 Z-18.3221
G1 Y-26.5006 Z-18.2137
G1 Y-26.4423 Z-18.1063
G1 Y-26.3822 Z-18
G1 Y-26.3202 Z-17.8947
G1 Y-26.2563 Z-17.7906
G1 Y-26.1907 Z-17.6875
G1 Y-26.1233 Z-17.5856
G1 Y-26.0541 Z-17.485
G1 Y-25.9831 Z-17.3855
G1 Y-25.9104 Z-17.2873
G1 Y-25.8361 Z-17.1904
G1 Y-25.76 Z-17.0948
G1 Y-25.6823 Z-17.0005
G1 Y-25.603 Z-16.9076
G1 Y-25.522 Z-16.8161
G1 Y-25.4395 Z-16.726
G1 Y-25.3554 Z-16.6374
G1 Y-25.2697 Z-16.5503
G1 Y-25.1826 Z-16.4646
G1 Y-25.094 Z-16.3805
G1 Y-25.0039 Z-16.298
G1 Y-24.9124 Z-16.217
G1 Y-24.8195 Z-16.1377
G1 Y-24.7252 Z-16.06
G1 Y-24.6296 Z-15.9839
G1 Y-24.5327 Z-15.9096
G1 Y-24.4345 Z-15.8369
G1 Y-24.335 Z-15.7659
G1 Y-24.2344 Z-15.6967
G1 Y-24.1325 Z-15.6293
G1 Y-24.0294 Z-15.5637
G1 Y-23.9253 Z-15.4998
G1 Y-23.82 Z-15.4378
G1 Y-23.7137 Z-15.3777
G1 Y-23.6063 Z-15.3194
G1 Y-23.4979 Z-15.263
G1 Y-23.3886 Z-15.2084
G1 Y-23.2783 Z-15.1558
G1 Y-23.1672 Z-15.1052
G1 Y-23.0551 Z-15.0565
G1 Y-22.9422 Z-15.0097
G1 Y-22.8286 Z-14.9649
G1 Y-22.7141 Z-14.9222
G1 Y-22.599 Z-14.8814
G1 Y-22.4831 Z-14.8426
G1 Y-22.3666 Z-14.8059
G1 Y-22.2495 Z-14.7712
G1 Y-22.1317 Z-14.7385
G1 Y-22.0135 Z-14.7079
G1 Y-21.8947 Z-14.6794
G1 Y-21.7754 Z-14.653
G1 Y-21.6557 Z-14.6286
G1 Y-21.5355 Z-14.6063
G1 Y-21.415 Z-14.5862
G1 Y-21.2942 Z-14.5681
G1 Y-21.1731 Z-14.5522
G1 Y-21.0517 Z-14.5383
G1 Y-20.9301 Z-14.5266
G1 Y-20.8083 Z-14.5171
G1 Y-20.6864 Z-14.5096
G1 Y-20.5643 Z-14.5043
G1 Y-20.4422 Z-14.5011
G1 Y-20.32 Z-14.5
G1 Y-20.1978 Z-14.5011
G1 Y-20.0757 Z-14.5043
G1 Y-19.9536 Z-14.5096
G1 Y-19.8317 Z-14.5171
G1 Y-19.7099 Z-14.5266
G1 Y-19.5883 Z-14.5383
G1 Y-19.4669 Z-14.5522
G1 Y-19.3458 Z-14.5681
G1 Y-19.225 Z-14.5862
G1 Y-19.1045 Z-14.6063
G1 Y-18.9843 Z-14.6286
G1 Y-18.8646 Z-14.653
G1 Y-18.7453 Z-14.6794
G1 Y-18.6265 Z-14.7079
G1 Y-18.5083 Z-14.7385
G1 Y-18.3905 Z-14.7712
G1 Y-18.2734 Z-14.8059
G1 Y-18.1569 Z-14.8426
G1 Y-18.041 Z-14.8814
G1 Y-17.9259 Z-14.9222
G1 Y-17.8114 Z-14.9649
G1 Y-17.6978 Z-15.0097
G1 Y-17.5849 Z-15.0565
G1 Y-17.4728 Z-15.1052
G1 Y-17.3617 Z-15.1558
G1 Y-17.2514 Z-15.2084
G1 Y-17.1421 Z-15.263
G1 Y-17.0337 Z-15.3194
G1 Y-16.9263 Z-15.3777
G1 Y-16.82 Z-15.4378
G1 Y-16.7147 Z-15.4998
G1 Y-16.6106 Z-15.5637
G1 Y-16.5075 Z-15.6293
G1 Y-16.4056 Z-15.6967
G1 Y-16.305 Z-15.7659
G1 Y-16.2055 Z-15.8369
G1 Y-16.1073 Z-15.9096
G1 Y-16.0104 Z-15.9839
G1 Y-15.9148 Z-16.06
G1 Y-15.8205 Z-16.1377
G1 Y-15.7276 Z-16.217
G1 Y-15.6361 Z-16.298
G1 Y-15.546 Z-16.3805
G1 Y-15.4574 Z-16.4646
G1 Y-15.3703 Z-16.5503
G1 Y-15.2846 Z-16.6374
G1 Y-15.2005 Z-16.726
G1 Y-15.118 Z-16.8161
G1 Y-15.037 Z-16.9076
G1 Y-14.9577 Z-17.0005
G1 Y-14.88 Z-17.0948
G1 Y-14.8039 Z-17.1904
G1 Y-14.7296 Z-17.2873
G1 Y-14.6569 Z-17.3855
G1 Y-14.5859 Z-17.485
G1 Y-14.5167 Z-17.5856
G1 Y-14.4493 Z-17.6875
G1 Y-14.3837 Z-17.7906
G1 Y-14.3198 Z-17.8947
G1 Y-14.2578 Z-18
G1 Y-14.1977 Z-18.1063
G1 Y-14.1394 Z-18.2137
G1 Y-14.083 Z-18.3221
G1 Y-14.0284 Z-18.4314
G1 Y-13.9758 Z-18.5417
G1 Y-13.9252 Z-18.6528
G1 Y-13.8765 Z-18.7649
G1 Y-13.8297 Z-18.8778
G1 Y-13.7849 Z-18.9914
G1 Y-13.7422 Z-19.1059
G1 Y-13.7014 Z-19.221
G1 Y-13.6626 Z-19.3369
G1 Y-13.6259 Z-19.4534
G1 Y-13.5912 Z-19.5705
G1 Y-13.5585 Z-19.6883
G1 Y-13.5279 Z-19.8065
G1 Y-13.4994 Z-19.9253
G1 Y-13.473 Z-20.0446
G1 Y-13.4486 Z-20.1643
G1 Y-13.4263 Z-20.2845
G1 Y-13.4062 Z-20.405
G1 Y-13.3881 Z-20.5258
G1 Y-13.3722 Z-20.6469
G1 Y-13.3583 Z-20.7683
G1 Y-13.3466 Z-20.8899
G1 Y-13.3371 Z-21.0117
G1 Y-13.3296 Z-21.1336
G1 Y-13.3243 Z-21.2557
G1 Y-13.3211 Z-21.3778
G1 Y-13.32 Z-21.5
G1 Y-13.3211 Z-21.6222
G1 Y-13.3243 Z-21.7443
G1 Y-13.3296 Z-21.8664
G1 Y-13.3371 Z-21.9883
G1 Y-13.3466 Z-22.1101
G1 Y-13.3583 Z-22.2317
G1 Y-13.3722 Z-22.3531
G1 Y-13.3881 Z-22.4742
G1 Y-13.4062 Z-22.595
G1 Y-13.4263 Z-22.7155
G1 Y-13.4486 Z-22.8357
G1 Y-13.473 Z-22.9554
G1 Y-13.4994 Z-23.0747
G1 Y-13.5279 Z-23.1935
G1 Y-13.5585 Z-23.3117
G1 Y-13.5912 Z-23.4295
G1 Y-13.6259 Z-23.5466
G1 Y-13.6626 Z-23.6631
G1 Y-13.7014 Z-23.779
G1 Y-13.7422 Z-23.8941
G1 Y-13.7849 Z-24.0086
G1 Y-13.8297 Z-24.1222
G1 Y-13.8765 Z-24.2351
G1 Y-13.9252 Z-24.3472
G1 Y-13.9758 Z-24.4583
G1 Y-14.0284 Z-24.5686
G1 Y-14.083 Z-24.6779
G1 Y-14.1394 Z-24.7863
G1 Y-14.1977 Z-24.8937
G1 Y-14.2578 Z-25
G1 Y-14.3198 Z-25.1053
G1 Y-14.3837 Z-25.2094
G1 Y-14.4493 Z-25.3125
G1 Y-14.5167 Z-25.4144
G1 Y-14.5859 Z-25.515
G1 Y-14.6569 Z-25.6145
G1 Y-14.7296 Z-25.7127
G1 Y-14.8039 Z-25.8096
G1 Y-14.88 Z-25.9052
G1 Y-14.9577 Z-25.9995
G1 Y-15.037 Z-26.0924
G1 Y-15.118 Z-26.1839
G1 Y-15.2005 Z-26.274
G1 Y-15.2846 Z-26.3626
G1 Y-15.3703 Z-26.4497
G1 Y-15.4574 Z-26.5354
G1 Y-15.546 Z-26.6195
G1 Y-15.6361 Z-26.702
G1 Y-15.7276 Z-26.783
G1 Y-15.8205 Z-26.8623
G1 Y-15.9148 Z-26.94
G1 Y-16.0104 Z-27.0161
G1 Y-16.1073 Z-27.0904
G1 Y-16.2055 Z-27.1631
G1 Y-16.305 Z-27.2341
G1 Y-16.4056 Z-27.3033
G1 Y-16.5075 Z-27.3707
G1 Y-16.6106 Z-27.4363
G1 Y-16.7147 Z-27.5002
G1 Y-16.82 Z-27.5622
G1 Y-16.9263 Z-27.6223
G1 Y-17.0337 Z-27.6806
G1 Y-17.1421 Z-27.737
G1 Y-17.2514 Z-27.7916
G1 Y-17.3617 Z-27.8442
G1 Y-17.4728 Z-27.8948
G1 Y-17.5849 Z-27.9435
G1 Y-17.6978 Z-27.9903
G1 Y-17.8114 Z-28.0351
G1 Y-17.9259 Z-28.0778
G1 Y-18.041 Z-28.1186
G1 Y-18.1569 Z-28.1574
G1 Y-18.2734 Z-28.1941
G1 Y-18.3905 Z-28.2288
G1 Y-18.5083 Z-28.2615
G1 Y-18.6265 Z-28.2921
G1 Y-18.7453 Z-28.3206
G1 Y-18.8646 Z-28.347
G1 Y-18.9843 Z-28.3714
G1 Y-19.1045 Z-28.3937
G1 Y-19.225 Z-28.4138
G1 Y-19.3458 Z-28.4319
G1 Y-19.4669 Z-28.4478
G1 Y-19.5883 Z-28.4617
G1 Y-19.7099 Z-28.4734
G1 Y-19.8317 Z-28.4829
G1 Y-19.9536 Z-28.4904
G1 Y-20.0757 Z-28.4957
G1 Y-20.1978 Z-28.4989
G1 Y-20.32 Z-28.5
G1 X-2 F80 ( Plunge )
G1 F200 ( Set milling feed rate )
G1 Y-20.32 Z-28.5
G1 Y-20.32 Z-28.5
G1 Y-20.4422 Z-28.4989
G1 Y-20.5643 Z-28.4957
G1 Y-20.6864 Z-28.4904
G1 Y-20.8083 Z-28.4829
G1 Y-20.9301 Z-28.4734
G1 Y-21.0517 Z-28.4617
G1 Y-21.1731 Z-28.4478
G1 Y-21.2942 Z-28.4319
G1 Y-21.415 Z-28.4138
G1 Y-21.5355 Z-28.3937
G1 Y-21.6557 Z-28.3714
G1 Y-21.7754 Z-28.347
G1 Y-21.8947 Z-28.3206
G1 Y-22.0135 Z-28.2921
G1 Y-22.1317 Z-28.2615
G1 Y-22.2495 Z-28.2288
G1 Y-22.3666 Z-28.1941
G1 Y-22.4831 Z-28.1574
G1 Y-22.599 Z-28.1186
G1 Y-22.7141 Z-28.0778
G1 Y-22.8286 Z-28.0351
G1 Y-22.9422 Z-27.9903
G1 Y-23.0551 Z-27.9435
G1 Y-23.1672 Z-27.8948
G1 Y-23.2783 Z-27.8442
G1 Y-23.3886 Z-27.7916
G1 Y-23.4979 Z-27.737
G1 Y-23.6063 Z-27.6806
G1 Y-23.7137 Z-27.6223
G1 Y-23.82 Z-27.5622
G1 Y-23.9253 Z-27.5002
G1 Y-24.0294 Z-27.4363
G1 Y-24.1325 Z-27.3707
G1 Y-24.2344 Z-27.3033
G1 Y-24.335 Z-27.2341
G1 Y-24.4345 Z-27.1631
G1 Y-24.5327 Z-27.0904
G1 Y-24.6296 Z-27.0161
G1 Y-24.7252 Z-26.94
G1 Y-24.8195 Z-26.8623
G1 Y-24.9124 Z-26.783
G1 Y-25.0039 Z-26.702
G1 Y-25.094 Z-26.6195
G1 Y-25.1826 Z-26.5354
G1 Y-25.2697 Z-26.4497
G1 Y-25.3554 Z-26.3626
G1 Y-25.4395 Z-26.274
G1 Y-25.522 Z-26.1839
G1 Y-25.603 Z-26.0924
G1 Y-25.6823 Z-25.9995
G1 Y-25.76 Z-25.9052
G1 Y-25.8361 Z-25.8096
G1 Y-25.9104 Z-25.7127
G1 Y-25.9831 Z-25.6145
G1 Y-26.0541 Z-25.515
G1 Y-26.1233 Z-25.4144
G1 Y-26.1907 Z-25.3125
G1 Y-26.2563 Z-25.2094
G1 Y-26.3202 Z-25.1053
G1 Y-26.3822 Z-25
G1 Y-26.4423 Z-24.8937
G1 Y-26.5006 Z-24.7863
G1 Y-26.557 Z-24.6779
G1 Y-26.6116 Z-24.5686
G1 Y-26.6642 Z-24.4583
G1 Y-26.7148 Z-24.3472
G1 Y-26.7635 Z-24.2351
G1 Y-26.8103 Z-24.1222
G1 Y-26.8551 Z-24.0086
G1 Y-26.8978 Z-23.8941
G1 Y-26.9386 Z-23.779
G1 Y-26.9774 Z-23.6631
G1 Y-27.0141 Z-23.5466
G1 Y-27.0488 Z-23.4295
G1 Y-27.0815 Z-23.3117
G1 Y-27.1121 Z-23.1935
G1 Y-27.1406 Z-23.0747
G1 Y-27.167 Z-22.9554
G1 Y-27.1914 Z-22.8357
G1 Y-27.2137 Z-22.7155
G1 Y-27.2338 Z-22.595
G1 Y-27.2519 Z-22.4742
G1 Y-27.2678 Z-22.3531
G1 Y-27.2817 Z-22.2317
G1 Y-27.2934 Z-22.1101
G1 Y-27.3029 Z-21.9883
G1 Y-27.3104 Z-21.8664
G1 Y-27.3157 Z-21.7443
G1 Y-27.3189 Z-21.6222
G1 Y-27.32 Z-21.5
G1 Y-27.3189 Z-21.3778
G1 Y-27.3157 Z-21.2557
G1 Y-27.3104 Z-21.1336
G1 Y-27.3029 Z-21.0117
G1 Y-27.2934 Z-20.8899
G1 Y-27.2817 Z-20.7683
G1 Y-27.2678 Z-20.6469
G1 Y-27.2519 Z-20.5258
G1 Y-27.2338 Z-20.405
G1 Y-27.2137 Z-20.2845
G1 Y-27.1914 Z-20.1643
G1 Y-27.167 Z-20.0446
G1 Y-27.1406 Z-19.9253
G1 Y-27.1121 Z-19.8065
G1 Y-27.0815 Z-19.6883
G1 Y-27.0488 Z-19.5705
G1 Y-27.0141 Z-19.4534
G1 Y-26.9774 Z-19.3369
G1 Y-26.9386 Z-19.221
G1 Y-26.8978 Z-19.1059
G1 Y-26.8551 Z-18.9914
G1 Y-26.8103 Z-18.8778
G1 Y-26.7635 Z-18.7649
G1 Y-26.7148 Z-18.6528
G1 Y-26.6642 Z-18.5417
G1 Y-26.6116 Z-18.4314
G1 Y-26.557 Z-18.3221
G1 Y-26.5006 Z-18.2137
G1 Y-26.4423 Z-18.1063
G1 Y-26.3822 Z-18
G1 Y-26.3202 Z-17.8947
G1 Y-26.2563 Z-17.7906
G1 Y-26.1907 Z-17.6875
G1 Y-26.1233 Z-17.5856
G1 Y-26.0541 Z-17.485
G1 Y-25.9831 Z-17.3855
G1 Y-25.9104 Z-17.2873
G1 Y-25.8361 Z-17.1904
G1 Y-25.76 Z-17.0948
G1 Y-25.6823 Z-17.0005
G1 Y-25.603 Z-16.9076
G1 Y-25.522 Z-16.8161
G1 Y-25.4395 Z-16.726
G1 Y-25.3554 Z-16.6374
G1 Y-25.2697 Z-16.5503
G1 Y-25.1826 Z-16.4646
G1 Y-25.094 Z-16.3805
G1 Y-25.0039 Z-16.298
G1 Y-24.9124 Z-16.217
G1 Y-24.8195 Z-16.1377
G1 Y-24.7252 Z-16.06
G1 Y-24.6296 Z-15.9839
G1 Y-24.5327 Z-15.9096
G1 Y-24.4345 Z-15.8369
G1 Y-24.335 Z-15.7659
G1 Y-24.2344 Z-15.6967
G1 Y-24.1325 Z-15.6293
G1 Y-24.0294 Z-15.5637
G1 Y-23.9253 Z-15.4998
G1 Y-23.82 Z-15.4378
G1 Y-23.7137 Z-15.3777
G1 Y-23.6063 Z-15.3194
G1 Y-23.4979 Z-15.263
G1 Y-23.3886 Z-15.2084
G1 Y-23.2783 Z-15.1558
G1 Y-23.1672 Z-15.1052
G1 Y-23.0551 Z-15.0565
G1 Y-22.9422 Z-15.0097
G1 Y-22.8286 Z-14.9649
G1 Y-22.7141 Z-14.9222
G1 Y-22.599 Z-14.8814
G1 Y-22.4831 Z-14.8426
G1 Y-22.3666 Z-14.8059
G1 Y-22.2495 Z-14.7712
G1 Y-22.1317 Z-14.7385
G1 Y-22.0135 Z-14.7079
G1 Y-21.8947 Z-14.6794
G1 Y-21.7754 Z-14.653
G1 Y-21.6557 Z-14.6286
G1 Y-21.5355 Z-14.6063
G1 Y-21.415 Z-14.5862
G1 Y-21.2942 Z-14.5681
G1 Y-21.1731 Z-14.5522
G1 Y-21.0517 Z-14.5383
G1 Y-20.9301 Z-14.5266
G1 Y-20.8083 Z-14.5171
G1 Y-20.6864 Z-14.5096
G1 Y-20.5643 Z-14.5043
G1 Y-20.4422 Z-14.5011
G1 Y-20.32 Z-14.5
G1 Y-20.1978 Z-14.5011
G1 Y-20.0757 Z-14.5043
G1 Y-19.9536 Z-14.5096
G1 Y-19.8317 Z-14.5171
G1 Y-19.7099 Z-14.5266
G1 Y-19.5883 Z-14.5383
G1 Y-19.4669 Z-14.5522
G1 Y-19.3458 Z-14.5681
G1 Y-19.225 Z-14.5862
G1 Y-19.1045 Z-14.6063
G1 Y-18.9843 Z-14.6286
G1 Y-18.8646 Z-14.653
G1 Y-18.7453 Z-14.6794
G1 Y-18.6265 Z-14.7079
G1 Y-18.5083 Z-14.7385
G1 Y-18.3905 Z-14.7712
G1 Y-18.2734 Z-14.8059
G1 Y-18.1569 Z-14.8426
G1 Y-18.041 Z-14.8814
G1 Y-17.9259 Z-14.9222
G1 Y-17.8114 Z-14.9649
G1 Y-17.6978 Z-15.0097
G1 Y-17.5849 Z-15.0565
G1 Y-17.4728 Z-15.1052
G1 Y-17.3617 Z-15.1558
G1 Y-17.2514 Z-15.2084
G1 Y-17.1421 Z-15.263
G1 Y-17.0337 Z-15.3194
G1 Y-16.9263 Z-15.3777
G1 Y-16.82 Z-15.4378
G1 Y-16.7147 Z-15.4998
G1 Y-16.6106 Z-15.5637
G1 Y-16.5075 Z-15.6293
G1 Y-16.4056 Z-15.6967
G1 Y-16.305 Z-15.7659
G1 Y-16.2055 Z-15.8369
G1 Y-16.1073 Z-15.9096
G1 Y-16.0104 Z-15.9839
G1 Y-15.9148 Z-16.06
G1 Y-15.8205 Z-16.1377
G1 Y-15.7276 Z-16.217
G1 Y-15.6361 Z-16.298
G1 Y-15.546 Z-16.3805
G1 Y-15.4574 Z-16.4646
G1 Y-15.3703 Z-16.5503
G1 Y-15.2846 Z-16.6374
G1 Y-15.2005 Z-16.726
G1 Y-15.118 Z-16.8161
G1 Y-15.037 Z-16.9076
G1 Y-14.9577 Z-17.0005
G1 Y-14.88 Z-17.0948
G1 Y-14.8039 Z-17.1904
G1 Y-14.7296 Z-17.2873
G1 Y-14.6569 Z-17.3855
G1 Y-14.5859 Z-17.485
G1 Y-14.5167 Z-17.5856
G1 Y-14.4493 Z-17.6875
G1 Y-14.3837 Z-17.7906
G1 Y-14.3198 Z-17.8947
G1 Y-14.2578 Z-18
G1 Y-14.1977 Z-18.1063
G1 Y-14.1394 Z-18.2137
G1 Y-14.083 Z-18.3221
G1 Y-14.0284 Z-18.4314
G1 Y-13.9758 Z-18.5417
G1 Y-13.9252 Z-18.6528
G1 Y-13.8765 Z-18.7649
G1 Y-13.8297 Z-18.8778
G1 Y-13.7849 Z-18.9914
G1 Y-13.7422 Z-19.1059
G1 Y-13.7014 Z-19.221
G1 Y-13.6626 Z-19.3369
G1 Y-13.6259 Z-19.4534
G1 Y-13.5912 Z-19.5705
G1 Y-13.5585 Z-19.6883
G1 Y-13.5279 Z-19.8065
G1 Y-13.4994 Z-19.9253
G1 Y-13.473 Z-20.0446
G1 Y-13.4486 Z-20.1643
G1 Y-13.4263 Z-20.2845
G1 Y-13.4062 Z-20.405
G1 Y-13.3881 Z-20.5258
G1 Y-13.3722 Z-20.6469
G1 Y-13.3583 Z-20.7683
G1 Y-13.3466 Z-20.8899
G1 Y-13.3371 Z-21.0117
G1 Y-13.3296 Z-21.1336
G1 Y-13.3243 Z-21.2557
G1 Y-13.3211 Z-21.3778
G1 Y-13.32 Z-21.5
G1 Y-13.3211 Z-21.6222
G1 Y-13.3243 Z-21.7443
G1 Y-13.3296 Z-21.8664
G1 Y-13.3371 Z-21.9883
G1 Y-13.3466 Z-22.1101
G1 Y-13.3583 Z-22.2317
G1 Y-13.3722 Z-22.3531
G1 Y-13.3881 Z-22.4742
G1 Y-13.4062 Z-22.595
G1 Y-13.4263 Z-22.7155
G1 Y-13.4486 Z-22.8357
G1 Y-13.473 Z-22.9554
G1 Y-13.4994 Z-23.0747
G1 Y-13.5279 Z-23.1935
G1 Y-13.5585 Z-23.3117
G1 Y-13.5912 Z-23.4295
G1 Y-13.6259 Z-23.5466
G1 Y-13.6626 Z-23.6631
G1 Y-13.7014 Z-23.779
G1 Y-13.7422 Z-23.8941
G1 Y-13.7849 Z-24.0086
G1 Y-13.8297 Z-24.1222
G1 Y-13.8765 Z-24.2351
G1 Y-13.9252 Z-24.3472
G1 Y-13.9758 Z-24.4583
G1 Y-14.0284 Z-24.5686
G1 Y-14.083 Z-24.6779
G1 Y-14.1394 Z-24.7863
G1 Y-14.1977 Z-24.8937
G1 Y-14.2578 Z-25
G1 Y-14.3198 Z-25.1053
G1 Y-14.3837 Z-25.2094
G1 Y-14.4493 Z-25.3125
G1 Y-14.5167 Z-25.4144
G1 Y-14.5859 Z-25.515
G1 Y-14.6569 Z-25.6145
G1 Y-14.7296 Z-25.7127
G1 Y-14.8039 Z-25.8096
G1 Y-14.88 Z-25.9052
G1 Y-14.9577 Z-25.9995
G1 Y-15.037 Z-26.0924
G1 Y-15.118 Z-26.1839
G1 Y-15.2005 Z-26.274
G1 Y-15.2846 Z-26.3626
G1 Y-15.3703 Z-26.4497
G1 Y-15.4574 Z-26.5354
G1 Y-15.546 Z-26.6195
G1 Y-15.6361 Z-26.702
G1 Y-15.7276 Z-26.783
G1 Y-15.8205 Z-26.8623
G1 Y-15.9148 Z-26.94
G1 Y-16.0104 Z-27.0161
G1 Y-16.1073 Z-27.0904
G1 Y-16.2055 Z-27.1631
G1 Y-16.305 Z-27.2341
G1 Y-16.4056 Z-27.3033
G1 Y-16.5075 Z-27.3707
G1 Y-16.6106 Z-27.4363
G1 Y-16.7147 Z-27.5002
G1 Y-16.82 Z-27.5622
G1 Y-16.9263 Z-27.6223
G1 Y-17.0337 Z-27.6806
G1 Y-17.1421 Z-27.737
G1 Y-17.2514 Z-27.7916
G1 Y-17.3617 Z-27.8442
G1 Y-17.4728 Z-27.8948
G1 Y-17.5849 Z-27.9435
G1 Y-17.6978 Z-27.9903
G1 Y-17.8114 Z-28.0351
G1 Y-17.9259 Z-28.0778
G1 Y-18.041 Z-28.1186
G1 Y-18.1569 Z-28.1574
G1 Y-18.2734 Z-28.1941
G1 Y-18.3905 Z-28.2288
G1 Y-18.5083 Z-28.2615
G1 Y-18.6265 Z-28.2921
G1 Y-18.7453 Z-28.3206
G1 Y-18.8646 Z-28.347
G1 Y-18.9843 Z-28.3714
G1 Y-19.1045 Z-28.3937
G1 Y-19.225 Z-28.4138
G1 Y-19.3458 Z-28.4319
G1 Y-19.4669 Z-28.4478
G1 Y-19.5883 Z-28.4617
G1 Y-19.7099 Z-28.4734
G1 Y-19.8317 Z-28.4829
G1 Y-19.9536 Z-28.4904
G1 Y-20.0757 Z-28.4957
G1 Y-20.1978 Z-28.4989
G1 Y-20.32 Z-28.5
G1 X-3 F80 ( Plunge )
G1 F200 ( Set milling feed rate )
G1 Y-20.32 Z-28.5
G1 Y-20.32 Z-28.5
G1 Y-20.4422 Z-28.4989
G1 Y-20.5643 Z-28.4957
G1 Y-20.6864 Z-28.4904
G1 Y-20.8083 Z-28.4829
G1 Y-20.9301 Z-28.4734
G1 Y-21.0517 Z-28.4617
G1 Y-21.1731 Z-28.4478
G1 Y-21.2942 Z-28.4319
G1 Y-21.415 Z-28.4138
G1 Y-21.5355 Z-28.3937
G1 Y-21.6557 Z-28.3714
G1 Y-21.7754 Z-28.347
G1 Y-21.8947 Z-28.3206
G1 Y-22.0135 Z-28.2921
G1 Y-22.1317 Z-28.2615
G1 Y-22.2495 Z-28.2288
G1 Y-22.3666 Z-28.1941
G1 Y-22.4831 Z-28.1574
G1 Y-22.599 Z-28.1186
G1 Y-22.7141 Z-28.0778
G1 Y-22.8286 Z-28.0351
G1 Y-22.9422 Z-27.9903
G1 Y-23.0551 Z-27.9435
G1 Y-23.1672 Z-27.8948
G1 Y-23.2783 Z-27.8442
G1 Y-23.3886 Z-27.7916
G1 Y-23.4979 Z-27.737
G1 Y-23.6063 Z-27.6806
G1 Y-23.7137 Z-27.6223
G1 Y-23.82 Z-27.5622
G1 Y-23.9253 Z-27.5002
G1 Y-24.0294 Z-27.4363
G1 Y-24.1325 Z-27.3707
G1 Y-24.2344 Z-27.3033
G1 Y-24.335 Z-27.2341
G1 Y-24.4345 Z-27.1631
G1 Y-24.5327 Z-27.0904
G1 Y-24.6296 Z-27.0161
G1 Y-24.7252 Z-26.94
G1 Y-24.8195 Z-26.8623
G1 Y-24.9124 Z-26.783
G1 Y-25.0039 Z-26.702
G1 Y-25.094 Z-26.6195
G1 Y-25.1826 Z-26.5354
G1 Y-25.2697 Z-26.4497
G1 Y-25.3554 Z-26.3626
G1 Y-25.4395 Z-26.274
G1 Y-25.522 Z-26.1839
G1 Y-25.603 Z-26.0924
G1 Y-25.6823 Z-25.9995
G1 Y-25.76 Z-25.9052
G1 Y-25.8361 Z-25.8096
G1 Y-25.9104 Z-25.7127
G1 Y-25.9831 Z-25.6145
G1 Y-26.0541 Z-25.515
G1 Y-26.1233 Z-25.4144
G1 Y-26.1907 Z-25.3125
G1 Y-26.2563 Z-25.2094
G1 Y-26.3202 Z-25.1053
G1 Y-26.3822 Z-25
G1 Y-26.4423 Z-24.8937
G1 Y-26.5006 Z-24.7863
G1 Y-26.557 Z-24.6779
G1 Y-26.6116 Z-24.5686
G1 Y-26.6642 Z-24.4583
G1 Y-26.7148 Z-24.3472
G1 Y-26.7635 Z-24.2351
G1 Y-26.8103 Z-24.1222
G1 Y-26.8551 Z-24.0086
G1 Y-26.8978 Z-23.8941
G1 Y-26.9386 Z-23.779
G1 Y-26.9774 Z-23.6631
G1 Y-27.0141 Z-23.5466
G1 Y-27.0488 Z-23.4295
G1 Y-27.0815 Z-23.3117
G1 Y-27.1121 Z-23.1935
G1 Y-27.1406 Z-23.0747
G1 Y-27.167 Z-22.9554
G1 Y-27.1914 Z-22.8357
G1 Y-27.2137 Z-22.7155
G1 Y-27.2338 Z-22.595
G1 Y-27.2519 Z-22.4742
G1 Y-27.2678 Z-22.3531
G1 Y-27.2817 Z-22.2317
G1 Y-27.2934 Z-22.1101
G1 Y-27.3029 Z-21.9883
G1 Y-27.3104 Z-21.8664
G1 Y-27.3157 Z-21.7443
G1 Y-27.3189 Z-21.6222
G1 Y-27.32 Z-21.5
G1 Y-27.3189 Z-21.3778
G1 Y-27.3157 Z-21.2557
G1 Y-27.3104 Z-21.1336
G1 Y-27.3029 Z-21.0117
G1 Y-27.2934 Z-20.8899
G1 Y-27.2817 Z-20.7683
G1 Y-27.2678 Z-20.6469
G1 Y-27.2519 Z-20.5258
G1 Y-27.2338 Z-20.405
G1 Y-27.2137 Z-20.2845
G1 Y-27.1914 Z-20.1643
G1 Y-27.167 Z-20.0446
G1 Y-27.1406 Z-19.9253
G1 Y-27.1121 Z-19.8065
G1 Y-27.0815 Z-19.6883
G1 Y-27.0488 Z-19.5705
G1 Y-27.0141 Z-19.4534
G1 Y-26.9774 Z-19.3369
G1 Y-26.9386 Z-19.221
G1 Y-26.8978 Z-19.1059
G1 Y-26.8551 Z-18.9914
G1 Y-26.8103 Z-18.8778
G1 Y-26.7635 Z-18.7649
G1 Y-26.7148 Z-18.6528
G1 Y-26.6642 Z-18.5417
G1 Y-26.6116 Z-18.4314
G1 Y-26.557 Z-18.3221
G1 Y-26.5006 Z-18.2137
G1 Y-26.4423 Z-18.1063
G1 Y-26.3822 Z-18
G1 Y-26.3202 Z-17.8947
G1 Y-26.2563 Z-17.7906
G1 Y-26.1907 Z-17.6875
G1 Y-26.1233 Z-17.5856
G1 Y-26.0541 Z-17.485
G1 Y-25.9831 Z-17.3855
G1 Y-25.9104 Z-17.2873
G1 Y-25.8361 Z-17.1904
G1 Y-25.76 Z-17.0948
G1 Y-25.6823 Z-17.0005
G1 Y-25.603 Z-16.9076
G1 Y-25.522 Z-16.8161
G1 Y-25.4395 Z-16.726
G1 Y-25.3554 Z-16.6374
G1 Y-25.2697 Z-16.5503
G1 Y-25.1826 Z-16.4646
G1 Y-25.094 Z-16.3805
G1 Y-25.0039 Z-16.298
G1 Y-24.9124 Z-16.217
G1 Y-24.8195 Z-16.1377
G1 Y-24.7252 Z-16.06
G1 Y-24.6296 Z-15.9839
G1 Y-24.5327 Z-15.9096
G1 Y-24.4345 Z-15.8369
G1 Y-24.335 Z-15.7659
G1 Y-24.2344 Z-15.6967
G1 Y-24.1325 Z-15.6293
G1 Y-24.0294 Z-15.5637
G1 Y-23.9253 Z-15.4998
G1 Y-23.82 Z-15.4378
G1 Y-23.7137 Z-15.3777
G1 Y-23.6063 Z-15.3194
G1 Y-23.4979 Z-15.263
G1 Y-23.3886 Z-15.2084
G1 Y-23.2783 Z-15.1558
G1 Y-23.1672 Z-15.1052
G1 Y-23.0551 Z-15.0565
G1 Y-22.9422 Z-15.0097
G1 Y-22.8286 Z-14.9649
G1 Y-22.7141 Z-14.9222
G1 Y-22.599 Z-14.8814
G1 Y-22.4831 Z-14.8426
G1 Y-22.3666 Z-14.8059
G1 Y-22.2495 Z-14.7712
G1 Y-22.1317 Z-14.7385
G1 Y-22.0135 Z-14.7079
G1 Y-21.8947 Z-14.6794
G1 Y-21.7754 Z-14.653
G1 Y-21.6557 Z-14.6286
G1 Y-21.5355 Z-14.6063
G1 Y-21.415 Z-14.5862
G1 Y-21.2942 Z-14.5681
G1 Y-21.1731 Z-14.5522
G1 Y-21.0517 Z-14.5383
G1 Y-20.9301 Z-14.5266
G1 Y-20.8083 Z-14.5171
G1 Y-20.6864 Z-14.5096
G1 Y-20.5643 Z-14.5043
G1 Y-20.4422 Z-14.5011
G1 Y-20.32 Z-14.5
G1 Y-20.1978 Z-14.5011
G1 Y-20.0757 Z-14.5043
G1 Y-19.9536 Z-14.5096
G1 Y-19.8317 Z-14.5171
G1 Y-19.7099 Z-14.5266
G1 Y-19.5883 Z-14.5383
G1 Y-19.4669 Z-14.5522
G1 Y-19.3458 Z-14.5681
G1 Y-19.225 Z-14.5862
G1 Y-19.1045 Z-14.6063
G1 Y-18.9843 Z-14.6286
G1 Y-18.8646 Z-14.653
G1 Y-18.7453 Z-14.6794
G1 Y-18.6265 Z-14.7079
G1 Y-18.5083 Z-14.7385
G1 Y-18.3905 Z-14.7712
G1 Y-18.2734 Z-14.8059
G1 Y-18.1569 Z-14.8426
G1 Y-18.041 Z-14.8814
G1 Y-17.9259 Z-14.9222
G1 Y-17.8114 Z-14.9649
G1 Y-17.6978 Z-15.0097
G1 Y-17.5849 Z-15.0565
G1 Y-17.4728 Z-15.1052
G1 Y-17.3617 Z-15.1558
G1 Y-17.2514 Z-15.2084
G1 Y-17.1421 Z-15.263
G1 Y-17.0337 Z-15.3194
G1 Y-16.9263 Z-15.3777
G1 Y-16.82 Z-15.4378
G1 Y-16.7147 Z-15.4998
G1 Y-16.6106 Z-15.5637
G1 Y-16.5075 Z-15.6293
G1 Y-16.4056 Z-15.6967
G1 Y-16.305 Z-15.7659
G1 Y-16.2055 Z-15.8369
G1 Y-16.1073 Z-15.9096
G1 Y-16.0104 Z-15.9839
G1 Y-15.9148 Z-16.06
G1 Y-15.8205 Z-16.1377
G1 Y-15.7276 Z-16.217
G1 Y-15.6361 Z-16.298
G1 Y-15.546 Z-16.3805
G1 Y-15.4574 Z-16.4646
G1 Y-15.3703 Z-16.5503
G1 Y-15.2846 Z-16.6374
G1 Y-15.2005 Z-16.726
G1 Y-15.118 Z-16.8161
G1 Y-15.037 Z-16.9076
G1 Y-14.9577 Z-17.0005
G1 Y-14.88 Z-17.0948
G1 Y-14.8039 Z-17.1904
G1 Y-14.7296 Z-17.2873
G1 Y-14.6569 Z-17.3855
G1 Y-14.5859 Z-17.485
G1 Y-14.5167 Z-17.5856
G1 Y-14.4493 Z-17.6875
G1 Y-14.3837 Z-17.7906
G1 Y-14.3198 Z-17.8947
G1 Y-14.2578 Z-18
G1 Y-14.1977 Z-18.1063
G1 Y-14.1394 Z-18.2137
G1 Y-14.083 Z-18.3221
G1 Y-14.0284 Z-18.4314
G1 Y-13.9758 Z-18.5417
G1 Y-13.9252 Z-18.6528
G1 Y-13.8765 Z-18.7649
G1 Y-13.8297 Z-18.8778
G1 Y-13.7849 Z-18.9914
G1 Y-13.7422 Z-19.1059
G1 Y-13.7014 Z-19.221
G1 Y-13.6626 Z-19.3369
G1 Y-13.6259 Z-19.4534
G1 Y-13.5912 Z-19.5705
G1 Y-13.5585 Z-19.6883
G1 Y-13.5279 Z-19.8065
G1 Y-13.4994 Z-19.9253
G1 Y-13.473 Z-20.0446
G1 Y-13.4486 Z-20.1643
G1 Y-13.4263 Z-20.2845
G1 Y-13.4062 Z-20.405
G1 Y-13.3881 Z-20.5258
G1 Y-13.3722 Z-20.6469
G1 Y-13.3583 Z-20.7683
G1 Y-13.3466 Z-20.8899
G1 Y-13.3371 Z-21.0117
G1 Y-13.3296 Z-21.1336
G1 Y-13.3243 Z-21.2557
G1 Y-13.3211 Z-21.3778
G1 Y-13.32 Z-21.5
G1 Y-13.3211 Z-21.6222
G1 Y-13.3243 Z-21.7443
G1 Y-13.3296 Z-21.8664
G1 Y-13.3371 Z-21.9883
G1 Y-13.3466 Z-22.1101
G1 Y-13.3583 Z-22.2317
G1 Y-13.3722 Z-22.3531
G1 Y-13.3881 Z-22.4742
G1 Y-13.4062 Z-22.595
G1 Y-13.4263 Z-22.7155
G1 Y-13.4486 Z-22.8357
G1 Y-13.473 Z-22.9554
G1 Y-13.4994 Z-23.0747
G1 Y-13.5279 Z-23.1935
G1 Y-13.5585 Z-23.3117
G1 Y-13.5912 Z-23.4295
G1 Y-13.6259 Z-23.5466
G1 Y-13.6626 Z-23.6631
G1 Y-13.7014 Z-23.779
G1 Y-13.7422 Z-23.8941
G1 Y-13.7849 Z-24.0086
G1 Y-13.8297 Z-24.1222
G1 Y-13.8765 Z-24.2351
G1 Y-13.9252 Z-24.3472
G1 Y-13.9758 Z-24.4583
G1 Y-14.0284 Z-24.5686
G1 Y-14.083 Z-24.6779
G1 Y-14.1394 Z-24.7863
G1 Y-14.1977 Z-24.8937
G1 Y-14.2578 Z-25
G1 Y-14.3198 Z-25.1053
G1 Y-14.3837 Z-25.2094
G1 Y-14.4493 Z-25.3125
G1 Y-14.5167 Z-25.4144
G1 Y-14.5859 Z-25.515
G1 Y-14.6569 Z-25.6145
G1 Y-14.7296 Z-25.7127
G1 Y-14.8039 Z-25.8096
G1 Y-14.88 Z-25.9052
G1 Y-14.9577 Z-25.9995
G1 Y-15.037 Z-26.0924
G1 Y-15.118 Z-26.1839
G1 Y-15.2005 Z-26.274
G1 Y-15.2846 Z-26.3626
G1 Y-15.3703 Z-26.4497
G1 Y-15.4574 Z-26.5354
G1 Y-15.546 Z-26.6195
G1 Y-15.6361 Z-26.702
G1 Y-15.7276 Z-26.783
G1 Y-15.8205 Z-26.8623
G1 Y-15.9148 Z-26.94
G1 Y-16.0104 Z-27.0161
G1 Y-16.1073 Z-27.0904
G1 Y-16.2055 Z-27.1631
G1 Y-16.305 Z-27.2341
G1 Y-16.4056 Z-27.3033
G1 Y-16.5075 Z-27.3707
G1 Y-16.6106 Z-27.4363
G1 Y-16.7147 Z-27.5002
G1 Y-16.82 Z-27.5622
G1 Y-16.9263 Z-27.6223
G1 Y-17.0337 Z-27.6806
G1 Y-17.1421 Z-27.737
G1 Y-17.2514 Z-27.7916
G1 Y-17.3617 Z-27.8442
G1 Y-17.4728 Z-27.8948
G1 Y-17.5849 Z-27.9435
G1 Y-17.6978 Z-27.9903
G1 Y-17.8114 Z-28.0351
G1 Y-17.9259 Z-28.0778
G1 Y-18.041 Z-28.1186
G1 Y-18.1569 Z-28.1574
G1 Y-18.2734 Z-28.1941
G1 Y-18.3905 Z-28.2288
G1 Y-18.5083 Z-28.2615
G1 Y-18.6265 Z-28.2921
G1 Y-18.7453 Z-28.3206
G1 Y-18.8646 Z-28.347
G1 Y-18.9843 Z-28.3714
G1 Y-19.1045 Z-28.3937
G1 Y-19.225 Z-28.4138
G1 Y-19.3458 Z-28.4319
G1 Y-19.4669 Z-28.4478
G1 Y-19.5883 Z-28.4617
G1 Y-19.7099 Z-28.4734
G1 Y-19.8317 Z-28.4829
G1 Y-19.9536 Z-28.4904
G1 Y-20.0757 Z-28.4957
G1 Y-20.1978 Z-28.4989
G1 Y-20.32 Z-28.5
G0 X3 ( Retract )
G0 Y0 Z-28.5
G1 X-1 F80 ( Plunge )
G1 F200 ( Set milling feed rate )
G1 Y0 Z-28.5
G1 Y0 Z-28.5
G1 Y-0.1222 Z-28.4989
G1 Y-0.2443 Z-28.4957
G1 Y-0.3664 Z-28.4904
G1 Y-0.4883 Z-28.4829
G1 Y-0.6101 Z-28.4734
G1 Y-0.7317 Z-28.4617
G1 Y-0.8531 Z-28.4478
G1 Y-0.9742 Z-28.4319
G1 Y-1.095 Z-28.4138
G1 Y-1.2155 Z-28.3937
G1 Y-1.3357 Z-28.3714
G1 Y-1.4554 Z-28.347
G1 Y-1.5747 Z-28.3206
G1 Y-1.6935 Z-28.2921
G1 Y-1.8117 Z-28.2615
G1 Y-1.9295 Z-28.2288
G1 Y-2.0466 Z-28.1941
G1 Y-2.1631 Z-28.1574
G1 Y-2.279 Z-28.1186
G1 Y-2.3941 Z-28.0778
G1 Y-2.5086 Z-28.0351
G1 Y-2.6222 Z-27.9903
G1 Y-2.7351 Z-27.9435
G1 Y-2.8472 Z-27.8948
G1 Y-2.9583 Z-27.8442
G1 Y-3.0686 Z-27.7916
G1 Y-3.1779 Z-27.737
G1 Y-3.2863 Z-27.6806
G1 Y-3.3937 Z-27.6223
G1 Y-3.5 Z-27.5622
G1 Y-3.6053 Z-27.5002
G1 Y-3.7094 Z-27.4363
G1 Y-3.8125 Z-27.3707
G1 Y-3.9144 Z-27.3033
G1 Y-4.015 Z-27.2341
G1 Y-4.1145 Z-27.1631
G1 Y-4.2127 Z-27.0904
G1 Y-4.3096 Z-27.0161
G1 Y-4.4052 Z-26.94
G1 Y-4.4995 Z-26.8623
G1 Y-4.5924 Z-26.783
G1 Y-4.6839 Z-26.702
G1 Y-4.774 Z-26.6195
G1 Y-4.8626 Z-26.5354
G1 Y-4.9497 Z-26.4497
G1 Y-5.0354 Z-26.3626
G1 Y-5.1195 Z-26.274
G1 Y-5.202 Z-26.1839
G1 Y-5.283 Z-26.0924
G1 Y-5.3623 Z-25.9995
G1 Y-5.44 Z-25.9052
G1 Y-5.5161 Z-25.8096
G1 Y-5.5904 Z-25.7127
G1 Y-5.6631 Z-25.6145
G1 Y-5.7341 Z-25.515
G1 Y-5.8033 Z-25.4144
G1 Y-5.8707 Z-25.3125
G1 Y-5.9363 Z-25.2094
G1 Y-6.0002 Z-25.1053
G1 Y-6.0622 Z-25
G1 Y-6.1223 Z-24.8937
G1 Y-6.1806 Z-24.7863
G1 Y-6.237 Z-24.6779
G1 Y-6.2916 Z-24.5686
G1 Y-6.3442 Z-24.4583
G1 Y-6.3948 Z-24.3472
G1 Y-6.4435 Z-24.2351
G1 Y-6.4903 Z-24.1222
G1 Y-6.5351 Z-24.0086
G1 Y-6.5778 Z-23.8941
G1 Y-6.6186 Z-23.779
G1 Y-6.6574 Z-23.6631
G1 Y-6.6941 Z-23.5466
G1 Y-6.7288 Z-23.4295
G1 Y-6.7615 Z-23.3117
G1 Y-6.7921 Z-23.1935
G1 Y-6.8206 Z-23.0747
G1 Y-6.847 Z-22.9554
G1 Y-6.8714 Z-22.8357
G1 Y-6.8937 Z-22.7155
G1 Y-6.9138 Z-22.595
G1 Y-6.9319 Z-22.4742
G1 Y-6.9478 Z-22.3531
G1 Y-6.9617 Z-22.2317
G1 Y-6.9734 Z-22.1101
G1 Y-6.9829 Z-21.9883
G1 Y-6.9904 Z-21.8664
G1 Y-6.9957 Z-21.7443
G1 Y-6.9989 Z-21.6222
G1 Y-7 Z-21.5
G1 Y-6.9989 Z-21.3778
G1 Y-6.9957 Z-21.2557
G1 Y-6.9904 Z-21.1336
G1 Y-6.9829 Z-21.0117
G1 Y-6.9734 Z-20.8899
G1 Y-6.9617 Z-20.7683
G1 Y-6.9478 Z-20.6469
G1 Y-6.9319 Z-20.5258
G1 Y-6.9138 Z-20.405
G1 Y-6.8937 Z-20.2845
G1 Y-6.8714 Z-20.1643
G1 Y-6.847 Z-20.0446
G1 Y-6.8206 Z-19.9253
G1 Y-6.7921 Z-19.8065
G1 Y-6.7615 Z-19.6883
G1 Y-6.7288 Z-19.5705
G1 Y-6.6941 Z-19.4534
G1 Y-6.6574 Z-19.3369
G1 Y-6.6186 Z-19.221
G1 Y-6.5778 Z-19.1059
G1 Y-6.5351 Z-18.9914
G1 Y-6.4903 Z-18.8778
G1 Y-6.4435 Z-18.7649
G1 Y-6.3948 Z-18.6528
G1 Y-6.3442 Z-18.5417
G1 Y-6.2916 Z-18.4314
G1 Y-6.237 Z-18.3221
G1 Y-6.1806 Z-18.2137
G1 Y-6.1223 Z-18.1063
G1 Y-6.0622 Z-18
G1 Y-6.0002 Z-17.8947
G1 Y-5.9363 Z-17.7906
G1 Y-5.8707 Z-17.6875
G1 Y-5.8033 Z-17.5856
G1 Y-5.7341 Z-17.485
G1 Y-5.6631 Z-17.3855
G1 Y-5.5904 Z-17.2873
G1 Y-5.5161 Z-17.1904
G1 Y-5.44 Z-17.0948
G1 Y-5.3623 Z-17.0005
G1 Y-5.283 Z-16.9076
G1 Y-5.202 Z-16.8161
G1 Y-5.1195 Z-16.726
G1 Y-5.0354 Z-16.6374
G1 Y-4.9497 Z-16.5503
G1 Y-4.8626 Z-16.4646
G1 Y-4.774 Z-16.3805
G1 Y-4.6839 Z-16.298
G1 Y-4.5924 Z-16.217
G1 Y-4.4995 Z-16.1377
G1 Y-4.4052 Z-16.06
G1 Y-4.3096 Z-15.9839
G1 Y-4.2127 Z-15.9096
G1 Y-4.1145 Z-15.8369
G1 Y-4.015 Z-15.7659
G1 Y-3.9144 Z-15.6967
G1 Y-3.8125 Z-15.6293
G1 Y-3.7094 Z-15.5637
G1 Y-3.6053 Z-15.4998
G1 Y-3.5 Z-15.4378
G1 Y-3.3937 Z-15.3777
G1 Y-3.2863 Z-15.3194
G1 Y-3.1779 Z-15.263
G1 Y-3.0686 Z-15.2084
G1 Y-2.9583 Z-15.1558
G1 Y-2.8472 Z-15.1052
G1 Y-2.7351 Z-15.0565
G1 Y-2.6222 Z-15.0097
G1 Y-2.5086 Z-14.9649
G1 Y-2.3941 Z-14.9222
G1 Y-2.279 Z-14.8814
G1 Y-2.1631 Z-14.8426
G1 Y-2.0466 Z-14.8059
G1 Y-1.9295 Z-14.7712
G1 Y-1.8117 Z-14.7385
G1 Y-1.6935 Z-14.7079
G1 Y-1.5747 Z-14.6794
G1 Y-1.4554 Z-14.653
G1 Y-1.3357 Z-14.6286
G1 Y-1.2155 Z-14.6063
G1 Y-1.095 Z-14.5862
G1 Y-0.9742 Z-14.5681
G1 Y-0.8531 Z-14.5522
G1 Y-0.7317 Z-14.5383
G1 Y-0.6101 Z-14.5266
G1 Y-0.4883 Z-14.5171
G1 Y-0.3664 Z-14.5096
G1 Y-0.2443 Z-14.5043
G1 Y-0.1222 Z-14.5011
G1 Y-0 Z-14.5
G1 Y0.1222 Z-14.5011
G1 Y0.2443 Z-14.5043
G1 Y0.3664 Z-14.5096
G1 Y0.4883 Z-14.5171
G1 Y0.6101 Z-14.5266
G1 Y0.7317 Z-14.5383
G1 Y0.8531 Z-14.5522
G1 Y0.9742 Z-14.5681
G1 Y1.095 Z-14.5862
G1 Y1.2155 Z-14.6063
G1 Y1.3357 Z-14.6286
G1 Y1.4554 Z-14.653
G1 Y1.5747 Z-14.6794
G1 Y1.6935 Z-14.7079
G1 Y1.8117 Z-14.7385
G1 Y1.9295 Z-14.7712
G1 Y2.0466 Z-14.8059
G1 Y2.1631 Z-14.8426
G1 Y2.279 Z-14.8814
G1 Y2.3941 Z-14.9222
G1 Y2.5086 Z-14.9649
G1 Y2.6222 Z-15.0097
G1 Y2.7351 Z-15.0565
G1 Y2.8472 Z-15.1052
G1 Y2.9583 Z-15.1558
G1 Y3.0686 Z-15.2084
G1 Y3.1779 Z-15.263
G1 Y3.2863 Z-15.3194
G1 Y3.3937 Z-15.3777
G1 Y3.5 Z-15.4378
G1 Y3.6053 Z-15.4998
G1 Y3.7094 Z-15.5637
G1 Y3.8125 Z-15.6293
G1 Y3.9144 Z-15.6967
G1 Y4.015 Z-15.7659
G1 Y4.1145 Z-15.8369
G1 Y4.2127 Z-15.9096
G1 Y4.3096 Z-15.9839
G1 Y4.4052 Z-16.06
G1 Y4.4995 Z-16.1377
G1 Y4.5924 Z-16.217
G1 Y4.6839 Z-16.298
G1 Y4.774 Z-16.3805
G1 Y4.8626 Z-16.4646
G1 Y4.9497 Z-16.5503
G1 Y5.0354 Z-16.6374
G1 Y5.1195 Z-16.726
G1 Y5.202 Z-16.8161
G1 Y5.283 Z-16.9076
G1 Y5.3623 Z-17.0005
G1 Y5.44 Z-17.0948
G1 Y5.5161 Z-17.1904
G1 Y5.5904 Z-17.2873
G1 Y5.6631 Z-17.3855
G1 Y5.7341 Z-17.485
G1 Y5.8033 Z-17.5856
G1 Y5.8707 Z-17.6875
G1 Y5.9363 Z-17.7906
G1 Y6.0002 Z-17.8947
G1 Y6.0622 Z-18
G1 Y6.1223 Z-18.1063
G1 Y6.1806 Z-18.2137
G1 Y6.237 Z-18.3221
G1 Y6.2916 Z-18.4314
G1 Y6.3442 Z-18.5417
G1 Y6.3948 Z-18.6528
G1 Y6.4435 Z-18.7649
G1 Y6.4903 Z-18.8778
G1 Y6.5351 Z-18.9914
G1 Y6.5778 Z-19.1059
G1 Y6.6186 Z-19.221
G1 Y6.6574 Z-19.3369
G1 Y6.6941 Z-19.4534
G1 Y6.7288 Z-19.5705
G1 Y6.7615 Z-19.6883
G1 Y6.7921 Z-19.8065
G1 Y6.8206 Z-19.9253
G1 Y6.847 Z-20.0446
G1 Y6.8714 Z-20.1643
G1 Y6.8937 Z-20.2845
G1 Y6.9138 Z-20.405
G1 Y6.9319 Z-20.5258
G1 Y6.9478 Z-20.6469
G1 Y6.9617 Z-20.7683
G1 Y6.9734 Z-20.8899
G1 Y6.9829 Z-21.0117
G1 Y6.9904 Z-21.1336
G1 Y6.9957 Z-21.2557
G1 Y6.9989 Z-21.3778
G1 Y7 Z-21.5
G1 Y6.9989 Z-21.6222
G1 Y6.9957 Z-21.7443
G1 Y6.9904 Z-21.8664
G1 Y6.9829 Z-21.9883
G1 Y6.9734 Z-22.1101
G1 Y6.9617 Z-22.2317
G1 Y6.9478 Z-22.3531
G1 Y6.9319 Z-22.4742
G1 Y6.9138 Z-22.595
G1 Y6.8937 Z-22.7155
G1 Y6.8714 Z-22.8357
G1 Y6.847 Z-22.9554
G1 Y6.8206 Z-23.0747
G1 Y6.7921 Z-23.1935
G1 Y6.7615 Z-23.3117
G1 Y6.7288 Z-23.4295
G1 Y6.6941 Z-23.5466
G1 Y6.6574 Z-23.6631
G1 Y6.6186 Z-23.779
G1 Y6.5778 Z-23.8941
G1 Y6.5351 Z-24.0086
G1 Y6.4903 Z-24.1222
G1 Y6.4435 Z-24.2351
G1 Y6.3948 Z-24.3472
G1 Y6.3442 Z-24.4583
G1 Y6.2916 Z-24.5686
G1 Y6.237 Z-24.6779
G1 Y6.1806 Z-24.7863
G1 Y6.1223 Z-24.8937
G1 Y6.0622 Z-25
G1 Y6.0002 Z-25.1053
G1 Y5.9363 Z-25.2094
G1 Y5.8707 Z-25.3125
G1 Y5.8033 Z-25.4144
G1 Y5.7341 Z-25.515
G1 Y5.6631 Z-25.6145
G1 Y5.5904 Z-25.7127
G1 Y5.5161 Z-25.8096
G1 Y5.44 Z-25.9052
G1 Y5.3623 Z-25.9995
G1 Y5.283 Z-26.0924
G1 Y5.202 Z-26.1839
G1 Y5.1195 Z-26.274
G1 Y5.0354 Z-26.3626
G1 Y4.9497 Z-26.4497
G1 Y4.8626 Z-26.5354
G1 Y4.774 Z-26.6195
G1 Y4.6839 Z-26.702
G1 Y4.5924 Z-26.783
G1 Y4.4995 Z-26.8623
G1 Y4.4052 Z-26.94
G1 Y4.3096 Z-27.0161
G1 Y4.2127 Z-27.0904
G1 Y4.1145 Z-27.1631
G1 Y4.015 Z-27.2341
G1 Y3.9144 Z-27.3033
G1 Y3.8125 Z-27.3707
G1 Y3.7094 Z-27.4363
G1 Y3.6053 Z-27.5002
G1 Y3.5 Z-27.5622
G1 Y3.3937 Z-27.6223
G1 Y3.2863 Z-27.6806
G1 Y3.1779 Z-27.737
G1 Y3.0686 Z-27.7916
G1 Y2.9583 Z-27.8442
G1 Y2.8472 Z-27.8948
G1 Y2.7351 Z-27.9435
G1 Y2.6222 Z-27.9903
G1 Y2.5086 Z-28.0351
G1 Y2.3941 Z-28.0778
G1 Y2.279 Z-28.1186
G1 Y2.1631 Z-28.1574
G1 Y2.0466 Z-28.1941
G1 Y1.9295 Z-28.2288
G1 Y1.8117 Z-28.2615
G1 Y1.6935 Z-28.2921
G1 Y1.5747 Z-28.3206
G1 Y1.4554 Z-28.347
G1 Y1.3357 Z-28.3714
G1 Y1.2155 Z-28.3937
G1 Y1.095 Z-28.4138
G1 Y0.9742 Z-28.4319
G1 Y0.8531 Z-28.4478
G1 Y0.7317 Z-28.4617
G1 Y0.6101 Z-28.4734
G1 Y0.4883 Z-28.4829
G1 Y0.3664 Z-28.4904
G1 Y0.2443 Z-28.4957
G1 Y0.1222 Z-28.4989
G1 Y0 Z-28.5
G1 X-2 F80 ( Plunge )
G1 F200 ( Set milling feed rate )
G1 Y0 Z-28.5
G1 Y0 Z-28.5
G1 Y-0.1222 Z-28.4989
G1 Y-0.2443 Z-28.4957
G1 Y-0.3664 Z-28.4904
G1 Y-0.4883 Z-28.4829
G1 Y-0.6101 Z-28.4734
G1 Y-0.7317 Z-28.4617
G1 Y-0.8531 Z-28.4478
G1 Y-0.9742 Z-28.4319
G1 Y-1.095 Z-28.4138
G1 Y-1.2155 Z-28.3937
G1 Y-1.3357 Z-28.3714
G1 Y-1.4554 Z-28.347
G1 Y-1.5747 Z-28.3206
G1 Y-1.6935 Z-28.2921
G1 Y-1.8117 Z-28.2615
G1 Y-1.9295 Z-28.2288
G1 Y-2.0466 Z-28.1941
G1 Y-2.1631 Z-28.1574
G1 Y-2.279 Z-28.1186
G1 Y-2.3941 Z-28.0778
G1 Y-2.5086 Z-28.0351
G1 Y-2.6222 Z-27.9903
G1 Y-2.7351 Z-27.9435
G1 Y-2.8472 Z-27.8948
G1 Y-2.9583 Z-27.8442
G1 Y-3.0686 Z-27.7916
G1 Y-3.1779 Z-27.737
G1 Y-3.2863 Z-27.6806
G1 Y-3.3937 Z-27.6223
G1 Y-3.5 Z-27.5622
G1 Y-3.6053 Z-27.5002
G1 Y-3.7094 Z-27.4363
G1 Y-3.8125 Z-27.3707
G1 Y-3.9144 Z-27.3033
G1 Y-4.015 Z-27.2341
G1 Y-4.1145 Z-27.1631
G1 Y-4.2127 Z-27.0904
G1 Y-4.3096 Z-27.0161
G1 Y-4.4052 Z-26.94
G1 Y-4.4995 Z-26.8623
G1 Y-4.5924 Z-26.783
G1 Y-4.6839 Z-26.702
G1 Y-4.774 Z-26.6195
G1 Y-4.8626 Z-26.5354
G1 Y-4.9497 Z-26.4497
G1 Y-5.0354 Z-26.3626
G1 Y-5.1195 Z-26.274
G1 Y-5.202 Z-26.1839
G1 Y-5.283 Z-26.0924
G1 Y-5.3623 Z-25.9995
G1 Y-5.44 Z-25.9052
G1 Y-5.5161 Z-25.8096
G1 Y-5.5904 Z-25.7127
G1 Y-5.6631 Z-25.6145
G1 Y-5.7341 Z-25.515
G1 Y-5.8033 Z-25.4144
G1 Y-5.8707 Z-25.3125
G1 Y-5.9363 Z-25.2094
G1 Y-6.0002 Z-25.1053
G1 Y-6.0622 Z-25
G1 Y-6.1223 Z-24.8937
G1 Y-6.1806 Z-24.7863
G1 Y-6.237 Z-24.6779
G1 Y-6.2916 Z-24.5686
G1 Y-6.3442 Z-24.4583
G1 Y-6.3948 Z-24.3472
G1 Y-6.4435 Z-24.2351
G1 Y-6.4903 Z-24.1222
G1 Y-6.5351 Z-24.0086
G1 Y-6.5778 Z-23.8941
G1 Y-6.6186 Z-23.779
G1 Y-6.6574 Z-23.6631
G1 Y-6.6941 Z-23.5466
G1 Y-6.7288 Z-23.4295
G1 Y-6.7615 Z-23.3117
G1 Y-6.7921 Z-23.1935
G1 Y-6.8206 Z-23.0747
G1 Y-6.847 Z-22.9554
G1 Y-6.8714 Z-22.8357
G1 Y-6.8937 Z-22.7155
G1 Y-6.9138 Z-22.595
G1 Y-6.9319 Z-22.4742
G1 Y-6.9478 Z-22.3531
G1 Y-6.9617 Z-22.2317
G1 Y-6.9734 Z-22.1101
G1 Y-6.9829 Z-21.9883
G1 Y-6.9904 Z-21.8664
G1 Y-6.9957 Z-21.7443
G1 Y-6.9989 Z-21.6222
G1 Y-7 Z-21.5
G1 Y-6.9989 Z-21.3778
G1 Y-6.9957 Z-21.2557
G1 Y-6.9904 Z-21.1336
G1 Y-6.9829 Z-21.0117
G1 Y-6.9734 Z-20.8899
G1 Y-6.9617 Z-20.7683
G1 Y-6.9478 Z-20.6469
G1 Y-6.9319 Z-20.5258
G1 Y-6.9138 Z-20.405
G1 Y-6.8937 Z-20.2845
G1 Y-6.8714 Z-20.1643
G1 Y-6.847 Z-20.0446
G1 Y-6.8206 Z-19.9253
G1 Y-6.7921 Z-19.8065
G1 Y-6.7615 Z-19.6883
G1 Y-6.7288 Z-19.5705
G1 Y-6.6941 Z-19.4534
G1 Y-6.6574 Z-19.3369
G1 Y-6.6186 Z-19.221
G1 Y-6.5778 Z-19.1059
G1 Y-6.5351 Z-18.9914
G1 Y-6.4903 Z-18.8778
G1 Y-6.4435 Z-18.7649
G1 Y-6.3948 Z-18.6528
G1 Y-6.3442 Z-18.5417
G1 Y-6.2916 Z-18.4314
G1 Y-6.237 Z-18.3221
G1 Y-6.1806 Z-18.2137
G1 Y-6.1223 Z-18.1063
G1 Y-6.0622 Z-18
G1 Y-6.0002 Z-17.8947
G1 Y-5.9363 Z-17.7906
G1 Y-5.8707 Z-17.6875
G1 Y-5.8033 Z-17.5856
G1 Y-5.7341 Z-17.485
G1 Y-5.6631 Z-17.3855
G1 Y-5.5904 Z-17.2873
G1 Y-5.5161 Z-17.1904
G1 Y-5.44 Z-17.0948
G1 Y-5.3623 Z-17.0005
G1 Y-5.283 Z-16.9076
G1 Y-5.202 Z-16.8161
G1 Y-5.1195 Z-16.726
G1 Y-5.0354 Z-16.6374
G1 Y-4.9497 Z-16.5503
G1 Y-4.8626 Z-16.4646
G1 Y-4.774 Z-16.3805
G1 Y-4.6839 Z-16.298
G1 Y-4.5924 Z-16.217
G1 Y-4.4995 Z-16.1377
G1 Y-4.4052 Z-16.06
G1 Y-4.3096 Z-15.9839
G1 Y-4.2127 Z-15.9096
G1 Y-4.1145 Z-15.8369
G1 Y-4.015 Z-15.7659
G1 Y-3.9144 Z-15.6967
G1 Y-3.8125 Z-15.6293
G1 Y-3.7094 Z-15.5637
G1 Y-3.6053 Z-15.4998
G1 Y-3.5 Z-15.4378
G1 Y-3.3937 Z-15.3777
G1 Y-3.2863 Z-15.3194
G1 Y-3.1779 Z-15.263
G1 Y-3.0686 Z-15.2084
G1 Y-2.9583 Z-15.1558
G1 Y-2.8472 Z-15.1052
G1 Y-2.7351 Z-15.0565
G1 Y-2.6222 Z-15.0097
G1 Y-2.5086 Z-14.9649
G1 Y-2.3941 Z-14.9222
G1 Y-2.279 Z-14.8814
G1 Y-2.1631 Z-14.8426
G1 Y-2.0466 Z-14.8059
G1 Y-1.9295 Z-14.7712
G1 Y-1.8117 Z-14.7385
G1 Y-1.6935 Z-14.7079
G1 Y-1.5747 Z-14.6794
G1 Y-1.4554 Z-14.653
G1 Y-1.3357 Z-14.6286
G1 Y-1.2155 Z-14.6063
G1 Y-1.095 Z-14.5862
G1 Y-0.9742 Z-14.5681
G1 Y-0.8531 Z-14.5522
G1 Y-0.7317 Z-14.5383
G1 Y-0.6101 Z-14.5266
G1 Y-0.4883 Z-14.5171
G1 Y-0.3664 Z-14.5096
G1 Y-0.2443 Z-14.5043
G1 Y-0.1222 Z-14.5011
G1 Y-0 Z-14.5
G1 Y0.1222 Z-14.5011
G1 Y0.2443 Z-14.5043
G1 Y0.3664 Z-14.5096
G1 Y0.4883 Z-14.5171
G1 Y0.6101 Z-14.5266
G1 Y0.7317 Z-14.5383
G1 Y0.8531 Z-14.5522
G1 Y0.9742 Z-14.5681
G1 Y1.095 Z-14.5862
G1 Y1.2155 Z-14.6063
G1 Y1.3357 Z-14.6286
G1 Y1.4554 Z-14.653
G1 Y1.5747 Z-14.6794
G1 Y1.6935 Z-14.7079
G1 Y1.8117 Z-14.7385
G1 Y1.9295 Z-14.7712
G1 Y2.0466 Z-14.8059
G1 Y2.1631 Z-14.8426
G1 Y2.279 Z-14.8814
G1 Y2.3941 Z-14.9222
G1 Y2.5086 Z-14.9649
G1 Y2.6222 Z-15.0097
G1 Y2.7351 Z-15.0565
G1 Y2.8472 Z-15.1052
G1 Y2.9583 Z-15.1558
G1 Y3.0686 Z-15.2084
G1 Y3.1779 Z-15.263
G1 Y3.2863 Z-15.3194
G1 Y3.3937 Z-15.3777
G1 Y3.5 Z-15.4378
G1 Y3.6053 Z-15.4998
G1 Y3.7094 Z-15.5637
G1 Y3.8125 Z-15.6293
G1 Y3.9144 Z-15.6967
G1 Y4.015 Z-15.7659
G1 Y4.1145 Z-15.8369
G1 Y4.2127 Z-15.9096
G1 Y4.3096 Z-15.9839
G1 Y4.4052 Z-16.06
G1 Y4.4995 Z-16.1377
G1 Y4.5924 Z-16.217
G1 Y4.6839 Z-16.298
G1 Y4.774 Z-16.3805
G1 Y4.8626 Z-16.4646
G1 Y4.9497 Z-16.5503
G1 Y5.0354 Z-16.6374
G1 Y5.1195 Z-16.726
G1 Y5.202 Z-16.8161
G1 Y5.283 Z-16.9076
G1 Y5.3623 Z-17.0005
G1 Y5.44 Z-17.0948
G1 Y5.5161 Z-17.1904
G1 Y5.5904 Z-17.2873
G1 Y5.6631 Z-17.3855
G1 Y5.7341 Z-17.485
G1 Y5.8033 Z-17.5856
G1 Y5.8707 Z-17.6875
G1 Y5.9363 Z-17.7906
G1 Y6.0002 Z-17.8947
G1 Y6.0622 Z-18
G1 Y6.1223 Z-18.1063
G1 Y6.1806 Z-18.2137
G1 Y6.237 Z-18.3221
G1 Y6.2916 Z-18.4314
G1 Y6.3442 Z-18.5417
G1 Y6.3948 Z-18.6528
G1 Y6.4435 Z-18.7649
G1 Y6.4903 Z-18.8778
G1 Y6.5351 Z-18.9914
G1 Y6.5778 Z-19.1059
G1 Y6.6186 Z-19.221
G1 Y6.6574 Z-19.3369
G1 Y6.6941 Z-19.4534
G1 Y6.7288 Z-19.5705
G1 Y6.7615 Z-19.6883
G1 Y6.7921 Z-19.8065
G1 Y6.8206 Z-19.9253
G1 Y6.847 Z-20.0446
G1 Y6.8714 Z-20.1643
G1 Y6.8937 Z-20.2845
G1 Y6.9138 Z-20.405
G1 Y6.9319 Z-20.5258
G1 Y6.9478 Z-20.6469
G1 Y6.9617 Z-20.7683
G1 Y6.9734 Z-20.8899
G1 Y6.9829 Z-21.0117
G1 Y6.9904 Z-21.1336
G1 Y6.9957 Z-21.2557
G1 Y6.9989 Z-21.3778
G1 Y7 Z-21.5
G1 Y6.9989 Z-21.6222
G1 Y6.9957 Z-21.7443
G1 Y6.9904 Z-21.8664
G1 Y6.9829 Z-21.9883
G1 Y6.9734 Z-22.1101
G1 Y6.9617 Z-22.2317
G1 Y6.9478 Z-22.3531
G1 Y6.9319 Z-22.4742
G1 Y6.9138 Z-22.595
G1 Y6.8937 Z-22.7155
G1 Y6.8714 Z-22.8357
G1 Y6.847 Z-22.9554
G1 Y6.8206 Z-23.0747
G1 Y6.7921 Z-23.1935
G1 Y6.7615 Z-23.3117
G1 Y6.7288 Z-23.4295
G1 Y6.6941 Z-23.5466
G1 Y6.6574 Z-23.6631
G1 Y6.6186 Z-23.779
G1 Y6.5778 Z-23.8941
G1 Y6.5351 Z-24.0086
G1 Y6.4903 Z-24.1222
G1 Y6.4435 Z-24.2351
G1 Y6.3948 Z-24.3472
G1 Y6.3442 Z-24.4583
G1 Y6.2916 Z-24.5686
G1 Y6.237 Z-24.6779
G1 Y6.1806 Z-24.7863
G1 Y6.1223 Z-24.8937
G1 Y6.0622 Z-25
G1 Y6.0002 Z-25.1053
G1 Y5.9363 Z-25.2094
G1 Y5.8707 Z-25.3125
G1 Y5.8033 Z-25.4144
G1 Y5.7341 Z-25.515
G1 Y5.6631 Z-25.6145
G1 Y5.5904 Z-25.7127
G1 Y5.5161 Z-25.8096
G1 Y5.44 Z-25.9052
G1 Y5.3623 Z-25.9995
G1 Y5.283 Z-26.0924
G1 Y5.202 Z-26.1839
G1 Y5.1195 Z-26.274
G1 Y5.0354 Z-26.3626
G1 Y4.9497 Z-26.4497
G1 Y4.8626 Z-26.5354
G1 Y4.774 Z-26.6195
G1 Y4.6839 Z-26.702
G1 Y4.5924 Z-26.783
G1 Y4.4995 Z-26.8623
G1 Y4.4052 Z-26.94
G1 Y4.3096 Z-27.0161
G1 Y4.2127 Z-27.0904
G1 Y4.1145 Z-27.1631
G1 Y4.015 Z-27.2341
G1 Y3.9144 Z-27.3033
G1 Y3.8125 Z-27.3707
G1 Y3.7094 Z-27.4363
G1 Y3.6053 Z-27.5002
G1 Y3.5 Z-27.5622
G1 Y3.3937 Z-27.6223
G1 Y3.2863 Z-27.6806
G1 Y3.1779 Z-27.737
G1 Y3.0686 Z-27.7916
G1 Y2.9583 Z-27.8442
G1 Y2.8472 Z-27.8948
G1 Y2.7351 Z-27.9435
G1 Y2.6222 Z-27.9903
G1 Y2.5086 Z-28.0351
G1 Y2.3941 Z-28.0778
G1 Y2.279 Z-28.1186
G1 Y2.1631 Z-28.1574
G1 Y2.0466 Z-28.1941
G1 Y1.9295 Z-28.2288
G1 Y1.8117 Z-28.2615
G1 Y1.6935 Z-28.2921
G1 Y1.5747 Z-28.3206
G1 Y1.4554 Z-28.347
G1 Y1.3357 Z-28.3714
G1 Y1.2155 Z-28.3937
G1 Y1.095 Z-28.4138
G1 Y0.9742 Z-28.4319
G1 Y0.8531 Z-28.4478
G1 Y0.7317 Z-28.4617
G1 Y0.6101 Z-28.4734
G1 Y0.4883 Z-28.4829
G1 Y0.3664 Z-28.4904
G1 Y0.2443 Z-28.4957
G1 Y0.1222 Z-28.4989
G1 Y0 Z-28.5
G1 X-3 F80 ( Plunge )
G1 F200 ( Set milling feed rate )
G1 Y0 Z-28.5
G1 Y0 Z-28.5
G1 Y-0.1222 Z-28.4989
G1 Y-0.2443 Z-28.4957
G1 Y-0.3664 Z-28.4904
G1 Y-0.4883 Z-28.4829
G1 Y-0.6101 Z-28.4734
G1 Y-0.7317 Z-28.4617
G1 Y-0.8531 Z-28.4478
G1 Y-0.9742 Z-28.4319
G1 Y-1.095 Z-28.4138
G1 Y-1.2155 Z-28.3937
G1 Y-1.3357 Z-28.3714
G1 Y-1.4554 Z-28.347
G1 Y-1.5747 Z-28.3206
G1 Y-1.6935 Z-28.2921
G1 Y-1.8117 Z-28.2615
G1 Y-1.9295 Z-28.2288
G1 Y-2.0466 Z-28.1941
G1 Y-2.1631 Z-28.1574
G1 Y-2.279 Z-28.1186
G1 Y-2.3941 Z-28.0778
G1 Y-2.5086 Z-28.0351
G1 Y-2.6222 Z-27.9903
G1 Y-2.7351 Z-27.9435
G1 Y-2.8472 Z-27.8948
G1 Y-2.9583 Z-27.8442
G1 Y-3.0686 Z-27.7916
G1 Y-3.1779 Z-27.737
G1 Y-3.2863 Z-27.6806
G1 Y-3.3937 Z-27.6223
G1 Y-3.5 Z-27.5622
G1 Y-3.6053 Z-27.5002
G1 Y-3.7094 Z-27.4363
G1 Y-3.8125 Z-27.3707
G1 Y-3.9144 Z-27.3033
G1 Y-4.015 Z-27.2341
G1 Y-4.1145 Z-27.1631
G1 Y-4.2127 Z-27.0904
G1 Y-4.3096 Z-27.0161
G1 Y-4.4052 Z-26.94
G1 Y-4.4995 Z-26.8623
G1 Y-4.5924 Z-26.783
G1 Y-4.6839 Z-26.702
G1 Y-4.774 Z-26.6195
G1 Y-4.8626 Z-26.5354
G1 Y-4.9497 Z-26.4497
G1 Y-5.0354 Z-26.3626
G1 Y-5.1195 Z-26.274
G1 Y-5.202 Z-26.1839
G1 Y-5.283 Z-26.0924
G1 Y-5.3623 Z-25.9995
G1 Y-5.44 Z-25.9052
G1 Y-5.5161 Z-25.8096
G1 Y-5.5904 Z-25.7127
G1 Y-5.6631 Z-25.6145
G1 Y-5.7341 Z-25.515
G1 Y-5.8033 Z-25.4144
G1 Y-5.8707 Z-25.3125
G1 Y-5.9363 Z-25.2094
G1 Y-6.0002 Z-25.1053
G1 Y-6.0622 Z-25
G1 Y-6.1223 Z-24.8937
G1 Y-6.1806 Z-24.7863
G1 Y-6.237 Z-24.6779
G1 Y-6.2916 Z-24.5686
G1 Y-6.3442 Z-24.4583
G1 Y-6.3948 Z-24.3472
G1 Y-6.4435 Z-24.2351
G1 Y-6.4903 Z-24.1222
G1 Y-6.5351 Z-24.0086
G1 Y-6.5778 Z-23.8941
G1 Y-6.6186 Z-23.779
G1 Y-6.6574 Z-23.6631
G1 Y-6.6941 Z-23.5466
G1 Y-6.7288 Z-23.4295
G1 Y-6.7615 Z-23.3117
G1 Y-6.7921 Z-23.1935
G1 Y-6.8206 Z-23.0747
G1 Y-6.847 Z-22.9554
G1 Y-6.8714 Z-22.8357
G1 Y-6.8937 Z-22.7155
G1 Y-6.9138 Z-22.595
G1 Y-6.9319 Z-22.4742
G1 Y-6.9478 Z-22.3531
G1 Y-6.9617 Z-22.2317
G1 Y-6.9734 Z-22.1101
G1 Y-6.9829 Z-21.9883
G1 Y-6.9904 Z-21.8664
G1 Y-6.9957 Z-21.7443
G1 Y-6.9989 Z-21.6222
G1 Y-7 Z-21.5
G1 Y-6.9989 Z-21.3778
G1 Y-6.9957 Z-21.2557
G1 Y-6.9904 Z-21.1336
G1 Y-6.9829 Z-21.0117
G1 Y-6.9734 Z-20.8899
G1 Y-6.9617 Z-20.7683
G1 Y-6.9478 Z-20.6469
G1 Y-6.9319 Z-20.5258
G1 Y-6.9138 Z-20.405
G1 Y-6.8937 Z-20.2845
G1 Y-6.8714 Z-20.1643
G1 Y-6.847 Z-20.0446
G1 Y-6.8206 Z-19.9253
G1 Y-6.7921 Z-19.8065
G1 Y-6.7615 Z-19.6883
G1 Y-6.7288 Z-19.5705
G1 Y-6.6941 Z-19.4534
G1 Y-6.6574 Z-19.3369
G1 Y-6.6186 Z-19.221
G1 Y-6.5778 Z-19.1059
G1 Y-6.5351 Z-18.9914
G1 Y-6.4903 Z-18.8778
G1 Y-6.4435 Z-18.7649
G1 Y-6.3948 Z-18.6528
G1 Y-6.3442 Z-18.5417
G1 Y-6.2916 Z-18.4314
G1 Y-6.237 Z-18.3221
G1 Y-6.1806 Z-18.2137
G1 Y-6.1223 Z-18.1063
G1 Y-6.0622 Z-18
G1 Y-6.0002 Z-17.8947
G1 Y-5.9363 Z-17.7906
G1 Y-5.8707 Z-17.6875
G1 Y-5.8033 Z-17.5856
G1 Y-5.7341 Z-17.485
G1 Y-5.6631 Z-17.3855
G1 Y-5.5904 Z-17.2873
G1 Y-5.5161 Z-17.1904
G1 Y-5.44 Z-17.0948
G1 Y-5.3623 Z-17.0005
G1 Y-5.283 Z-16.9076
G1 Y-5.202 Z-16.8161
G1 Y-5.1195 Z-16.726
G1 Y-5.0354 Z-16.6374
G1 Y-4.9497 Z-16.5503
G1 Y-4.8626 Z-16.4646
G1 Y-4.774 Z-16.3805
G1 Y-4.6839 Z-16.298
G1 Y-4.5924 Z-16.217
G1 Y-4.4995 Z-16.1377
G1 Y-4.4052 Z-16.06
G1 Y-4.3096 Z-15.9839
G1 Y-4.2127 Z-15.9096
G1 Y-4.1145 Z-15.8369
G1 Y-4.015 Z-15.7659
G1 Y-3.9144 Z-15.6967
G1 Y-3.8125 Z-15.6293
G1 Y-3.7094 Z-15.5637
G1 Y-3.6053 Z-15.4998
G1 Y-3.5 Z-15.4378
G1 Y-3.3937 Z-15.3777
G1 Y-3.2863 Z-15.3194
G1 Y-3.1779 Z-15.263
G1 Y-3.0686 Z-15.2084
G1 Y-2.9583 Z-15.1558
G1 Y-2.8472 Z-15.1052
G1 Y-2.7351 Z-15.0565
G1 Y-2.6222 Z-15.0097
G1 Y-2.5086 Z-14.9649
G1 Y-2.3941 Z-14.9222
G1 Y-2.279 Z-14.8814
G1 Y-2.1631 Z-14.8426
G1 Y-2.0466 Z-14.8059
G1 Y-1.9295 Z-14.7712
G1 Y-1.8117 Z-14.7385
G1 Y-1.6935 Z-14.7079
G1 Y-1.5747 Z-14.6794
G1 Y-1.4554 Z-14.653
G1 Y-1.3357 Z-14.6286
G1 Y-1.2155 Z-14.6063
G1 Y-1.095 Z-14.5862
G1 Y-0.9742 Z-14.5681
G1 Y-0.8531 Z-14.5522
G1 Y-0.7317 Z-14.5383
G1 Y-0.6101 Z-14.5266
G1 Y-0.4883 Z-14.5171
G1 Y-0.3664 Z-14.5096
G1 Y-0.2443 Z-14.5043
G1 Y-0.1222 Z-14.5011
G1 Y-0 Z-14.5
G1 Y0.1222 Z-14.5011
G1 Y0.2443 Z-14.5043
G1 Y0.3664 Z-14.5096
G1 Y0.4883 Z-14.5171
G1 Y0.6101 Z-14.5266
G1 Y0.7317 Z-14.5383
G1 Y0.8531 Z-14.5522
G1 Y0.9742 Z-14.5681
G1 Y1.095 Z-14.5862
G1 Y1.2155 Z-14.6063
G1 Y1.3357 Z-14.6286
G1 Y1.4554 Z-14.653
G1 Y1.5747 Z-14.6794
G1 Y1.6935 Z-14.7079
G1 Y1.8117 Z-14.7385
G1 Y1.9295 Z-14.7712
G1 Y2.0466 Z-14.8059
G1 Y2.1631 Z-14.8426
G1 Y2.279 Z-14.8814
G1 Y2.3941 Z-14.9222
G1 Y2.5086 Z-14.9649
G1 Y2.6222 Z-15.0097
G1 Y2.7351 Z-15.0565
G1 Y2.8472 Z-15.1052
G1 Y2.9583 Z-15.1558
G1 Y3.0686 Z-15.2084
G1 Y3.1779 Z-15.263
G1 Y3.2863 Z-15.3194
G1 Y3.3937 Z-15.3777
G1 Y3.5 Z-15.4378
G1 Y3.6053 Z-15.4998
G1 Y3.7094 Z-15.5637
G1 Y3.8125 Z-15.6293
G1 Y3.9144 Z-15.6967
G1 Y4.015 Z-15.7659
G1 Y4.1145 Z-15.8369
G1 Y4.2127 Z-15.9096
G1 Y4.3096 Z-15.9839
G1 Y4.4052 Z-16.06
G1 Y4.4995 Z-16.1377
G1 Y4.5924 Z-16.217
G1 Y4.6839 Z-16.298
G1 Y4.774 Z-16.3805
G1 Y4.8626 Z-16.4646
G1 Y4.9497 Z-16.5503
G1 Y5.0354 Z-16.6374
G1 Y5.1195 Z-16.726
G1 Y5.202 Z-16.8161
G1 Y5.283 Z-16.9076
G1 Y5.3623 Z-17.0005
G1 Y5.44 Z-17.0948
G1 Y5.5161 Z-17.1904
G1 Y5.5904 Z-17.2873
G1 Y5.6631 Z-17.3855
G1 Y5.7341 Z-17.485
G1 Y5.8033 Z-17.5856
G1 Y5.8707 Z-17.6875
G1 Y5.9363 Z-17.7906
G1 Y6.0002 Z-17.8947
G1 Y6.0622 Z-18
G1 Y6.1223 Z-18.1063
G1 Y6.1806 Z-18.2137
G1 Y6.237 Z-18.3221
G1 Y6.2916 Z-18.4314
G1 Y6.3442 Z-18.5417
G1 Y6.3948 Z-18.6528
G1 Y6.4435 Z-18.7649
G1 Y6.4903 Z-18.8778
G1 Y6.5351 Z-18.9914
G1 Y6.5778 Z-19.1059
G1 Y6.6186 Z-19.221
G1 Y6.6574 Z-19.3369
G1 Y6.6941 Z-19.4534
G1 Y6.7288 Z-19.5705
G1 Y6.7615 Z-19.6883
G1 Y6.7921 Z-19.8065
G1 Y6.8206 Z-19.9253
G1 Y6.847 Z-20.0446
G1 Y6.8714 Z-20.1643
G1 Y6.8937 Z-20.2845
G1 Y6.9138 Z-20.405
G1 Y6.9319 Z-20.5258
G1 Y6.9478 Z-20.6469
G1 Y6.9617 Z-20.7683
G1 Y6.9734 Z-20.8899
G1 Y6.9829 Z-21.0117
G1 Y6.9904 Z-21.1336
G1 Y6.9957 Z-21.2557
G1 Y6.9989 Z-21.3778
G1 Y7 Z-21.5
G1 Y6.9989 Z-21.6222
G1 Y6.9957 Z-21.7443
G1 Y6.9904 Z-21.8664
G1 Y6.9829 Z-21.9883
G1 Y6.9734 Z-22.1101
G1 Y6.9617 Z-22.2317
G1 Y6.9478 Z-22.3531
G1 Y6.9319 Z-22.4742
G1 Y6.9138 Z-22.595
G1 Y6.8937 Z-22.7155
G1 Y6.8714 Z-22.8357
G1 Y6.847 Z-22.9554
G1 Y6.8206 Z-23.0747
G1 Y6.7921 Z-23.1935
G1 Y6.7615 Z-23.3117
G1 Y6.7288 Z-23.4295
G1 Y6.6941 Z-23.5466
G1 Y6.6574 Z-23.6631
G1 Y6.6186 Z-23.779
G1 Y6.5778 Z-23.8941
G1 Y6.5351 Z-24.0086
G1 Y6.4903 Z-24.1222
G1 Y6.4435 Z-24.2351
G1 Y6.3948 Z-24.3472
G1 Y6.3442 Z-24.4583
G1 Y6.2916 Z-24.5686
G1 Y6.237 Z-24.6779
G1 Y6.1806 Z-24.7863
G1 Y6.1223 Z-24.8937
G1 Y6.0622 Z-25
G1 Y6.0002 Z-25.1053
G1 Y5.9363 Z-25.2094
G1 Y5.8707 Z-25.3125
G1 Y5.8033 Z-25.4144
G1 Y5.7341 Z-25.515
G1 Y5.6631 Z-25.6145
G1 Y5.5904 Z-25.7127
G1 Y5.5161 Z-25.8096
G1 Y5.44 Z-25.9052
G1 Y5.3623 Z-25.9995
G1 Y5.283 Z-26.0924
G1 Y5.202 Z-26.1839
G1 Y5.1195 Z-26.274
G1 Y5.0354 Z-26.3626
G1 Y4.9497 Z-26.4497
G1 Y4.8626 Z-26.5354
G1 Y4.774 Z-26.6195
G1 Y4.6839 Z-26.702
G1 Y4.5924 Z-26.783
G1 Y4.4995 Z-26.8623
G1 Y4.4052 Z-26.94
G1 Y4.3096 Z-27.0161
G1 Y4.2127 Z-27.0904
G1 Y4.1145 Z-27.1631
G1 Y4.015 Z-27.2341
G1 Y3.9144 Z-27.3033
G1 Y3.8125 Z-27.3707
G1 Y3.7094 Z-27.4363
G1 Y3.6053 Z-27.5002
G1 Y3.5 Z-27.5622
G1 Y3.3937 Z-27.6223
G1 Y3.2863 Z-27.6806
G1 Y3.1779 Z-27.737
G1 Y3.0686 Z-27.7916
G1 Y2.9583 Z-27.8442
G1 Y2.8472 Z-27.8948
G1 Y2.7351 Z-27.9435
G1 Y2.6222 Z-27.9903
G1 Y2.5086 Z-28.0351
G1 Y2.3941 Z-28.0778
G1 Y2.279 Z-28.1186
G1 Y2.1631 Z-28.1574
G1 Y2.0466 Z-28.1941
G1 Y1.9295 Z-28.2288
G1 Y1.8117 Z-28.2615
G1 Y1.6935 Z-28.2921
G1 Y1.5747 Z-28.3206
G1 Y1.4554 Z-28.347
G1 Y1.3357 Z-28.3714
G1 Y1.2155 Z-28.3937
G1 Y1.095 Z-28.4138
G1 Y0.9742 Z-28.4319
G1 Y0.8531 Z-28.4478
G1 Y0.7317 Z-28.4617
G1 Y0.6101 Z-28.4734
G1 Y0.4883 Z-28.4829
G1 Y0.3664 Z-28.4904
G1 Y0.2443 Z-28.4957
G1 Y0.1222 Z-28.4989
G1 Y0 Z-28.5
G0 X3 ( Retract )
G0 Y20.32 Z-28.5
G1 X-1 F80 ( Plunge )
G1 F200 ( Set milling feed rate )
G1 Y20.32 Z-28.5
G1 Y20.32 Z-28.5
G1 Y20.1978 Z-28.4989
G1 Y20.0757 Z-28.4957
G1 Y19.9536 Z-28.4904
G1 Y19.8317 Z-28.4829
G1 Y19.7099 Z-28.4734
G1 Y19.5883 Z-28.4617
G1 Y19.4669 Z-28.4478
G1 Y19.3458 Z-28.4319
G1 Y19.225 Z-28.4138
G1 Y19.1045 Z-28.3937
G1 Y18.9843 Z-28.3714
G1 Y18.8646 Z-28.347
G1 Y18.7453 Z-28.3206
G1 Y18.6265 Z-28.2921
G1 Y18.5083 Z-28.2615
G1 Y18.3905 Z-28.2288
G1 Y18.2734 Z-28.1941
G1 Y18.1569 Z-28.1574
G1 Y18.041 Z-28.1186
G1 Y17.9259 Z-28.0778
G1 Y17.8114 Z-28.0351
G1 Y17.6978 Z-27.9903
G1 Y17.5849 Z-27.9435
G1 Y17.4728 Z-27.8948
G1 Y17.3617 Z-27.8442
G1 Y17.2514 Z-27.7916
G1 Y17.1421 Z-27.737
G1 Y17.0337 Z-27.6806
G1 Y16.9263 Z-27.6223
G1 Y16.82 Z-27.5622
G1 Y16.7147 Z-27.5002
G1 Y16.6106 Z-27.4363
G1 Y16.5075 Z-27.3707
G1 Y16.4056 Z-27.3033
G1 Y16.305 Z-27.2341
G1 Y16.2055 Z-27.1631
G1 Y16.1073 Z-27.0904
G1 Y16.0104 Z-27.0161
G1 Y15.9148 Z-26.94
G1 Y15.8205 Z-26.8623
G1 Y15.7276 Z-26.783
G1 Y15.6361 Z-26.702
G1 Y15.546 Z-26.6195
G1 Y15.4574 Z-26.5354
G1 Y15.3703 Z-26.4497
G1 Y15.2846 Z-26.3626
G1 Y15.2005 Z-26.274
G1 Y15.118 Z-26.1839
G1 Y15.037 Z-26.0924
G1 Y14.9577 Z-25.9995
G1 Y14.88 Z-25.9052
G1 Y14.8039 Z-25.8096
G1 Y14.7296 Z-25.7127
G1 Y14.6569 Z-25.6145
G1 Y14.5859 Z-25.515
G1 Y14.5167 Z-25.4144
G1 Y14.4493 Z-25.3125
G1 Y14.3837 Z-25.2094
G1 Y14.3198 Z-25.1053
G1 Y14.2578 Z-25
G1 Y14.1977 Z-24.8937
G1 Y14.1394 Z-24.7863
G1 Y14.083 Z-24.6779
G1 Y14.0284 Z-24.5686
G1 Y13.9758 Z-24.4583
G1 Y13.9252 Z-24.3472
G1 Y13.8765 Z-24.2351
G1 Y13.8297 Z-24.1222
G1 Y13.7849 Z-24.0086
G1 Y13.7422 Z-23.8941
G1 Y13.7014 Z-23.779
G1 Y13.6626 Z-23.6631
G1 Y13.6259 Z-23.5466
G1 Y13.5912 Z-23.4295
G1 Y13.5585 Z-23.3117
G1 Y13.5279 Z-23.1935
G1 Y13.4994 Z-23.0747
G1 Y13.473 Z-22.9554
G1 Y13.4486 Z-22.8357
G1 Y13.4263 Z-22.7155
G1 Y13.4062 Z-22.595
G1 Y13.3881 Z-22.4742
G1 Y13.3722 Z-22.3531
G1 Y13.3583 Z-22.2317
G1 Y13.3466 Z-22.1101
G1 Y13.3371 Z-21.9883
G1 Y13.3296 Z-21.8664
G1 Y13.3243 Z-21.7443
G1 Y13.3211 Z-21.6222
G1 Y13.32 Z-21.5
G1 Y13.3211 Z-21.3778
G1 Y13.3243 Z-21.2557
G1 Y13.3296 Z-21.1336
G1 Y13.3371 Z-21.0117
G1 Y13.3466 Z-20.8899
G1 Y13.3583 Z-20.7683
G1 Y13.3722 Z-20.6469
G1 Y13.3881 Z-20.5258
G1 Y13.4062 Z-20.405
G1 Y13.4263 Z-20.2845
G1 Y13.4486 Z-20.1643
G1 Y13.473 Z-20.0446
G1 Y13.4994 Z-19.9253
G1 Y13.5279 Z-19.8065
G1 Y13.5585 Z-19.6883
G1 Y13.5912 Z-19.5705
G1 Y13.6259 Z-19.4534
G1 Y13.6626 Z-19.3369
G1 Y13.7014 Z-19.221
G1 Y13.7422 Z-19.1059
G1 Y13.7849 Z-18.9914
G1 Y13.8297 Z-18.8778
G1 Y13.8765 Z-18.7649
G1 Y13.9252 Z-18.6528
G1 Y13.9758 Z-18.5417
G1 Y14.0284 Z-18.4314
G1 Y14.083 Z-18.3221
G1 Y14.1394 Z-18.2137
G1 Y14.1977 Z-18.1063
G1 Y14.2578 Z-18
G1 Y14.3198 Z-17.8947
G1 Y14.3837 Z-17.7906
G1 Y14.4493 Z-17.6875
G1 Y14.5167 Z-17.5856
G1 Y14.5859 Z-17.485
G1 Y14.6569 Z-17.3855
G1 Y14.7296 Z-17.2873
G1 Y14.8039 Z-17.1904
G1 Y14.88 Z-17.0948
G1 Y14.9577 Z-17.0005
G1 Y15.037 Z-16.9076
G1 Y15.118 Z-16.8161
G1 Y15.2005 Z-16.726
G1 Y15.2846 Z-16.6374
G1 Y15.3703 Z-16.5503
G1 Y15.4574 Z-16.4646
G1 Y15.546 Z-16.3805
G1 Y15.6361 Z-16.298
G1 Y15.7276 Z-16.217
G1 Y15.8205 Z-16.1377
G1 Y15.9148 Z-16.06
G1 Y16.0104 Z-15.9839
G1 Y16.1073 Z-15.9096
G1 Y16.2055 Z-15.8369
G1 Y16.305 Z-15.7659
G1 Y16.4056 Z-15.6967
G1 Y16.5075 Z-15.6293
G1 Y16.6106 Z-15.5637
G1 Y16.7147 Z-15.4998
G1 Y16.82 Z-15.4378
G1 Y16.9263 Z-15.3777
G1 Y17.0337 Z-15.3194
G1 Y17.1421 Z-15.263
G1 Y17.2514 Z-15.2084
G1 Y17.3617 Z-15.1558
G1 Y17.4728 Z-15.1052
G1 Y17.5849 Z-15.0565
G1 Y17.6978 Z-15.0097
G1 Y17.8114 Z-14.9649
G1 Y17.9259 Z-14.9222
G1 Y18.041 Z-14.8814
G1 Y18.1569 Z-14.8426
G1 Y18.2734 Z-14.8059
G1 Y18.3905 Z-14.7712
G1 Y18.5083 Z-14.7385
G1 Y18.6265 Z-14.7079
G1 Y18.7453 Z-14.6794
G1 Y18.8646 Z-14.653
G1 Y18.9843 Z-14.6286
G1 Y19.1045 Z-14.6063
G1 Y19.225 Z-14.5862
G1 Y19.3458 Z-14.5681
G1 Y19.4669 Z-14.5522
G1 Y19.5883 Z-14.5383
G1 Y19.7099 Z-14.5266
G1 Y19.8317 Z-14.5171
G1 Y19.9536 Z-14.5096
G1 Y20.0757 Z-14.5043
G1 Y20.1978 Z-14.5011
G1 Y20.32 Z-14.5
G1 Y20.4422 Z-14.5011
G1 Y20.5643 Z-14.5043
G1 Y20.6864 Z-14.5096
G1 Y20.8083 Z-14.5171
G1 Y20.9301 Z-14.5266
G1 Y21.0517 Z-14.5383
G1 Y21.1731 Z-14.5522
G1 Y21.2942 Z-14.5681
G1 Y21.415 Z-14.5862
G1 Y21.5355 Z-14.6063
G1 Y21.6557 Z-14.6286
G1 Y21.7754 Z-14.653
G1 Y21.8947 Z-14.6794
G1 Y22.0135 Z-14.7079
G1 Y22.1317 Z-14.7385
G1 Y22.2495 Z-14.7712
G1 Y22.3666 Z-14.8059
G1 Y22.4831 Z-14.8426
G1 Y22.599 Z-14.8814
G1 Y22.7141 Z-14.9222
G1 Y22.8286 Z-14.9649
G1 Y22.9422 Z-15.0097
G1 Y23.0551 Z-15.0565
G1 Y23.1672 Z-15.1052
G1 Y23.2783 Z-15.1558
G1 Y23.3886 Z-15.2084
G1 Y23.4979 Z-15.263
G1 Y23.6063 Z-15.3194
G1 Y23.7137 Z-15.3777
G1 Y23.82 Z-15.4378
G1 Y23.9253 Z-15.4998
G1 Y24.0294 Z-15.5637
G1 Y24.1325 Z-15.6293
G1 Y24.2344 Z-15.6967
G1 Y24.335 Z-15.7659
G1 Y24.4345 Z-15.8369
G1 Y24.5327 Z-15.9096
G1 Y24.6296 Z-15.9839
G1 Y24.7252 Z-16.06
G1 Y24.8195 Z-16.1377
G1 Y24.9124 Z-16.217
G1 Y25.0039 Z-16.298
G1 Y25.094 Z-16.3805
G1 Y25.1826 Z-16.4646
G1 Y25.2697 Z-16.5503
G1 Y25.3554 Z-16.6374
G1 Y25.4395 Z-16.726
G1 Y25.522 Z-16.8161
G1 Y25.603 Z-16.9076
G1 Y25.6823 Z-17.0005
G1 Y25.76 Z-17.0948
G1 Y25.8361 Z-17.1904
G1 Y25.9104 Z-17.2873
G1 Y25.9831 Z-17.3855
G1 Y26.0541 Z-17.485
G1 Y26.1233 Z-17.5856
G1 Y26.1907 Z-17.6875
G1 Y26.2563 Z-17.7906
G1 Y26.3202 Z-17.8947
G1 Y26.3822 Z-18
G1 Y26.4423 Z-18.1063
G1 Y26.5006 Z-18.2137
G1 Y26.557 Z-18.3221
G1 Y26.6116 Z-18.4314
G1 Y26.6642 Z-18.5417
G1 Y26.7148 Z-18.6528
G1 Y26.7635 Z-18.7649
G1 Y26.8103 Z-18.8778
G1 Y26.8551 Z-18.9914
G1 Y26.8978 Z-19.1059
G1 Y26.9386 Z-19.221
G1 Y26.9774 Z-19.3369
G1 Y27.0141 Z-19.4534
G1 Y27.0488 Z-19.5705
G1 Y27.0815 Z-19.6883
G1 Y27.1121 Z-19.8065
G1 Y27.1406 Z-19.9253
G1 Y27.167 Z-20.0446
G1 Y27.1914 Z-20.1643
G1 Y27.2137 Z-20.2845
G1 Y27.2338 Z-20.405
G1 Y27.2519 Z-20.5258
G1 Y27.2678 Z-20.6469
G1 Y27.2817 Z-20.7683
G1 Y27.2934 Z-20.8899
G1 Y27.3029 Z-21.0117
G1 Y27.3104 Z-21.1336
G1 Y27.3157 Z-21.2557
G1 Y27.3189 Z-21.3778
G1 Y27.32 Z-21.5
G1 Y27.3189 Z-21.6222
G1 Y27.3157 Z-21.7443
G1 Y27.3104 Z-21.8664
G1 Y27.3029 Z-21.9883
G1 Y27.2934 Z-22.1101
G1 Y27.2817 Z-22.2317
G1 Y27.2678 Z-22.3531
G1 Y27.2519 Z-22.4742
G1 Y27.2338 Z-22.595
G1 Y27.2137 Z-22.7155
G1 Y27.1914 Z-22.8357
G1 Y27.167 Z-22.9554
G1 Y27.1406 Z-23.0747
G1 Y27.1121 Z-23.1935
G1 Y27.0815 Z-23.3117
G1 Y27.0488 Z-23.4295
G1 Y27.0141 Z-23.5466
G1 Y26.9774 Z-23.6631
G1 Y26.9386 Z-23.779
G1 Y26.8978 Z-23.8941
G1 Y26.8551 Z-24.0086
G1 Y26.8103 Z-24.1222
G1 Y26.7635 Z-24.2351
G1 Y26.7148 Z-24.3472
G1 Y26.6642 Z-24.4583
G1 Y26.6116 Z-24.5686
G1 Y26.557 Z-24.6779
G1 Y26.5006 Z-24.7863
G1 Y26.4423 Z-24.8937
G1 Y26.3822 Z-25
G1 Y26.3202 Z-25.1053
G1 Y26.2563 Z-25.2094
G1 Y26.1907 Z-25.3125
G1 Y26.1233 Z-25.4144
G1 Y26.0541 Z-25.515
G1 Y25.9831 Z-25.6145
G1 Y25.9104 Z-25.7127
G1 Y25.8361 Z-25.8096
G1 Y25.76 Z-25.9052
G1 Y25.6823 Z-25.9995
G1 Y25.603 Z-26.0924
G1 Y25.522 Z-26.1839
G1 Y25.4395 Z-26.274
G1 Y25.3554 Z-26.3626
G1 Y25.2697 Z-26.4497
G1 Y25.1826 Z-26.5354
G1 Y25.094 Z-26.6195
G1 Y25.0039 Z-26.702
G1 Y24.9124 Z-26.783
G1 Y24.8195 Z-26.8623
G1 Y24.7252 Z-26.94
G1 Y24.6296 Z-27.0161
G1 Y24.5327 Z-27.0904
G1 Y24.4345 Z-27.1631
G1 Y24.335 Z-27.2341
G1 Y24.2344 Z-27.3033
G1 Y24.1325 Z-27.3707
G1 Y24.0294 Z-27.4363
G1 Y23.9253 Z-27.5002
G1 Y23.82 Z-27.5622
G1 Y23.7137 Z-27.6223
G1 Y23.6063 Z-27.6806
G1 Y23.4979 Z-27.737
G1 Y23.3886 Z-27.7916
G1 Y23.2783 Z-27.8442
G1 Y23.1672 Z-27.8948
G1 Y23.0551 Z-27.9435
G1 Y22.9422 Z-27.9903
G1 Y22.8286 Z-28.0351
G1 Y22.7141 Z-28.0778
G1 Y22.599 Z-28.1186
G1 Y22.4831 Z-28.1574
G1 Y22.3666 Z-28.1941
G1 Y22.2495 Z-28.2288
G1 Y22.1317 Z-28.2615
G1 Y22.0135 Z-28.2921
G1 Y21.8947 Z-28.3206
G1 Y21.7754 Z-28.347
G1 Y21.6557 Z-28.3714
G1 Y21.5355 Z-28.3937
G1 Y21.415 Z-28.4138
G1 Y21.2942 Z-28.4319
G1 Y21.1731 Z-28.4478
G1 Y21.0517 Z-28.4617
G1 Y20.9301 Z-28.4734
G1 Y20.8083 Z-28.4829
G1 Y20.6864 Z-28.4904
G1 Y20.5643 Z-28.4957
G1 Y20.4422 Z-28.4989
G1 Y20.32 Z-28.5
G1 X-2 F80 ( Plunge )
G1 F200 ( Set milling feed rate )
G1 Y20.32 Z-28.5
G1 Y20.32 Z-28.5
G1 Y20.1978 Z-28.4989
G1 Y20.0757 Z-28.4957
G1 Y19.9536 Z-28.4904
G1 Y19.8317 Z-28.4829
G1 Y19.7099 Z-28.4734
G1 Y19.5883 Z-28.4617
G1 Y19.4669 Z-28.4478
G1 Y19.3458 Z-28.4319
G1 Y19.225 Z-28.4138
G1 Y19.1045 Z-28.3937
G1 Y18.9843 Z-28.3714
G1 Y18.8646 Z-28.347
G1 Y18.7453 Z-28.3206
G1 Y18.6265 Z-28.2921
G1 Y18.5083 Z-28.2615
G1 Y18.3905 Z-28.2288
G1 Y18.2734 Z-28.1941
G1 Y18.1569 Z-28.1574
G1 Y18.041 Z-28.1186
G1 Y17.9259 Z-28.0778
G1 Y17.8114 Z-28.0351
G1 Y17.6978 Z-27.9903
G1 Y17.5849 Z-27.9435
G1 Y17.4728 Z-27.8948
G1 Y17.3617 Z-27.8442
G1 Y17.2514 Z-27.7916
G1 Y17.1421 Z-27.737
G1 Y17.0337 Z-27.6806
G1 Y16.9263 Z-27.6223
G1 Y16.82 Z-27.5622
G1 Y16.7147 Z-27.5002
G1 Y16.6106 Z-27.4363
G1 Y16.5075 Z-27.3707
G1 Y16.4056 Z-27.3033
G1 Y16.305 Z-27.2341
G1 Y16.2055 Z-27.1631
G1 Y16.1073 Z-27.0904
G1 Y16.0104 Z-27.0161
G1 Y15.9148 Z-26.94
G1 Y15.8205 Z-26.8623
G1 Y15.7276 Z-26.783
G1 Y15.6361 Z-26.702
G1 Y15.546 Z-26.6195
G1 Y15.4574 Z-26.5354
G1 Y15.3703 Z-26.4497
G1 Y15.2846 Z-26.3626
G1 Y15.2005 Z-26.274
G1 Y15.118 Z-26.1839
G1 Y15.037 Z-26.0924
G1 Y14.9577 Z-25.9995
G1 Y14.88 Z-25.9052
G1 Y14.8039 Z-25.8096
G1 Y14.7296 Z-25.7127
G1 Y14.6569 Z-25.6145
G1 Y14.5859 Z-25.515
G1 Y14.5167 Z-25.4144
G1 Y14.4493 Z-25.3125
G1 Y14.3837 Z-25.2094
G1 Y14.3198 Z-25.1053
G1 Y14.2578 Z-25
G1 Y14.1977 Z-24.8937
G1 Y14.1394 Z-24.7863
G1 Y14.083 Z-24.6779
G1 Y14.0284 Z-24.5686
G1 Y13.9758 Z-24.4583
G1 Y13.9252 Z-24.3472
G1 Y13.8765 Z-24.2351
G1 Y13.8297 Z-24.1222
G1 Y13.7849 Z-24.0086
G1 Y13.7422 Z-23.8941
G1 Y13.7014 Z-23.779
G1 Y13.6626 Z-23.6631
G1 Y13.6259 Z-23.5466
G1 Y13.5912 Z-23.4295
G1 Y13.5585 Z-23.3117
G1 Y13.5279 Z-23.1935
G1 Y13.4994 Z-23.0747
G1 Y13.473 Z-22.9554
G1 Y13.4486 Z-22.8357
G1 Y13.4263 Z-22.7155
G1 Y13.4062 Z-22.595
G1 Y13.3881 Z-22.4742
G1 Y13.3722 Z-22.3531
G1 Y13.3583 Z-22.2317
G1 Y13.3466 Z-22.1101
G1 Y13.3371 Z-21.9883
G1 Y13.3296 Z-21.8664
G1 Y13.3243 Z-21.7443
G1 Y13.3211 Z-21.6222
G1 Y13.32 Z-21.5
G1 Y13.3211 Z-21.3778
G1 Y13.3243 Z-21.2557
G1 Y13.3296 Z-21.1336
G1 Y13.3371 Z-21.0117
G1 Y13.3466 Z-20.8899
G1 Y13.3583 Z-20.7683
G1 Y13.3722 Z-20.6469
G1 Y13.3881 Z-20.5258
G1 Y13.4062 Z-20.405
G1 Y13.4263 Z-20.2845
G1 Y13.4486 Z-20.1643
G1 Y13.473 Z-20.0446
G1 Y13.4994 Z-19.9253
G1 Y13.5279 Z-19.8065
G1 Y13.5585 Z-19.6883
G1 Y13.5912 Z-19.5705
G1 Y13.6259 Z-19.4534
G1 Y13.6626 Z-19.3369
G1 Y13.7014 Z-19.221
G1 Y13.7422 Z-19.1059
G1 Y13.7849 Z-18.9914
G1 Y13.8297 Z-18.8778
G1 Y13.8765 Z-18.7649
G1 Y13.9252 Z-18.6528
G1 Y13.9758 Z-18.5417
G1 Y14.0284 Z-18.4314
G1 Y14.083 Z-18.3221
G1 Y14.1394 Z-18.2137
G1 Y14.1977 Z-18.1063
G1 Y14.2578 Z-18
G1 Y14.3198 Z-17.8947
G1 Y14.3837 Z-17.7906
G1 Y14.4493 Z-17.6875
G1 Y14.5167 Z-17.5856
G1 Y14.5859 Z-17.485
G1 Y14.6569 Z-17.3855
G1 Y14.7296 Z-17.2873
G1 Y14.8039 Z-17.1904
G1 Y14.88 Z-17.0948
G1 Y14.9577 Z-17.0005
G1 Y15.037 Z-16.9076
G1 Y15.118 Z-16.8161
G1 Y15.2005 Z-16.726
G1 Y15.2846 Z-16.6374
G1 Y15.3703 Z-16.5503
G1 Y15.4574 Z-16.4646
G1 Y15.546 Z-16.3805
G1 Y15.6361 Z-16.298
G1 Y15.7276 Z-16.217
G1 Y15.8205 Z-16.1377
G1 Y15.9148 Z-16.06
G1 Y16.0104 Z-15.9839
G1 Y16.1073 Z-15.9096
G1 Y16.2055 Z-15.8369
G1 Y16.305 Z-15.7659
G1 Y16.4056 Z-15.6967
G1 Y16.5075 Z-15.6293
G1 Y16.6106 Z-15.5637
G1 Y16.7147 Z-15.4998
G1 Y16.82 Z-15.4378
G1 Y16.9263 Z-15.3777
G1 Y17.0337 Z-15.3194
G1 Y17.1421 Z-15.263
G1 Y17.2514 Z-15.2084
G1 Y17.3617 Z-15.1558
G1 Y17.4728 Z-15.1052
G1 Y17.5849 Z-15.0565
G1 Y17.6978 Z-15.0097
G1 Y17.8114 Z-14.9649
G1 Y17.9259 Z-14.9222
G1 Y18.041 Z-14.8814
G1 Y18.1569 Z-14.8426
G1 Y18.2734 Z-14.8059
G1 Y18.3905 Z-14.7712
G1 Y18.5083 Z-14.7385
G1 Y18.6265 Z-14.7079
G1 Y18.7453 Z-14.6794
G1 Y18.8646 Z-14.653
G1 Y18.9843 Z-14.6286
G1 Y19.1045 Z-14.6063
G1 Y19.225 Z-14.5862
G1 Y19.3458 Z-14.5681
G1 Y19.4669 Z-14.5522
G1 Y19.5883 Z-14.5383
G1 Y19.7099 Z-14.5266
G1 Y19.8317 Z-14.5171
G1 Y19.9536 Z-14.5096
G1 Y20.0757 Z-14.5043
G1 Y20.1978 Z-14.5011
G1 Y20.32 Z-14.5
G1 Y20.4422 Z-14.5011
G1 Y20.5643 Z-14.5043
G1 Y20.6864 Z-14.5096
G1 Y20.8083 Z-14.5171
G1 Y20.9301 Z-14.5266
G1 Y21.0517 Z-14.5383
G1 Y21.1731 Z-14.5522
G1 Y21.2942 Z-14.5681
G1 Y21.415 Z-14.5862
G1 Y21.5355 Z-14.6063
G1 Y21.6557 Z-14.6286
G1 Y21.7754 Z-14.653
G1 Y21.8947 Z-14.6794
G1 Y22.0135 Z-14.7079
G1 Y22.1317 Z-14.7385
G1 Y22.2495 Z-14.7712
G1 Y22.3666 Z-14.8059
G1 Y22.4831 Z-14.8426
G1 Y22.599 Z-14.8814
G1 Y22.7141 Z-14.9222
G1 Y22.8286 Z-14.9649
G1 Y22.9422 Z-15.0097
G1 Y23.0551 Z-15.0565
G1 Y23.1672 Z-15.1052
G1 Y23.2783 Z-15.1558
G1 Y23.3886 Z-15.2084
G1 Y23.4979 Z-15.263
G1 Y23.6063 Z-15.3194
G1 Y23.7137 Z-15.3777
G1 Y23.82 Z-15.4378
G1 Y23.9253 Z-15.4998
G1 Y24.0294 Z-15.5637
G1 Y24.1325 Z-15.6293
G1 Y24.2344 Z-15.6967
G1 Y24.335 Z-15.7659
G1 Y24.4345 Z-15.8369
G1 Y24.5327 Z-15.9096
G1 Y24.6296 Z-15.9839
G1 Y24.7252 Z-16.06
G1 Y24.8195 Z-16.1377
G1 Y24.9124 Z-16.217
G1 Y25.0039 Z-16.298
G1 Y25.094 Z-16.3805
G1 Y25.1826 Z-16.4646
G1 Y25.2697 Z-16.5503
G1 Y25.3554 Z-16.6374
G1 Y25.4395 Z-16.726
G1 Y25.522 Z-16.8161
G1 Y25.603 Z-16.9076
G1 Y25.6823 Z-17.0005
G1 Y25.76 Z-17.0948
G1 Y25.8361 Z-17.1904
G1 Y25.9104 Z-17.2873
G1 Y25.9831 Z-17.3855
G1 Y26.0541 Z-17.485
G1 Y26.1233 Z-17.5856
G1 Y26.1907 Z-17.6875
G1 Y26.2563 Z-17.7906
G1 Y26.3202 Z-17.8947
G1 Y26.3822 Z-18
G1 Y26.4423 Z-18.1063
G1 Y26.5006 Z-18.2137
G1 Y26.557 Z-18.3221
G1 Y26.6116 Z-18.4314
G1 Y26.6642 Z-18.5417
G1 Y26.7148 Z-18.6528
G1 Y26.7635 Z-18.7649
G1 Y26.8103 Z-18.8778
G1 Y26.8551 Z-18.9914
G1 Y26.8978 Z-19.1059
G1 Y26.9386 Z-19.221
G1 Y26.9774 Z-19.3369
G1 Y27.0141 Z-19.4534
G1 Y27.0488 Z-19.5705
G1 Y27.0815 Z-19.6883
G1 Y27.1121 Z-19.8065
G1 Y27.1406 Z-19.9253
G1 Y27.167 Z-20.0446
G1 Y27.1914 Z-20.1643
G1 Y27.2137 Z-20.2845
G1 Y27.2338 Z-20.405
G1 Y27.2519 Z-20.5258
G1 Y27.2678 Z-20.6469
G1 Y27.2817 Z-20.7683
G1 Y27.2934 Z-20.8899
G1 Y27.3029 Z-21.0117
G1 Y27.3104 Z-21.1336
G1 Y27.3157 Z-21.2557
G1 Y27.3189 Z-21.3778
G1 Y27.32 Z-21.5
G1 Y27.3189 Z-21.6222
G1 Y27.3157 Z-21.7443
G1 Y27.3104 Z-21.8664
G1 Y27.3029 Z-21.9883
G1 Y27.2934 Z-22.1101
G1 Y27.2817 Z-22.2317
G1 Y27.2678 Z-22.3531
G1 Y27.2519 Z-22.4742
G1 Y27.2338 Z-22.595
G1 Y27.2137 Z-22.7155
G1 Y27.1914 Z-22.8357
G1 Y27.167 Z-22.9554
G1 Y27.1406 Z-23.0747
G1 Y27.1121 Z-23.1935
G1 Y27.0815 Z-23.3117
G1 Y27.0488 Z-23.4295
G1 Y27.0141 Z-23.5466
G1 Y26.9774 Z-23.6631
G1 Y26.9386 Z-23.779
G1 Y26.8978 Z-23.8941
G1 Y26.8551 Z-24.0086
G1 Y26.8103 Z-24.1222
G1 Y26.7635 Z-24.2351
G1 Y26.7148 Z-24.3472
G1 Y26.6642 Z-24.4583
G1 Y26.6116 Z-24.5686
G1 Y26.557 Z-24.6779
G1 Y26.5006 Z-24.7863
G1 Y26.4423 Z-24.8937
G1 Y26.3822 Z-25
G1 Y26.3202 Z-25.1053
G1 Y26.2563 Z-25.2094
G1 Y26.1907 Z-25.3125
G1 Y26.1233 Z-25.4144
G1 Y26.0541 Z-25.515
G1 Y25.9831 Z-25.6145
G1 Y25.9104 Z-25.7127
G1 Y25.8361 Z-25.8096
G1 Y25.76 Z-25.9052
G1 Y25.6823 Z-25.9995
G1 Y25.603 Z-26.0924
G1 Y25.522 Z-26.1839
G1 Y25.4395 Z-26.274
G1 Y25.3554 Z-26.3626
G1 Y25.2697 Z-26.4497
G1 Y25.1826 Z-26.5354
G1 Y25.094 Z-26.6195
G1 Y25.0039 Z-26.702
G1 Y24.9124 Z-26.783
G1 Y24.8195 Z-26.8623
G1 Y24.7252 Z-26.94
G1 Y24.6296 Z-27.0161
G1 Y24.5327 Z-27.0904
G1 Y24.4345 Z-27.1631
G1 Y24.335 Z-27.2341
G1 Y24.2344 Z-27.3033
G1 Y24.1325 Z-27.3707
G1 Y24.0294 Z-27.4363
G1 Y23.9253 Z-27.5002
G1 Y23.82 Z-27.5622
G1 Y23.7137 Z-27.6223
G1 Y23.6063 Z-27.6806
G1 Y23.4979 Z-27.737
G1 Y23.3886 Z-27.7916
G1 Y23.2783 Z-27.8442
G1 Y23.1672 Z-27.8948
G1 Y23.0551 Z-27.9435
G1 Y22.9422 Z-27.9903
G1 Y22.8286 Z-28.0351
G1 Y22.7141 Z-28.0778
G1 Y22.599 Z-28.1186
G1 Y22.4831 Z-28.1574
G1 Y22.3666 Z-28.1941
G1 Y22.2495 Z-28.2288
G1 Y22.1317 Z-28.2615
G1 Y22.0135 Z-28.2921
G1 Y21.8947 Z-28.3206
G1 Y21.7754 Z-28.347
G1 Y21.6557 Z-28.3714
G1 Y21.5355 Z-28.3937
G1 Y21.415 Z-28.4138
G1 Y21.2942 Z-28.4319
G1 Y21.1731 Z-28.4478
G1 Y21.0517 Z-28.4617
G1 Y20.9301 Z-28.4734
G1 Y20.8083 Z-28.4829
G1 Y20.6864 Z-28.4904
G1 Y20.5643 Z-28.4957
G1 Y20.4422 Z-28.4989
G1 Y20.32 Z-28.5
G1 X-3 F80 ( Plunge )
G1 F200 ( Set milling feed rate )
G1 Y20.32 Z-28.5
G1 Y20.32 Z-28.5
G1 Y20.1978 Z-28.4989
G1 Y20.0757 Z-28.4957
G1 Y19.9536 Z-28.4904
G1 Y19.8317 Z-28.4829
G1 Y19.7099 Z-28.4734
G1 Y19.5883 Z-28.4617
G1 Y19.4669 Z-28.4478
G1 Y19.3458 Z-28.4319
G1 Y19.225 Z-28.4138
G1 Y19.1045 Z-28.3937
G1 Y18.9843 Z-28.3714
G1 Y18.8646 Z-28.347
G1 Y18.7453 Z-28.3206
G1 Y18.6265 Z-28.2921
G1 Y18.5083 Z-28.2615
G1 Y18.3905 Z-28.2288
G1 Y18.2734 Z-28.1941
G1 Y18.1569 Z-28.1574
G1 Y18.041 Z-28.1186
G1 Y17.9259 Z-28.0778
G1 Y17.8114 Z-28.0351
G1 Y17.6978 Z-27.9903
G1 Y17.5849 Z-27.9435
G1 Y17.4728 Z-27.8948
G1 Y17.3617 Z-27.8442
G1 Y17.2514 Z-27.7916
G1 Y17.1421 Z-27.737
G1 Y17.0337 Z-27.6806
G1 Y16.9263 Z-27.6223
G1 Y16.82 Z-27.5622
G1 Y16.7147 Z-27.5002
G1 Y16.6106 Z-27.4363
G1 Y16.5075 Z-27.3707
G1 Y16.4056 Z-27.3033
G1 Y16.305 Z-27.2341
G1 Y16.2055 Z-27.1631
G1 Y16.1073 Z-27.0904
G1 Y16.0104 Z-27.0161
G1 Y15.9148 Z-26.94
G1 Y15.8205 Z-26.8623
G1 Y15.7276 Z-26.783
G1 Y15.6361 Z-26.702
G1 Y15.546 Z-26.6195
G1 Y15.4574 Z-26.5354
G1 Y15.3703 Z-26.4497
G1 Y15.2846 Z-26.3626
G1 Y15.2005 Z-26.274
G1 Y15.118 Z-26.1839
G1 Y15.037 Z-26.0924
G1 Y14.9577 Z-25.9995
G1 Y14.88 Z-25.9052
G1 Y14.8039 Z-25.8096
G1 Y14.7296 Z-25.7127
G1 Y14.6569 Z-25.6145
G1 Y14.5859 Z-25.515
G1 Y14.5167 Z-25.4144
G1 Y14.4493 Z-25.3125
G1 Y14.3837 Z-25.2094
G1 Y14.3198 Z-25.1053
G1 Y14.2578 Z-25
G1 Y14.1977 Z-24.8937
G1 Y14.1394 Z-24.7863
G1 Y14.083 Z-24.6779
G1 Y14.0284 Z-24.5686
G1 Y13.9758 Z-24.4583
G1 Y13.9252 Z-24.3472
G1 Y13.8765 Z-24.2351
G1 Y13.8297 Z-24.1222
G1 Y13.7849 Z-24.0086
G1 Y13.7422 Z-23.8941
G1 Y13.7014 Z-23.779
G1 Y13.6626 Z-23.6631
G1 Y13.6259 Z-23.5466
G1 Y13.5912 Z-23.4295
G1 Y13.5585 Z-23.3117
G1 Y13.5279 Z-23.1935
G1 Y13.4994 Z-23.0747
G1 Y13.473 Z-22.9554
G1 Y13.4486 Z-22.8357
G1 Y13.4263 Z-22.7155
G1 Y13.4062 Z-22.595
G1 Y13.3881 Z-22.4742
G1 Y13.3722 Z-22.3531
G1 Y13.3583 Z-22.2317
G1 Y13.3466 Z-22.1101
G1 Y13.3371 Z-21.9883
G1 Y13.3296 Z-21.8664
G1 Y13.3243 Z-21.7443
G1 Y13.3211 Z-21.6222
G1 Y13.32 Z-21.5
G1 Y13.3211 Z-21.3778
G1 Y13.3243 Z-21.2557
G1 Y13.3296 Z-21.1336
G1 Y13.3371 Z-21.0117
G1 Y13.3466 Z-20.8899
G1 Y13.3583 Z-20.7683
G1 Y13.3722 Z-20.6469
G1 Y13.3881 Z-20.5258
G1 Y13.4062 Z-20.405
G1 Y13.4263 Z-20.2845
G1 Y13.4486 Z-20.1643
G1 Y13.473 Z-20.0446
G1 Y13.4994 Z-19.9253
G1 Y13.5279 Z-19.8065
G1 Y13.5585 Z-19.6883
G1 Y13.5912 Z-19.5705
G1 Y13.6259 Z-19.4534
G1 Y13.6626 Z-19.3369
G1 Y13.7014 Z-19.221
G1 Y13.7422 Z-19.1059
G1 Y13.7849 Z-18.9914
G1 Y13.8297 Z-18.8778
G1 Y13.8765 Z-18.7649
G1 Y13.9252 Z-18.6528
G1 Y13.9758 Z-18.5417
G1 Y14.0284 Z-18.4314
G1 Y14.083 Z-18.3221
G1 Y14.1394 Z-18.2137
G1 Y14.1977 Z-18.1063
G1 Y14.2578 Z-18
G1 Y14.3198 Z-17.8947
G1 Y14.3837 Z-17.7906
G1 Y14.4493 Z-17.6875
G1 Y14.5167 Z-17.5856
G1 Y14.5859 Z-17.485
G1 Y14.6569 Z-17.3855
G1 Y14.7296 Z-17.2873
G1 Y14.8039 Z-17.1904
G1 Y14.88 Z-17.0948
G1 Y14.9577 Z-17.0005
G1 Y15.037 Z-16.9076
G1 Y15.118 Z-16.8161
G1 Y15.2005 Z-16.726
G1 Y15.2846 Z-16.6374
G1 Y15.3703 Z-16.5503
G1 Y15.4574 Z-16.4646
G1 Y15.546 Z-16.3805
G1 Y15.6361 Z-16.298
G1 Y15.7276 Z-16.217
G1 Y15.8205 Z-16.1377
G1 Y15.9148 Z-16.06
G1 Y16.0104 Z-15.9839
G1 Y16.1073 Z-15.9096
G1 Y16.2055 Z-15.8369
G1 Y16.305 Z-15.7659
G1 Y16.4056 Z-15.6967
G1 Y16.5075 Z-15.6293
G1 Y16.6106 Z-15.5637
G1 Y16.7147 Z-15.4998
G1 Y16.82 Z-15.4378
G1 Y16.9263 Z-15.3777
G1 Y17.0337 Z-15.3194
G1 Y17.1421 Z-15.263
G1 Y17.2514 Z-15.2084
G1 Y17.3617 Z-15.1558
G1 Y17.4728 Z-15.1052
G1 Y17.5849 Z-15.0565
G1 Y17.6978 Z-15.0097
G1 Y17.8114 Z-14.9649
G1 Y17.9259 Z-14.9222
G1 Y18.041 Z-14.8814
G1 Y18.1569 Z-14.8426
G1 Y18.2734 Z-14.8059
G1 Y18.3905 Z-14.7712
G1 Y18.5083 Z-14.7385
G1 Y18.6265 Z-14.7079
G1 Y18.7453 Z-14.6794
G1 Y18.8646 Z-14.653
G1 Y18.9843 Z-14.6286
G1 Y19.1045 Z-14.6063
G1 Y19.225 Z-14.5862
G1 Y19.3458 Z-14.5681
G1 Y19.4669 Z-14.5522
G1 Y19.5883 Z-14.5383
G1 Y19.7099 Z-14.5266
G1 Y19.8317 Z-14.5171
G1 Y19.9536 Z-14.5096
G1 Y20.0757 Z-14.5043
G1 Y20.1978 Z-14.5011
G1 Y20.32 Z-14.5
G1 Y20.4422 Z-14.5011
G1 Y20.5643 Z-14.5043
G1 Y20.6864 Z-14.5096
G1 Y20.8083 Z-14.5171
G1 Y20.9301 Z-14.5266
G1 Y21.0517 Z-14.5383
G1 Y21.1731 Z-14.5522
G1 Y21.2942 Z-14.5681
G1 Y21.415 Z-14.5862
G1 Y21.5355 Z-14.6063
G1 Y21.6557 Z-14.6286
G1 Y21.7754 Z-14.653
G1 Y21.8947 Z-14.6794
G1 Y22.0135 Z-14.7079
G1 Y22.1317 Z-14.7385
G1 Y22.2495 Z-14.7712
G1 Y22.3666 Z-14.8059
G1 Y22.4831 Z-14.8426
G1 Y22.599 Z-14.8814
G1 Y22.7141 Z-14.9222
G1 Y22.8286 Z-14.9649
G1 Y22.9422 Z-15.0097
G1 Y23.0551 Z-15.0565
G1 Y23.1672 Z-15.1052
G1 Y23.2783 Z-15.1558
G1 Y23.3886 Z-15.2084
G1 Y23.4979 Z-15.263
G1 Y23.6063 Z-15.3194
G1 Y23.7137 Z-15.3777
G1 Y23.82 Z-15.4378
G1 Y23.9253 Z-15.4998
G1 Y24.0294 Z-15.5637
G1 Y24.1325 Z-15.6293
G1 Y24.2344 Z-15.6967
G1 Y24.335 Z-15.7659
G1 Y24.4345 Z-15.8369
G1 Y24.5327 Z-15.9096
G1 Y24.6296 Z-15.9839
G1 Y24.7252 Z-16.06
G1 Y24.8195 Z-16.1377
G1 Y24.9124 Z-16.217
G1 Y25.0039 Z-16.298
G1 Y25.094 Z-16.3805
G1 Y25.1826 Z-16.4646
G1 Y25.2697 Z-16.5503
G1 Y25.3554 Z-16.6374
G1 Y25.4395 Z-16.726
G1 Y25.522 Z-16.8161
G1 Y25.603 Z-16.9076
G1 Y25.6823 Z-17.0005
G1 Y25.76 Z-17.0948
G1 Y25.8361 Z-17.1904
G1 Y25.9104 Z-17.2873
G1 Y25.9831 Z-17.3855
G1 Y26.0541 Z-17.485
G1 Y26.1233 Z-17.5856
G1 Y26.1907 Z-17.6875
G1 Y26.2563 Z-17.7906
G1 Y26.3202 Z-17.8947
G1 Y26.3822 Z-18
G1 Y26.4423 Z-18.1063
G1 Y26.5006 Z-18.2137
G1 Y26.557 Z-18.3221
G1 Y26.6116 Z-18.4314
G1 Y26.6642 Z-18.5417
G1 Y26.7148 Z-18.6528
G1 Y26.7635 Z-18.7649
G1 Y26.8103 Z-18.8778
G1 Y26.8551 Z-18.9914
G1 Y26.8978 Z-19.1059
G1 Y26.9386 Z-19.221
G1 Y26.9774 Z-19.3369
G1 Y27.0141 Z-19.4534
G1 Y27.0488 Z-19.5705
G1 Y27.0815 Z-19.6883
G1 Y27.1121 Z-19.8065
G1 Y27.1406 Z-19.9253
G1 Y27.167 Z-20.0446
G1 Y27.1914 Z-20.1643
G1 Y27.2137 Z-20.2845
G1 Y27.2338 Z-20.405
G1 Y27.2519 Z-20.5258
G1 Y27.2678 Z-20.6469
G1 Y27.2817 Z-20.7683
G1 Y27.2934 Z-20.8899
G1 Y27.3029 Z-21.0117
G1 Y27.3104 Z-21.1336
G1 Y27.3157 Z-21.2557
G1 Y27.3189 Z-21.3778
G1 Y27.32 Z-21.5
G1 Y27.3189 Z-21.6222
G1 Y27.3157 Z-21.7443
G1 Y27.3104 Z-21.8664
G1 Y27.3029 Z-21.9883
G1 Y27.2934 Z-22.1101
G1 Y27.2817 Z-22.2317
G1 Y27.2678 Z-22.3531
G1 Y27.2519 Z-22.4742
G1 Y27.2338 Z-22.595
G1 Y27.2137 Z-22.7155
G1 Y27.1914 Z-22.8357
G1 Y27.167 Z-22.9554
G1 Y27.1406 Z-23.0747
G1 Y27.1121 Z-23.1935
G1 Y27.0815 Z-23.3117
G1 Y27.0488 Z-23.4295
G1 Y27.0141 Z-23.5466
G1 Y26.9774 Z-23.6631
G1 Y26.9386 Z-23.779
G1 Y26.8978 Z-23.8941
G1 Y26.8551 Z-24.0086
G1 Y26.8103 Z-24.1222
G1 Y26.7635 Z-24.2351
G1 Y26.7148 Z-24.3472
G1 Y26.6642 Z-24.4583
G1 Y26.6116 Z-24.5686
G1 Y26.557 Z-24.6779
G1 Y26.5006 Z-24.7863
G1 Y26.4423 Z-24.8937
G1 Y26.3822 Z-25
G1 Y26.3202 Z-25.1053
G1 Y26.2563 Z-25.2094
G1 Y26.1907 Z-25.3125
G1 Y26.1233 Z-25.4144
G1 Y26.0541 Z-25.515
G1 Y25.9831 Z-25.6145
G1 Y25.9104 Z-25.7127
G1 Y25.8361 Z-25.8096
G1 Y25.76 Z-25.9052
G1 Y25.6823 Z-25.9995
G1 Y25.603 Z-26.0924
G1 Y25.522 Z-26.1839
G1 Y25.4395 Z-26.274
G1 Y25.3554 Z-26.3626
G1 Y25.2697 Z-26.4497
G1 Y25.1826 Z-26.5354
G1 Y25.094 Z-26.6195
G1 Y25.0039 Z-26.702
G1 Y24.9124 Z-26.783
G1 Y24.8195 Z-26.8623
G1 Y24.7252 Z-26.94
G1 Y24.6296 Z-27.0161
G1 Y24.5327 Z-27.0904
G1 Y24.4345 Z-27.1631
G1 Y24.335 Z-27.2341
G1 Y24.2344 Z-27.3033
G1 Y24.1325 Z-27.3707
G1 Y24.0294 Z-27.4363
G1 Y23.9253 Z-27.5002
G1 Y23.82 Z-27.5622
G1 Y23.7137 Z-27.6223
G1 Y23.6063 Z-27.6806
G1 Y23.4979 Z-27.737
G1 Y23.3886 Z-27.7916
G1 Y23.2783 Z-27.8442
G1 Y23.1672 Z-27.8948
G1 Y23.0551 Z-27.9435
G1 Y22.9422 Z-27.9903
G1 Y22.8286 Z-28.0351
G1 Y22.7141 Z-28.0778
G1 Y22.599 Z-28.1186
G1 Y22.4831 Z-28.1574
G1 Y22.3666 Z-28.1941
G1 Y22.2495 Z-28.2288
G1 Y22.1317 Z-28.2615
G1 Y22.0135 Z-28.2921
G1 Y21.8947 Z-28.3206
G1 Y21.7754 Z-28.347
G1 Y21.6557 Z-28.3714
G1 Y21.5355 Z-28.3937
G1 Y21.415 Z-28.4138
G1 Y21.2942 Z-28.4319
G1 Y21.1731 Z-28.4478
G1 Y21.0517 Z-28.4617
G1 Y20.9301 Z-28.4734
G1 Y20.8083 Z-28.4829
G1 Y20.6864 Z-28.4904
G1 Y20.5643 Z-28.4957
G1 Y20.4422 Z-28.4989
G1 Y20.32 Z-28.5
G0 X3 ( Retract )
G0 Z3 ( Retract )
M5 ( Spindle off )
G4 P1 ( Wait for spindle to stop )
M9 ( Coolant off )
M2 ( Program end )
( end, rd=474.088 mm, rt=0.50664 min, md=728.836 mm, mt=3.77918 min )
