( ./gcode_splitter_sidemill.py )
G94 ( Millimeters per minute feed rate )
G21 ( Units == Millimeters )
G90 ( Absolute coordinates )
G0 S10000 ( RPM spindle speed )
G1 F200 ( Feedrate )
G0 Z3 ( Retract to tool change height )
T0
M5 ( Spindle stop )
G4 P1 ( Wait for spindle to stop )
( MSG, Change tool bit to cutter diameter 2mm) )
M0 ( Temporary machine stop )
M3 ( Spindle on clockwise )
G4 P1 ( Wait for spindle to get up to speed )
G0 Z3 ( Retract )
G0 X3 ( Retract )
G0 Y29.5 Z-4
G0 X3 ( Retract )
G0 Y29.5
G0 X-1 ( Plunge )
G1 F200 ( Set milling feed rate )
G1 Y-29.5
G0 X3 ( Retract )
G0 Y29.5
G0 X-2 ( Plunge )
G1 F200 ( Set milling feed rate )
G1 Y-29.5
G0 X3 ( Retract )
G0 Y29.5
G0 X-3 ( Plunge )
G1 F200 ( Set milling feed rate )
G1 Y-29.5
G0 X3 ( Retract )
G0 Y0
G0 Y-14.5 Z-14
G1 X-1 F80 ( Plunge )
G1 F200 ( Set milling feed rate )
G1 Y-5.5
G1 Z-22
G1 Y-14.5
G1 Z-14
G1 X-2 F80 ( Plunge )
G1 F200 ( Set milling feed rate )
G1 Y-5.5
G1 Z-22
G1 Y-14.5
G1 Z-14
G1 X-3 F80 ( Plunge )
G1 F200 ( Set milling feed rate )
G1 Y-5.5
G1 Z-22
G1 Y-14.5
G1 Z-14
G0 X3 ( Retract )
G0 X3 ( Retract )
G0 Y9 Z-21.75
G1 X-1 F80 ( Plunge )
G1 F200 ( Set milling feed rate )
G1 Y9 Z-21.75
G1 Y9 Z-21.75
G1 Y8.952 Z-21.7496
G1 Y8.904 Z-21.7483
G1 Y8.8561 Z-21.7462
G1 Y8.8082 Z-21.7433
G1 Y8.7603 Z-21.7395
G1 Y8.7125 Z-21.7349
G1 Y8.6649 Z-21.7295
G1 Y8.6173 Z-21.7232
G1 Y8.5698 Z-21.7161
G1 Y8.5225 Z-21.7082
G1 Y8.4753 Z-21.6995
G1 Y8.4282 Z-21.6899
G1 Y8.3814 Z-21.6795
G1 Y8.3347 Z-21.6683
G1 Y8.2882 Z-21.6563
G1 Y8.242 Z-21.6435
G1 Y8.196 Z-21.6298
G1 Y8.1502 Z-21.6154
G1 Y8.1047 Z-21.6002
G1 Y8.0594 Z-21.5842
G1 Y8.0145 Z-21.5673
G1 Y7.9698 Z-21.5498
G1 Y7.9255 Z-21.5314
G1 Y7.8815 Z-21.5123
G1 Y7.8378 Z-21.4923
G1 Y7.7945 Z-21.4717
G1 Y7.7515 Z-21.4503
G1 Y7.709 Z-21.4281
G1 Y7.6668 Z-21.4052
G1 Y7.625 Z-21.3816
G1 Y7.5836 Z-21.3572
G1 Y7.5427 Z-21.3321
G1 Y7.5022 Z-21.3063
G1 Y7.4622 Z-21.2799
G1 Y7.4227 Z-21.2527
G1 Y7.3836 Z-21.2248
G1 Y7.345 Z-21.1962
G1 Y7.3069 Z-21.167
G1 Y7.2694 Z-21.1372
G1 Y7.2323 Z-21.1066
G1 Y7.1958 Z-21.0755
G1 Y7.1599 Z-21.0436
G1 Y7.1245 Z-21.0112
G1 Y7.0897 Z-20.9782
G1 Y7.0555 Z-20.9445
G1 Y7.0218 Z-20.9103
G1 Y6.9888 Z-20.8755
G1 Y6.9564 Z-20.8401
G1 Y6.9245 Z-20.8042
G1 Y6.8934 Z-20.7677
G1 Y6.8628 Z-20.7306
G1 Y6.833 Z-20.6931
G1 Y6.8038 Z-20.655
G1 Y6.7752 Z-20.6164
G1 Y6.7473 Z-20.5773
G1 Y6.7201 Z-20.5378
G1 Y6.6937 Z-20.4978
G1 Y6.6679 Z-20.4573
G1 Y6.6428 Z-20.4164
G1 Y6.6184 Z-20.375
G1 Y6.5948 Z-20.3332
G1 Y6.5719 Z-20.291
G1 Y6.5497 Z-20.2485
G1 Y6.5283 Z-20.2055
G1 Y6.5077 Z-20.1622
G1 Y6.4877 Z-20.1185
G1 Y6.4686 Z-20.0745
G1 Y6.4502 Z-20.0302
G1 Y6.4327 Z-19.9855
G1 Y6.4158 Z-19.9406
G1 Y6.3998 Z-19.8953
G1 Y6.3846 Z-19.8498
G1 Y6.3702 Z-19.804
G1 Y6.3565 Z-19.758
G1 Y6.3437 Z-19.7118
G1 Y6.3317 Z-19.6653
G1 Y6.3205 Z-19.6186
G1 Y6.3101 Z-19.5718
G1 Y6.3005 Z-19.5247
G1 Y6.2918 Z-19.4775
G1 Y6.2839 Z-19.4302
G1 Y6.2768 Z-19.3827
G1 Y6.2705 Z-19.3351
G1 Y6.2651 Z-19.2875
G1 Y6.2605 Z-19.2397
G1 Y6.2567 Z-19.1918
G1 Y6.2538 Z-19.1439
G1 Y6.2517 Z-19.096
G1 Y6.2504 Z-19.048
G1 Y6.25 Z-19
G1 Y6.2504 Z-18.952
G1 Y6.2517 Z-18.904
G1 Y6.2538 Z-18.8561
G1 Y6.2567 Z-18.8082
G1 Y6.2605 Z-18.7603
G1 Y6.2651 Z-18.7125
G1 Y6.2705 Z-18.6649
G1 Y6.2768 Z-18.6173
G1 Y6.2839 Z-18.5698
G1 Y6.2918 Z-18.5225
G1 Y6.3005 Z-18.4753
G1 Y6.3101 Z-18.4282
G1 Y6.3205 Z-18.3814
G1 Y6.3317 Z-18.3347
G1 Y6.3437 Z-18.2882
G1 Y6.3565 Z-18.242
G1 Y6.3702 Z-18.196
G1 Y6.3846 Z-18.1502
G1 Y6.3998 Z-18.1047
G1 Y6.4158 Z-18.0594
G1 Y6.4327 Z-18.0145
G1 Y6.4502 Z-17.9698
G1 Y6.4686 Z-17.9255
G1 Y6.4877 Z-17.8815
G1 Y6.5077 Z-17.8378
G1 Y6.5283 Z-17.7945
G1 Y6.5497 Z-17.7515
G1 Y6.5719 Z-17.709
G1 Y6.5948 Z-17.6668
G1 Y6.6184 Z-17.625
G1 Y6.6428 Z-17.5836
G1 Y6.6679 Z-17.5427
G1 Y6.6937 Z-17.5022
G1 Y6.7201 Z-17.4622
G1 Y6.7473 Z-17.4227
G1 Y6.7752 Z-17.3836
G1 Y6.8038 Z-17.345
G1 Y6.833 Z-17.3069
G1 Y6.8628 Z-17.2694
G1 Y6.8934 Z-17.2323
G1 Y6.9245 Z-17.1958
G1 Y6.9564 Z-17.1599
G1 Y6.9888 Z-17.1245
G1 Y7.0218 Z-17.0897
G1 Y7.0555 Z-17.0555
G1 Y7.0897 Z-17.0218
G1 Y7.1245 Z-16.9888
G1 Y7.1599 Z-16.9564
G1 Y7.1958 Z-16.9245
G1 Y7.2323 Z-16.8934
G1 Y7.2694 Z-16.8628
G1 Y7.3069 Z-16.833
G1 Y7.345 Z-16.8038
G1 Y7.3836 Z-16.7752
G1 Y7.4227 Z-16.7473
G1 Y7.4622 Z-16.7201
G1 Y7.5022 Z-16.6937
G1 Y7.5427 Z-16.6679
G1 Y7.5836 Z-16.6428
G1 Y7.625 Z-16.6184
G1 Y7.6668 Z-16.5948
G1 Y7.709 Z-16.5719
G1 Y7.7515 Z-16.5497
G1 Y7.7945 Z-16.5283
G1 Y7.8378 Z-16.5077
G1 Y7.8815 Z-16.4877
G1 Y7.9255 Z-16.4686
G1 Y7.9698 Z-16.4502
G1 Y8.0145 Z-16.4327
G1 Y8.0594 Z-16.4158
G1 Y8.1047 Z-16.3998
G1 Y8.1502 Z-16.3846
G1 Y8.196 Z-16.3702
G1 Y8.242 Z-16.3565
G1 Y8.2882 Z-16.3437
G1 Y8.3347 Z-16.3317
G1 Y8.3814 Z-16.3205
G1 Y8.4282 Z-16.3101
G1 Y8.4753 Z-16.3005
G1 Y8.5225 Z-16.2918
G1 Y8.5698 Z-16.2839
G1 Y8.6173 Z-16.2768
G1 Y8.6649 Z-16.2705
G1 Y8.7125 Z-16.2651
G1 Y8.7603 Z-16.2605
G1 Y8.8082 Z-16.2567
G1 Y8.8561 Z-16.2538
G1 Y8.904 Z-16.2517
G1 Y8.952 Z-16.2504
G1 Y9 Z-16.25
G1 Y9.048 Z-16.2504
G1 Y9.096 Z-16.2517
G1 Y9.1439 Z-16.2538
G1 Y9.1918 Z-16.2567
G1 Y9.2397 Z-16.2605
G1 Y9.2875 Z-16.2651
G1 Y9.3351 Z-16.2705
G1 Y9.3827 Z-16.2768
G1 Y9.4302 Z-16.2839
G1 Y9.4775 Z-16.2918
G1 Y9.5247 Z-16.3005
G1 Y9.5718 Z-16.3101
G1 Y9.6186 Z-16.3205
G1 Y9.6653 Z-16.3317
G1 Y9.7118 Z-16.3437
G1 Y9.758 Z-16.3565
G1 Y9.804 Z-16.3702
G1 Y9.8498 Z-16.3846
G1 Y9.8953 Z-16.3998
G1 Y9.9406 Z-16.4158
G1 Y9.9855 Z-16.4327
G1 Y10.0302 Z-16.4502
G1 Y10.0745 Z-16.4686
G1 Y10.1185 Z-16.4877
G1 Y10.1622 Z-16.5077
G1 Y10.2055 Z-16.5283
G1 Y10.2485 Z-16.5497
G1 Y10.291 Z-16.5719
G1 Y10.3332 Z-16.5948
G1 Y10.375 Z-16.6184
G1 Y10.4164 Z-16.6428
G1 Y10.4573 Z-16.6679
G1 Y10.4978 Z-16.6937
G1 Y10.5378 Z-16.7201
G1 Y10.5773 Z-16.7473
G1 Y10.6164 Z-16.7752
G1 Y10.655 Z-16.8038
G1 Y10.6931 Z-16.833
G1 Y10.7306 Z-16.8628
G1 Y10.7677 Z-16.8934
G1 Y10.8042 Z-16.9245
G1 Y10.8401 Z-16.9564
G1 Y10.8755 Z-16.9888
G1 Y10.9103 Z-17.0218
G1 Y10.9445 Z-17.0555
G1 Y10.9782 Z-17.0897
G1 Y11.0112 Z-17.1245
G1 Y11.0436 Z-17.1599
G1 Y11.0755 Z-17.1958
G1 Y11.1066 Z-17.2323
G1 Y11.1372 Z-17.2694
G1 Y11.167 Z-17.3069
G1 Y11.1962 Z-17.345
G1 Y11.2248 Z-17.3836
G1 Y11.2527 Z-17.4227
G1 Y11.2799 Z-17.4622
G1 Y11.3063 Z-17.5022
G1 Y11.3321 Z-17.5427
G1 Y11.3572 Z-17.5836
G1 Y11.3816 Z-17.625
G1 Y11.4052 Z-17.6668
G1 Y11.4281 Z-17.709
G1 Y11.4503 Z-17.7515
G1 Y11.4717 Z-17.7945
G1 Y11.4923 Z-17.8378
G1 Y11.5123 Z-17.8815
G1 Y11.5314 Z-17.9255
G1 Y11.5498 Z-17.9698
G1 Y11.5673 Z-18.0145
G1 Y11.5842 Z-18.0594
G1 Y11.6002 Z-18.1047
G1 Y11.6154 Z-18.1502
G1 Y11.6298 Z-18.196
G1 Y11.6435 Z-18.242
G1 Y11.6563 Z-18.2882
G1 Y11.6683 Z-18.3347
G1 Y11.6795 Z-18.3814
G1 Y11.6899 Z-18.4282
G1 Y11.6995 Z-18.4753
G1 Y11.7082 Z-18.5225
G1 Y11.7161 Z-18.5698
G1 Y11.7232 Z-18.6173
G1 Y11.7295 Z-18.6649
G1 Y11.7349 Z-18.7125
G1 Y11.7395 Z-18.7603
G1 Y11.7433 Z-18.8082
G1 Y11.7462 Z-18.8561
G1 Y11.7483 Z-18.904
G1 Y11.7496 Z-18.952
G1 Y11.75 Z-19
G1 Y11.7496 Z-19.048
G1 Y11.7483 Z-19.096
G1 Y11.7462 Z-19.1439
G1 Y11.7433 Z-19.1918
G1 Y11.7395 Z-19.2397
G1 Y11.7349 Z-19.2875
G1 Y11.7295 Z-19.3351
G1 Y11.7232 Z-19.3827
G1 Y11.7161 Z-19.4302
G1 Y11.7082 Z-19.4775
G1 Y11.6995 Z-19.5247
G1 Y11.6899 Z-19.5718
G1 Y11.6795 Z-19.6186
G1 Y11.6683 Z-19.6653
G1 Y11.6563 Z-19.7118
G1 Y11.6435 Z-19.758
G1 Y11.6298 Z-19.804
G1 Y11.6154 Z-19.8498
G1 Y11.6002 Z-19.8953
G1 Y11.5842 Z-19.9406
G1 Y11.5673 Z-19.9855
G1 Y11.5498 Z-20.0302
G1 Y11.5314 Z-20.0745
G1 Y11.5123 Z-20.1185
G1 Y11.4923 Z-20.1622
G1 Y11.4717 Z-20.2055
G1 Y11.4503 Z-20.2485
G1 Y11.4281 Z-20.291
G1 Y11.4052 Z-20.3332
G1 Y11.3816 Z-20.375
G1 Y11.3572 Z-20.4164
G1 Y11.3321 Z-20.4573
G1 Y11.3063 Z-20.4978
G1 Y11.2799 Z-20.5378
G1 Y11.2527 Z-20.5773
G1 Y11.2248 Z-20.6164
G1 Y11.1962 Z-20.655
G1 Y11.167 Z-20.6931
G1 Y11.1372 Z-20.7306
G1 Y11.1066 Z-20.7677
G1 Y11.0755 Z-20.8042
G1 Y11.0436 Z-20.8401
G1 Y11.0112 Z-20.8755
G1 Y10.9782 Z-20.9103
G1 Y10.9445 Z-20.9445
G1 Y10.9103 Z-20.9782
G1 Y10.8755 Z-21.0112
G1 Y10.8401 Z-21.0436
G1 Y10.8042 Z-21.0755
G1 Y10.7677 Z-21.1066
G1 Y10.7306 Z-21.1372
G1 Y10.6931 Z-21.167
G1 Y10.655 Z-21.1962
G1 Y10.6164 Z-21.2248
G1 Y10.5773 Z-21.2527
G1 Y10.5378 Z-21.2799
G1 Y10.4978 Z-21.3063
G1 Y10.4573 Z-21.3321
G1 Y10.4164 Z-21.3572
G1 Y10.375 Z-21.3816
G1 Y10.3332 Z-21.4052
G1 Y10.291 Z-21.4281
G1 Y10.2485 Z-21.4503
G1 Y10.2055 Z-21.4717
G1 Y10.1622 Z-21.4923
G1 Y10.1185 Z-21.5123
G1 Y10.0745 Z-21.5314
G1 Y10.0302 Z-21.5498
G1 Y9.9855 Z-21.5673
G1 Y9.9406 Z-21.5842
G1 Y9.8953 Z-21.6002
G1 Y9.8498 Z-21.6154
G1 Y9.804 Z-21.6298
G1 Y9.758 Z-21.6435
G1 Y9.7118 Z-21.6563
G1 Y9.6653 Z-21.6683
G1 Y9.6186 Z-21.6795
G1 Y9.5718 Z-21.6899
G1 Y9.5247 Z-21.6995
G1 Y9.4775 Z-21.7082
G1 Y9.4302 Z-21.7161
G1 Y9.3827 Z-21.7232
G1 Y9.3351 Z-21.7295
G1 Y9.2875 Z-21.7349
G1 Y9.2397 Z-21.7395
G1 Y9.1918 Z-21.7433
G1 Y9.1439 Z-21.7462
G1 Y9.096 Z-21.7483
G1 Y9.048 Z-21.7496
G1 Y9 Z-21.75
G1 X-2 F80 ( Plunge )
G1 F200 ( Set milling feed rate )
G1 Y9 Z-21.75
G1 Y9 Z-21.75
G1 Y8.952 Z-21.7496
G1 Y8.904 Z-21.7483
G1 Y8.8561 Z-21.7462
G1 Y8.8082 Z-21.7433
G1 Y8.7603 Z-21.7395
G1 Y8.7125 Z-21.7349
G1 Y8.6649 Z-21.7295
G1 Y8.6173 Z-21.7232
G1 Y8.5698 Z-21.7161
G1 Y8.5225 Z-21.7082
G1 Y8.4753 Z-21.6995
G1 Y8.4282 Z-21.6899
G1 Y8.3814 Z-21.6795
G1 Y8.3347 Z-21.6683
G1 Y8.2882 Z-21.6563
G1 Y8.242 Z-21.6435
G1 Y8.196 Z-21.6298
G1 Y8.1502 Z-21.6154
G1 Y8.1047 Z-21.6002
G1 Y8.0594 Z-21.5842
G1 Y8.0145 Z-21.5673
G1 Y7.9698 Z-21.5498
G1 Y7.9255 Z-21.5314
G1 Y7.8815 Z-21.5123
G1 Y7.8378 Z-21.4923
G1 Y7.7945 Z-21.4717
G1 Y7.7515 Z-21.4503
G1 Y7.709 Z-21.4281
G1 Y7.6668 Z-21.4052
G1 Y7.625 Z-21.3816
G1 Y7.5836 Z-21.3572
G1 Y7.5427 Z-21.3321
G1 Y7.5022 Z-21.3063
G1 Y7.4622 Z-21.2799
G1 Y7.4227 Z-21.2527
G1 Y7.3836 Z-21.2248
G1 Y7.345 Z-21.1962
G1 Y7.3069 Z-21.167
G1 Y7.2694 Z-21.1372
G1 Y7.2323 Z-21.1066
G1 Y7.1958 Z-21.0755
G1 Y7.1599 Z-21.0436
G1 Y7.1245 Z-21.0112
G1 Y7.0897 Z-20.9782
G1 Y7.0555 Z-20.9445
G1 Y7.0218 Z-20.9103
G1 Y6.9888 Z-20.8755
G1 Y6.9564 Z-20.8401
G1 Y6.9245 Z-20.8042
G1 Y6.8934 Z-20.7677
G1 Y6.8628 Z-20.7306
G1 Y6.833 Z-20.6931
G1 Y6.8038 Z-20.655
G1 Y6.7752 Z-20.6164
G1 Y6.7473 Z-20.5773
G1 Y6.7201 Z-20.5378
G1 Y6.6937 Z-20.4978
G1 Y6.6679 Z-20.4573
G1 Y6.6428 Z-20.4164
G1 Y6.6184 Z-20.375
G1 Y6.5948 Z-20.3332
G1 Y6.5719 Z-20.291
G1 Y6.5497 Z-20.2485
G1 Y6.5283 Z-20.2055
G1 Y6.5077 Z-20.1622
G1 Y6.4877 Z-20.1185
G1 Y6.4686 Z-20.0745
G1 Y6.4502 Z-20.0302
G1 Y6.4327 Z-19.9855
G1 Y6.4158 Z-19.9406
G1 Y6.3998 Z-19.8953
G1 Y6.3846 Z-19.8498
G1 Y6.3702 Z-19.804
G1 Y6.3565 Z-19.758
G1 Y6.3437 Z-19.7118
G1 Y6.3317 Z-19.6653
G1 Y6.3205 Z-19.6186
G1 Y6.3101 Z-19.5718
G1 Y6.3005 Z-19.5247
G1 Y6.2918 Z-19.4775
G1 Y6.2839 Z-19.4302
G1 Y6.2768 Z-19.3827
G1 Y6.2705 Z-19.3351
G1 Y6.2651 Z-19.2875
G1 Y6.2605 Z-19.2397
G1 Y6.2567 Z-19.1918
G1 Y6.2538 Z-19.1439
G1 Y6.2517 Z-19.096
G1 Y6.2504 Z-19.048
G1 Y6.25 Z-19
G1 Y6.2504 Z-18.952
G1 Y6.2517 Z-18.904
G1 Y6.2538 Z-18.8561
G1 Y6.2567 Z-18.8082
G1 Y6.2605 Z-18.7603
G1 Y6.2651 Z-18.7125
G1 Y6.2705 Z-18.6649
G1 Y6.2768 Z-18.6173
G1 Y6.2839 Z-18.5698
G1 Y6.2918 Z-18.5225
G1 Y6.3005 Z-18.4753
G1 Y6.3101 Z-18.4282
G1 Y6.3205 Z-18.3814
G1 Y6.3317 Z-18.3347
G1 Y6.3437 Z-18.2882
G1 Y6.3565 Z-18.242
G1 Y6.3702 Z-18.196
G1 Y6.3846 Z-18.1502
G1 Y6.3998 Z-18.1047
G1 Y6.4158 Z-18.0594
G1 Y6.4327 Z-18.0145
G1 Y6.4502 Z-17.9698
G1 Y6.4686 Z-17.9255
G1 Y6.4877 Z-17.8815
G1 Y6.5077 Z-17.8378
G1 Y6.5283 Z-17.7945
G1 Y6.5497 Z-17.7515
G1 Y6.5719 Z-17.709
G1 Y6.5948 Z-17.6668
G1 Y6.6184 Z-17.625
G1 Y6.6428 Z-17.5836
G1 Y6.6679 Z-17.5427
G1 Y6.6937 Z-17.5022
G1 Y6.7201 Z-17.4622
G1 Y6.7473 Z-17.4227
G1 Y6.7752 Z-17.3836
G1 Y6.8038 Z-17.345
G1 Y6.833 Z-17.3069
G1 Y6.8628 Z-17.2694
G1 Y6.8934 Z-17.2323
G1 Y6.9245 Z-17.1958
G1 Y6.9564 Z-17.1599
G1 Y6.9888 Z-17.1245
G1 Y7.0218 Z-17.0897
G1 Y7.0555 Z-17.0555
G1 Y7.0897 Z-17.0218
G1 Y7.1245 Z-16.9888
G1 Y7.1599 Z-16.9564
G1 Y7.1958 Z-16.9245
G1 Y7.2323 Z-16.8934
G1 Y7.2694 Z-16.8628
G1 Y7.3069 Z-16.833
G1 Y7.345 Z-16.8038
G1 Y7.3836 Z-16.7752
G1 Y7.4227 Z-16.7473
G1 Y7.4622 Z-16.7201
G1 Y7.5022 Z-16.6937
G1 Y7.5427 Z-16.6679
G1 Y7.5836 Z-16.6428
G1 Y7.625 Z-16.6184
G1 Y7.6668 Z-16.5948
G1 Y7.709 Z-16.5719
G1 Y7.7515 Z-16.5497
G1 Y7.7945 Z-16.5283
G1 Y7.8378 Z-16.5077
G1 Y7.8815 Z-16.4877
G1 Y7.9255 Z-16.4686
G1 Y7.9698 Z-16.4502
G1 Y8.0145 Z-16.4327
G1 Y8.0594 Z-16.4158
G1 Y8.1047 Z-16.3998
G1 Y8.1502 Z-16.3846
G1 Y8.196 Z-16.3702
G1 Y8.242 Z-16.3565
G1 Y8.2882 Z-16.3437
G1 Y8.3347 Z-16.3317
G1 Y8.3814 Z-16.3205
G1 Y8.4282 Z-16.3101
G1 Y8.4753 Z-16.3005
G1 Y8.5225 Z-16.2918
G1 Y8.5698 Z-16.2839
G1 Y8.6173 Z-16.2768
G1 Y8.6649 Z-16.2705
G1 Y8.7125 Z-16.2651
G1 Y8.7603 Z-16.2605
G1 Y8.8082 Z-16.2567
G1 Y8.8561 Z-16.2538
G1 Y8.904 Z-16.2517
G1 Y8.952 Z-16.2504
G1 Y9 Z-16.25
G1 Y9.048 Z-16.2504
G1 Y9.096 Z-16.2517
G1 Y9.1439 Z-16.2538
G1 Y9.1918 Z-16.2567
G1 Y9.2397 Z-16.2605
G1 Y9.2875 Z-16.2651
G1 Y9.3351 Z-16.2705
G1 Y9.3827 Z-16.2768
G1 Y9.4302 Z-16.2839
G1 Y9.4775 Z-16.2918
G1 Y9.5247 Z-16.3005
G1 Y9.5718 Z-16.3101
G1 Y9.6186 Z-16.3205
G1 Y9.6653 Z-16.3317
G1 Y9.7118 Z-16.3437
G1 Y9.758 Z-16.3565
G1 Y9.804 Z-16.3702
G1 Y9.8498 Z-16.3846
G1 Y9.8953 Z-16.3998
G1 Y9.9406 Z-16.4158
G1 Y9.9855 Z-16.4327
G1 Y10.0302 Z-16.4502
G1 Y10.0745 Z-16.4686
G1 Y10.1185 Z-16.4877
G1 Y10.1622 Z-16.5077
G1 Y10.2055 Z-16.5283
G1 Y10.2485 Z-16.5497
G1 Y10.291 Z-16.5719
G1 Y10.3332 Z-16.5948
G1 Y10.375 Z-16.6184
G1 Y10.4164 Z-16.6428
G1 Y10.4573 Z-16.6679
G1 Y10.4978 Z-16.6937
G1 Y10.5378 Z-16.7201
G1 Y10.5773 Z-16.7473
G1 Y10.6164 Z-16.7752
G1 Y10.655 Z-16.8038
G1 Y10.6931 Z-16.833
G1 Y10.7306 Z-16.8628
G1 Y10.7677 Z-16.8934
G1 Y10.8042 Z-16.9245
G1 Y10.8401 Z-16.9564
G1 Y10.8755 Z-16.9888
G1 Y10.9103 Z-17.0218
G1 Y10.9445 Z-17.0555
G1 Y10.9782 Z-17.0897
G1 Y11.0112 Z-17.1245
G1 Y11.0436 Z-17.1599
G1 Y11.0755 Z-17.1958
G1 Y11.1066 Z-17.2323
G1 Y11.1372 Z-17.2694
G1 Y11.167 Z-17.3069
G1 Y11.1962 Z-17.345
G1 Y11.2248 Z-17.3836
G1 Y11.2527 Z-17.4227
G1 Y11.2799 Z-17.4622
G1 Y11.3063 Z-17.5022
G1 Y11.3321 Z-17.5427
G1 Y11.3572 Z-17.5836
G1 Y11.3816 Z-17.625
G1 Y11.4052 Z-17.6668
G1 Y11.4281 Z-17.709
G1 Y11.4503 Z-17.7515
G1 Y11.4717 Z-17.7945
G1 Y11.4923 Z-17.8378
G1 Y11.5123 Z-17.8815
G1 Y11.5314 Z-17.9255
G1 Y11.5498 Z-17.9698
G1 Y11.5673 Z-18.0145
G1 Y11.5842 Z-18.0594
G1 Y11.6002 Z-18.1047
G1 Y11.6154 Z-18.1502
G1 Y11.6298 Z-18.196
G1 Y11.6435 Z-18.242
G1 Y11.6563 Z-18.2882
G1 Y11.6683 Z-18.3347
G1 Y11.6795 Z-18.3814
G1 Y11.6899 Z-18.4282
G1 Y11.6995 Z-18.4753
G1 Y11.7082 Z-18.5225
G1 Y11.7161 Z-18.5698
G1 Y11.7232 Z-18.6173
G1 Y11.7295 Z-18.6649
G1 Y11.7349 Z-18.7125
G1 Y11.7395 Z-18.7603
G1 Y11.7433 Z-18.8082
G1 Y11.7462 Z-18.8561
G1 Y11.7483 Z-18.904
G1 Y11.7496 Z-18.952
G1 Y11.75 Z-19
G1 Y11.7496 Z-19.048
G1 Y11.7483 Z-19.096
G1 Y11.7462 Z-19.1439
G1 Y11.7433 Z-19.1918
G1 Y11.7395 Z-19.2397
G1 Y11.7349 Z-19.2875
G1 Y11.7295 Z-19.3351
G1 Y11.7232 Z-19.3827
G1 Y11.7161 Z-19.4302
G1 Y11.7082 Z-19.4775
G1 Y11.6995 Z-19.5247
G1 Y11.6899 Z-19.5718
G1 Y11.6795 Z-19.6186
G1 Y11.6683 Z-19.6653
G1 Y11.6563 Z-19.7118
G1 Y11.6435 Z-19.758
G1 Y11.6298 Z-19.804
G1 Y11.6154 Z-19.8498
G1 Y11.6002 Z-19.8953
G1 Y11.5842 Z-19.9406
G1 Y11.5673 Z-19.9855
G1 Y11.5498 Z-20.0302
G1 Y11.5314 Z-20.0745
G1 Y11.5123 Z-20.1185
G1 Y11.4923 Z-20.1622
G1 Y11.4717 Z-20.2055
G1 Y11.4503 Z-20.2485
G1 Y11.4281 Z-20.291
G1 Y11.4052 Z-20.3332
G1 Y11.3816 Z-20.375
G1 Y11.3572 Z-20.4164
G1 Y11.3321 Z-20.4573
G1 Y11.3063 Z-20.4978
G1 Y11.2799 Z-20.5378
G1 Y11.2527 Z-20.5773
G1 Y11.2248 Z-20.6164
G1 Y11.1962 Z-20.655
G1 Y11.167 Z-20.6931
G1 Y11.1372 Z-20.7306
G1 Y11.1066 Z-20.7677
G1 Y11.0755 Z-20.8042
G1 Y11.0436 Z-20.8401
G1 Y11.0112 Z-20.8755
G1 Y10.9782 Z-20.9103
G1 Y10.9445 Z-20.9445
G1 Y10.9103 Z-20.9782
G1 Y10.8755 Z-21.0112
G1 Y10.8401 Z-21.0436
G1 Y10.8042 Z-21.0755
G1 Y10.7677 Z-21.1066
G1 Y10.7306 Z-21.1372
G1 Y10.6931 Z-21.167
G1 Y10.655 Z-21.1962
G1 Y10.6164 Z-21.2248
G1 Y10.5773 Z-21.2527
G1 Y10.5378 Z-21.2799
G1 Y10.4978 Z-21.3063
G1 Y10.4573 Z-21.3321
G1 Y10.4164 Z-21.3572
G1 Y10.375 Z-21.3816
G1 Y10.3332 Z-21.4052
G1 Y10.291 Z-21.4281
G1 Y10.2485 Z-21.4503
G1 Y10.2055 Z-21.4717
G1 Y10.1622 Z-21.4923
G1 Y10.1185 Z-21.5123
G1 Y10.0745 Z-21.5314
G1 Y10.0302 Z-21.5498
G1 Y9.9855 Z-21.5673
G1 Y9.9406 Z-21.5842
G1 Y9.8953 Z-21.6002
G1 Y9.8498 Z-21.6154
G1 Y9.804 Z-21.6298
G1 Y9.758 Z-21.6435
G1 Y9.7118 Z-21.6563
G1 Y9.6653 Z-21.6683
G1 Y9.6186 Z-21.6795
G1 Y9.5718 Z-21.6899
G1 Y9.5247 Z-21.6995
G1 Y9.4775 Z-21.7082
G1 Y9.4302 Z-21.7161
G1 Y9.3827 Z-21.7232
G1 Y9.3351 Z-21.7295
G1 Y9.2875 Z-21.7349
G1 Y9.2397 Z-21.7395
G1 Y9.1918 Z-21.7433
G1 Y9.1439 Z-21.7462
G1 Y9.096 Z-21.7483
G1 Y9.048 Z-21.7496
G1 Y9 Z-21.75
G1 X-3 F80 ( Plunge )
G1 F200 ( Set milling feed rate )
G1 Y9 Z-21.75
G1 Y9 Z-21.75
G1 Y8.952 Z-21.7496
G1 Y8.904 Z-21.7483
G1 Y8.8561 Z-21.7462
G1 Y8.8082 Z-21.7433
G1 Y8.7603 Z-21.7395
G1 Y8.7125 Z-21.7349
G1 Y8.6649 Z-21.7295
G1 Y8.6173 Z-21.7232
G1 Y8.5698 Z-21.7161
G1 Y8.5225 Z-21.7082
G1 Y8.4753 Z-21.6995
G1 Y8.4282 Z-21.6899
G1 Y8.3814 Z-21.6795
G1 Y8.3347 Z-21.6683
G1 Y8.2882 Z-21.6563
G1 Y8.242 Z-21.6435
G1 Y8.196 Z-21.6298
G1 Y8.1502 Z-21.6154
G1 Y8.1047 Z-21.6002
G1 Y8.0594 Z-21.5842
G1 Y8.0145 Z-21.5673
G1 Y7.9698 Z-21.5498
G1 Y7.9255 Z-21.5314
G1 Y7.8815 Z-21.5123
G1 Y7.8378 Z-21.4923
G1 Y7.7945 Z-21.4717
G1 Y7.7515 Z-21.4503
G1 Y7.709 Z-21.4281
G1 Y7.6668 Z-21.4052
G1 Y7.625 Z-21.3816
G1 Y7.5836 Z-21.3572
G1 Y7.5427 Z-21.3321
G1 Y7.5022 Z-21.3063
G1 Y7.4622 Z-21.2799
G1 Y7.4227 Z-21.2527
G1 Y7.3836 Z-21.2248
G1 Y7.345 Z-21.1962
G1 Y7.3069 Z-21.167
G1 Y7.2694 Z-21.1372
G1 Y7.2323 Z-21.1066
G1 Y7.1958 Z-21.0755
G1 Y7.1599 Z-21.0436
G1 Y7.1245 Z-21.0112
G1 Y7.0897 Z-20.9782
G1 Y7.0555 Z-20.9445
G1 Y7.0218 Z-20.9103
G1 Y6.9888 Z-20.8755
G1 Y6.9564 Z-20.8401
G1 Y6.9245 Z-20.8042
G1 Y6.8934 Z-20.7677
G1 Y6.8628 Z-20.7306
G1 Y6.833 Z-20.6931
G1 Y6.8038 Z-20.655
G1 Y6.7752 Z-20.6164
G1 Y6.7473 Z-20.5773
G1 Y6.7201 Z-20.5378
G1 Y6.6937 Z-20.4978
G1 Y6.6679 Z-20.4573
G1 Y6.6428 Z-20.4164
G1 Y6.6184 Z-20.375
G1 Y6.5948 Z-20.3332
G1 Y6.5719 Z-20.291
G1 Y6.5497 Z-20.2485
G1 Y6.5283 Z-20.2055
G1 Y6.5077 Z-20.1622
G1 Y6.4877 Z-20.1185
G1 Y6.4686 Z-20.0745
G1 Y6.4502 Z-20.0302
G1 Y6.4327 Z-19.9855
G1 Y6.4158 Z-19.9406
G1 Y6.3998 Z-19.8953
G1 Y6.3846 Z-19.8498
G1 Y6.3702 Z-19.804
G1 Y6.3565 Z-19.758
G1 Y6.3437 Z-19.7118
G1 Y6.3317 Z-19.6653
G1 Y6.3205 Z-19.6186
G1 Y6.3101 Z-19.5718
G1 Y6.3005 Z-19.5247
G1 Y6.2918 Z-19.4775
G1 Y6.2839 Z-19.4302
G1 Y6.2768 Z-19.3827
G1 Y6.2705 Z-19.3351
G1 Y6.2651 Z-19.2875
G1 Y6.2605 Z-19.2397
G1 Y6.2567 Z-19.1918
G1 Y6.2538 Z-19.1439
G1 Y6.2517 Z-19.096
G1 Y6.2504 Z-19.048
G1 Y6.25 Z-19
G1 Y6.2504 Z-18.952
G1 Y6.2517 Z-18.904
G1 Y6.2538 Z-18.8561
G1 Y6.2567 Z-18.8082
G1 Y6.2605 Z-18.7603
G1 Y6.2651 Z-18.7125
G1 Y6.2705 Z-18.6649
G1 Y6.2768 Z-18.6173
G1 Y6.2839 Z-18.5698
G1 Y6.2918 Z-18.5225
G1 Y6.3005 Z-18.4753
G1 Y6.3101 Z-18.4282
G1 Y6.3205 Z-18.3814
G1 Y6.3317 Z-18.3347
G1 Y6.3437 Z-18.2882
G1 Y6.3565 Z-18.242
G1 Y6.3702 Z-18.196
G1 Y6.3846 Z-18.1502
G1 Y6.3998 Z-18.1047
G1 Y6.4158 Z-18.0594
G1 Y6.4327 Z-18.0145
G1 Y6.4502 Z-17.9698
G1 Y6.4686 Z-17.9255
G1 Y6.4877 Z-17.8815
G1 Y6.5077 Z-17.8378
G1 Y6.5283 Z-17.7945
G1 Y6.5497 Z-17.7515
G1 Y6.5719 Z-17.709
G1 Y6.5948 Z-17.6668
G1 Y6.6184 Z-17.625
G1 Y6.6428 Z-17.5836
G1 Y6.6679 Z-17.5427
G1 Y6.6937 Z-17.5022
G1 Y6.7201 Z-17.4622
G1 Y6.7473 Z-17.4227
G1 Y6.7752 Z-17.3836
G1 Y6.8038 Z-17.345
G1 Y6.833 Z-17.3069
G1 Y6.8628 Z-17.2694
G1 Y6.8934 Z-17.2323
G1 Y6.9245 Z-17.1958
G1 Y6.9564 Z-17.1599
G1 Y6.9888 Z-17.1245
G1 Y7.0218 Z-17.0897
G1 Y7.0555 Z-17.0555
G1 Y7.0897 Z-17.0218
G1 Y7.1245 Z-16.9888
G1 Y7.1599 Z-16.9564
G1 Y7.1958 Z-16.9245
G1 Y7.2323 Z-16.8934
G1 Y7.2694 Z-16.8628
G1 Y7.3069 Z-16.833
G1 Y7.345 Z-16.8038
G1 Y7.3836 Z-16.7752
G1 Y7.4227 Z-16.7473
G1 Y7.4622 Z-16.7201
G1 Y7.5022 Z-16.6937
G1 Y7.5427 Z-16.6679
G1 Y7.5836 Z-16.6428
G1 Y7.625 Z-16.6184
G1 Y7.6668 Z-16.5948
G1 Y7.709 Z-16.5719
G1 Y7.7515 Z-16.5497
G1 Y7.7945 Z-16.5283
G1 Y7.8378 Z-16.5077
G1 Y7.8815 Z-16.4877
G1 Y7.9255 Z-16.4686
G1 Y7.9698 Z-16.4502
G1 Y8.0145 Z-16.4327
G1 Y8.0594 Z-16.4158
G1 Y8.1047 Z-16.3998
G1 Y8.1502 Z-16.3846
G1 Y8.196 Z-16.3702
G1 Y8.242 Z-16.3565
G1 Y8.2882 Z-16.3437
G1 Y8.3347 Z-16.3317
G1 Y8.3814 Z-16.3205
G1 Y8.4282 Z-16.3101
G1 Y8.4753 Z-16.3005
G1 Y8.5225 Z-16.2918
G1 Y8.5698 Z-16.2839
G1 Y8.6173 Z-16.2768
G1 Y8.6649 Z-16.2705
G1 Y8.7125 Z-16.2651
G1 Y8.7603 Z-16.2605
G1 Y8.8082 Z-16.2567
G1 Y8.8561 Z-16.2538
G1 Y8.904 Z-16.2517
G1 Y8.952 Z-16.2504
G1 Y9 Z-16.25
G1 Y9.048 Z-16.2504
G1 Y9.096 Z-16.2517
G1 Y9.1439 Z-16.2538
G1 Y9.1918 Z-16.2567
G1 Y9.2397 Z-16.2605
G1 Y9.2875 Z-16.2651
G1 Y9.3351 Z-16.2705
G1 Y9.3827 Z-16.2768
G1 Y9.4302 Z-16.2839
G1 Y9.4775 Z-16.2918
G1 Y9.5247 Z-16.3005
G1 Y9.5718 Z-16.3101
G1 Y9.6186 Z-16.3205
G1 Y9.6653 Z-16.3317
G1 Y9.7118 Z-16.3437
G1 Y9.758 Z-16.3565
G1 Y9.804 Z-16.3702
G1 Y9.8498 Z-16.3846
G1 Y9.8953 Z-16.3998
G1 Y9.9406 Z-16.4158
G1 Y9.9855 Z-16.4327
G1 Y10.0302 Z-16.4502
G1 Y10.0745 Z-16.4686
G1 Y10.1185 Z-16.4877
G1 Y10.1622 Z-16.5077
G1 Y10.2055 Z-16.5283
G1 Y10.2485 Z-16.5497
G1 Y10.291 Z-16.5719
G1 Y10.3332 Z-16.5948
G1 Y10.375 Z-16.6184
G1 Y10.4164 Z-16.6428
G1 Y10.4573 Z-16.6679
G1 Y10.4978 Z-16.6937
G1 Y10.5378 Z-16.7201
G1 Y10.5773 Z-16.7473
G1 Y10.6164 Z-16.7752
G1 Y10.655 Z-16.8038
G1 Y10.6931 Z-16.833
G1 Y10.7306 Z-16.8628
G1 Y10.7677 Z-16.8934
G1 Y10.8042 Z-16.9245
G1 Y10.8401 Z-16.9564
G1 Y10.8755 Z-16.9888
G1 Y10.9103 Z-17.0218
G1 Y10.9445 Z-17.0555
G1 Y10.9782 Z-17.0897
G1 Y11.0112 Z-17.1245
G1 Y11.0436 Z-17.1599
G1 Y11.0755 Z-17.1958
G1 Y11.1066 Z-17.2323
G1 Y11.1372 Z-17.2694
G1 Y11.167 Z-17.3069
G1 Y11.1962 Z-17.345
G1 Y11.2248 Z-17.3836
G1 Y11.2527 Z-17.4227
G1 Y11.2799 Z-17.4622
G1 Y11.3063 Z-17.5022
G1 Y11.3321 Z-17.5427
G1 Y11.3572 Z-17.5836
G1 Y11.3816 Z-17.625
G1 Y11.4052 Z-17.6668
G1 Y11.4281 Z-17.709
G1 Y11.4503 Z-17.7515
G1 Y11.4717 Z-17.7945
G1 Y11.4923 Z-17.8378
G1 Y11.5123 Z-17.8815
G1 Y11.5314 Z-17.9255
G1 Y11.5498 Z-17.9698
G1 Y11.5673 Z-18.0145
G1 Y11.5842 Z-18.0594
G1 Y11.6002 Z-18.1047
G1 Y11.6154 Z-18.1502
G1 Y11.6298 Z-18.196
G1 Y11.6435 Z-18.242
G1 Y11.6563 Z-18.2882
G1 Y11.6683 Z-18.3347
G1 Y11.6795 Z-18.3814
G1 Y11.6899 Z-18.4282
G1 Y11.6995 Z-18.4753
G1 Y11.7082 Z-18.5225
G1 Y11.7161 Z-18.5698
G1 Y11.7232 Z-18.6173
G1 Y11.7295 Z-18.6649
G1 Y11.7349 Z-18.7125
G1 Y11.7395 Z-18.7603
G1 Y11.7433 Z-18.8082
G1 Y11.7462 Z-18.8561
G1 Y11.7483 Z-18.904
G1 Y11.7496 Z-18.952
G1 Y11.75 Z-19
G1 Y11.7496 Z-19.048
G1 Y11.7483 Z-19.096
G1 Y11.7462 Z-19.1439
G1 Y11.7433 Z-19.1918
G1 Y11.7395 Z-19.2397
G1 Y11.7349 Z-19.2875
G1 Y11.7295 Z-19.3351
G1 Y11.7232 Z-19.3827
G1 Y11.7161 Z-19.4302
G1 Y11.7082 Z-19.4775
G1 Y11.6995 Z-19.5247
G1 Y11.6899 Z-19.5718
G1 Y11.6795 Z-19.6186
G1 Y11.6683 Z-19.6653
G1 Y11.6563 Z-19.7118
G1 Y11.6435 Z-19.758
G1 Y11.6298 Z-19.804
G1 Y11.6154 Z-19.8498
G1 Y11.6002 Z-19.8953
G1 Y11.5842 Z-19.9406
G1 Y11.5673 Z-19.9855
G1 Y11.5498 Z-20.0302
G1 Y11.5314 Z-20.0745
G1 Y11.5123 Z-20.1185
G1 Y11.4923 Z-20.1622
G1 Y11.4717 Z-20.2055
G1 Y11.4503 Z-20.2485
G1 Y11.4281 Z-20.291
G1 Y11.4052 Z-20.3332
G1 Y11.3816 Z-20.375
G1 Y11.3572 Z-20.4164
G1 Y11.3321 Z-20.4573
G1 Y11.3063 Z-20.4978
G1 Y11.2799 Z-20.5378
G1 Y11.2527 Z-20.5773
G1 Y11.2248 Z-20.6164
G1 Y11.1962 Z-20.655
G1 Y11.167 Z-20.6931
G1 Y11.1372 Z-20.7306
G1 Y11.1066 Z-20.7677
G1 Y11.0755 Z-20.8042
G1 Y11.0436 Z-20.8401
G1 Y11.0112 Z-20.8755
G1 Y10.9782 Z-20.9103
G1 Y10.9445 Z-20.9445
G1 Y10.9103 Z-20.9782
G1 Y10.8755 Z-21.0112
G1 Y10.8401 Z-21.0436
G1 Y10.8042 Z-21.0755
G1 Y10.7677 Z-21.1066
G1 Y10.7306 Z-21.1372
G1 Y10.6931 Z-21.167
G1 Y10.655 Z-21.1962
G1 Y10.6164 Z-21.2248
G1 Y10.5773 Z-21.2527
G1 Y10.5378 Z-21.2799
G1 Y10.4978 Z-21.3063
G1 Y10.4573 Z-21.3321
G1 Y10.4164 Z-21.3572
G1 Y10.375 Z-21.3816
G1 Y10.3332 Z-21.4052
G1 Y10.291 Z-21.4281
G1 Y10.2485 Z-21.4503
G1 Y10.2055 Z-21.4717
G1 Y10.1622 Z-21.4923
G1 Y10.1185 Z-21.5123
G1 Y10.0745 Z-21.5314
G1 Y10.0302 Z-21.5498
G1 Y9.9855 Z-21.5673
G1 Y9.9406 Z-21.5842
G1 Y9.8953 Z-21.6002
G1 Y9.8498 Z-21.6154
G1 Y9.804 Z-21.6298
G1 Y9.758 Z-21.6435
G1 Y9.7118 Z-21.6563
G1 Y9.6653 Z-21.6683
G1 Y9.6186 Z-21.6795
G1 Y9.5718 Z-21.6899
G1 Y9.5247 Z-21.6995
G1 Y9.4775 Z-21.7082
G1 Y9.4302 Z-21.7161
G1 Y9.3827 Z-21.7232
G1 Y9.3351 Z-21.7295
G1 Y9.2875 Z-21.7349
G1 Y9.2397 Z-21.7395
G1 Y9.1918 Z-21.7433
G1 Y9.1439 Z-21.7462
G1 Y9.096 Z-21.7483
G1 Y9.048 Z-21.7496
G1 Y9 Z-21.75
G0 X3 ( Retract )
G0 Y0 Z-18
G1 X-3 F80 ( Plunge )
G0 X3 ( Retract )
G0 Z3 ( Retract )
M5 ( Spindle off )
G4 P1 ( Wait for spindle to stop )
M9 ( Coolant off )
M2 ( Program end )
( end, rd=304.928 mm, rt=0.317167 min, md=348.836 mm, mt=1.87918 min )
