G94 ( Millimeters per minute feed rate )
G21 ( Units == Millimeters )
G90 ( Absolute coordinates )
G0 S10000 ( RPM spindle speed )
G1 F100 ( Feedrate )
G0 Z3 ( Retract to tool change height )
T0
M5 ( Spindle stop )
G4 P1 ( Wait for spindle to stop )
( MSG, Change tool bit to cutter diameter 1mm) )
M0 ( Temporary machine stop )
M3 ( Spindle on clockwise )
G4 P1 ( Wait for spindle to get up to speed )
G0 Z2 ( Retract )

G00 X-12.654187074 Y-8.112189066

( 1st "e" )

G01 Z-0.001 F100.0(Penetrate)
G02 X-13.535405122 Y-7.556260544 Z-0.001 I0.319688982 J1.483133636 F400.000000
G02 X-13.998701592 Y-6.370787392 Z-0.001 I1.79205586 J1.38362375
G02 X-13.658066082 Y-4.751447868 Z-0.001 I2.835212692 J0.24909725
G02 X-12.717586918 Y-4.03846973 Z-0.001 I1.268873764 J-0.696977832
G02 X-12.326926872 Y-3.993399126 Z-0.001 I0.392203074 J-1.683914886
G02 X-11.926248966 Y-4.03775013 Z-0.001 I0.00162167 J-1.817445404
G02 X-11.390011784 Y-4.301296948 Z-0.001 I-0.281388272 J-1.249851138
G02 X-10.988730956 Y-4.814933036 Z-0.001 I-0.972994804 J-1.17372671
G02 X-10.837060864 Y-5.265573798 Z-0.001 I-1.744957526 J-0.838135082
G02 X-10.75236857 Y-5.971833956 Z-0.001 I-4.244674708 J-0.867216174
G01 X-10.73544255 Y-6.427131044 Z-0.001
G01 X-11.66496015 Y-6.427131044 Z-0.001
G01 X-12.594477236 Y-6.427131044 Z-0.001
G01 X-12.594477236 Y-6.503252902 Z-0.001
G03 X-12.489082564 Y-6.769568638 Z-0.001 I0.389165334 J-0.0
G03 X-12.245630062 Y-6.874963824 Z-0.001 I0.243452502 J0.228477112
G03 X-12.059828828 Y-6.822010002 Z-0.001 I-0.0 J0.352441062
G03 X-11.91279039 Y-6.668470492 Z-0.001 I-0.22496752 J0.362618262
G02 X-11.839682628 Y-6.559997988 Z-0.001 I0.704629236 J-0.396028262
G01 X-11.823545084 Y-6.556756704 Z-0.001
G02 X-10.942073634 Y-7.052800114 Z-0.001 I-19.9644025 J-36.50805019
G02 X-10.776940854 Y-7.162636774 Z-0.001 I-0.798991926 J-1.380287376
G01 X-10.77477897 Y-7.172901868 Z-0.001
G02 X-10.905317494 Y-7.39526238 Z-0.001 I-4.259156658 J2.350879744
G02 X-11.388051388 Y-7.891956 Z-0.001 I-1.385251074 J0.86338893
G02 X-12.006991684 Y-8.126306076 Z-0.001 I-0.824011904 J1.241776712
G02 X-12.359609048 Y-8.146816732 Z-0.001 I-0.304315756 J2.190451606
G02 X-12.654188616 Y-8.112171076 Z-0.001 I0.034065864 J1.559332594
G01 X-12.654187074 Y-8.112189066 Z-0.001
G00 Z2

(Change tool to Default tool)

G00 Z2
G00 X-12.057076872 Y-5.472374502

G01 Z-0.001 F100.0(Penetrate)
G03 X-12.115030886 Y-5.226427044 Z-0.001 I-0.550857398 J0.0 F400.000000
G03 X-12.236127744 Y-5.113538252 Z-0.001 I-0.211589128 J-0.10557817
G03 X-12.436855538 Y-5.149976226 Z-0.001 I-0.072081818 J-0.17401984
G03 X-12.612648678 Y-5.465605122 Z-0.001 I0.40345402 J-0.431477814
G01 X-12.631795178 Y-5.561337108 Z-0.001
G01 X-12.344435768 Y-5.561337108 Z-0.001
G01 X-12.057076872 Y-5.561337108 Z-0.001
G01 X-12.057076872 Y-5.472374502 Z-0.001
G00 Z2

( 2nd "l" )

G00 Z2
G00 X-10.23589109 Y-5.277709852

G01 Z-0.001 F100.0(Penetrate)
G01 X-10.23589109 Y-2.545930408 Z-0.001 F400.000000
G01 X-9.474575364 Y-2.545930408 Z-0.001
G01 X-8.713260152 Y-2.545930408 Z-0.001
G01 X-8.713260152 Y-5.277709852 Z-0.001
G01 X-8.713260152 Y-8.009488782 Z-0.001
G01 X-9.474575364 Y-8.009488782 Z-0.001
G01 X-10.23589109 Y-8.009488782 Z-0.001
G01 X-10.23589109 Y-5.277709852 Z-0.001
G00 Z2

( 3rd "e" )

G00 Z2
G00 X-6.83236299 Y-8.112189066

G01 Z-0.001 F100.0(Penetrate)
G02 X-7.713581038 Y-7.556260544 Z-0.001 I0.319688982 J1.48313415 F400.000000
G02 X-8.176878022 Y-6.370787392 Z-0.001 I1.792057402 J1.383625292
G02 X-7.836242512 Y-4.751447868 Z-0.001 I2.835212692 J0.24909725
G02 X-6.895763348 Y-4.03846973 Z-0.001 I1.268873764 J-0.696977832
G02 X-6.505102788 Y-3.993399126 Z-0.001 I0.392203074 J-1.683916942
G02 X-6.104425396 Y-4.03775013 Z-0.001 I0.00162167 J-1.817438722
G02 X-5.568188214 Y-4.301296948 Z-0.001 I-0.281388272 J-1.249851138
G02 X-5.166907386 Y-4.814933036 Z-0.001 I-0.972994804 J-1.17372671
G02 X-5.015237294 Y-5.265573798 Z-0.001 I-1.744959582 J-0.83813611
G02 X-4.930544486 Y-5.971833956 Z-0.001 I-4.244691156 J-0.867221314
G01 X-4.913618466 Y-6.42713053 Z-0.001
G01 X-5.843136066 Y-6.42713053 Z-0.001
G01 X-6.772653152 Y-6.42713053 Z-0.001
G01 X-6.772653152 Y-6.503251874 Z-0.001
G03 X-6.667257966 Y-6.769568638 Z-0.001 I0.38916739 J0.0
G03 X-6.423805978 Y-6.874963824 Z-0.001 I0.243451988 J0.228476598
G03 X-6.238004744 Y-6.822010002 Z-0.001 I0.0 J0.352441062
G03 X-6.090966306 Y-6.668470492 Z-0.001 I-0.22496752 J0.362618262
G02 X-6.01785803 Y-6.559997474 Z-0.001 I0.704612788 J-0.39601901
G01 X-6.001721 Y-6.556756704 Z-0.001
G02 X-5.120243896 Y-7.052801142 Z-0.001 I-19.967350804 J-36.513441536
G02 X-4.95511677 Y-7.162636774 Z-0.001 I-0.798779644 J-1.379931688
G01 X-4.952954886 Y-7.172901868 Z-0.001
G02 X-5.08349341 Y-7.39526238 Z-0.001 I-4.259156658 J2.350879744
G02 X-5.566227818 Y-7.891956 Z-0.001 I-1.385251588 J0.863389444
G02 X-6.185167086 Y-8.126306076 Z-0.001 I-0.82401139 J1.24177517
G02 X-6.537784964 Y-8.146816732 Z-0.001 I-0.30431627 J2.190458802
G02 X-6.832364018 Y-8.112171076 Z-0.001 I0.03406535 J1.559325912
G01 X-6.83236299 Y-8.112189066 Z-0.001
G00 Z2

(Change tool to Default tool)

G00 Z2
G00 X-6.235252788 Y-5.472374502

G01 Z-0.001 F100.0(Penetrate)
G03 X-6.293206802 Y-5.226427558 Z-0.001 I-0.55085637 J-0.0 F400.000000
G03 X-6.414304174 Y-5.113538252 Z-0.001 I-0.211589128 J-0.10557817
G03 X-6.615031968 Y-5.149976226 Z-0.001 I-0.072081818 J-0.174019326
G03 X-6.790825108 Y-5.465605122 Z-0.001 I0.403456076 J-0.431479356
G01 X-6.809971608 Y-5.561337108 Z-0.001
G01 X-6.522612198 Y-5.561337108 Z-0.001
G01 X-6.235252788 Y-5.561337108 Z-0.001
G01 X-6.235252788 Y-5.472374502 Z-0.001
G00 Z2

( 4th "c" )

G00 Z2
G00 X-3.324038 Y-8.095791438

G01 Z-0.001 F100.0(Penetrate)
G02 X-4.133160352 Y-7.57951596 Z-0.001 I0.267355558 J1.311186244 F400.000000
G02 X-4.592157726 Y-6.37848814 Z-0.001 I1.931762602 J1.426484154
G02 X-4.421203896 Y-5.013223956 Z-0.001 I3.158415378 J0.297848608
G02 X-3.838103792 Y-4.268057596 Z-0.001 I1.412766522 J-0.504779354
G02 X-3.02769387 Y-4.016296798 Z-0.001 I0.835213506 J-1.25830284
G02 X-2.219687412 Y-4.241473516 Z-0.001 I0.024233044 J-1.475325462
G01 X-2.07040999 Y-4.335062122 Z-0.001
G01 X-2.06114257 Y-4.231666396 Z-0.001
G01 X-2.05187515 Y-4.128271184 Z-0.001
G01 X-1.829760844 Y-4.128271184 Z-0.001
G01 X-1.607647052 Y-4.128271184 Z-0.001
G01 X-1.607647052 Y-3.695365992 Z-0.001
G01 X-1.607647052 Y-3.262461314 Z-0.001
G01 X-0.906042706 Y-3.262461314 Z-0.001
G01 X-0.20443836 Y-3.262461314 Z-0.001
G01 X-0.20443836 Y-3.695365992 Z-0.001
G01 X-0.20443836 Y-4.128271184 Z-0.001
G01 X0.123972174 Y-4.128271184 Z-0.001
G01 X0.452382708 Y-4.128271184 Z-0.001
G01 X0.452382708 Y-4.710453284 Z-0.001
G01 X0.452382708 Y-5.292635898 Z-0.001
G01 X0.121448434 Y-5.292635898 Z-0.001
G01 X-0.20948584 Y-5.292635898 Z-0.001
G01 X-0.1993292 Y-5.941993172 Z-0.001
G03 X-0.167948472 Y-6.585757612 Z-0.001 I9.747937012 J0.15251922
G03 X-0.13850244 Y-6.684175762 Z-0.001 I0.246792474 J0.020224872
G03 X-0.003652484 Y-6.80329886 Z-0.001 I0.231819654 J0.126537034
G03 X0.245025856 Y-6.835566238 Z-0.001 I0.18834502 J0.477146714
G01 X0.393922918 Y-6.817930898 Z-0.001
G01 X0.385832558 Y-7.406137592 Z-0.001
G01 X0.377742198 Y-7.994343772 Z-0.001
G01 X0.258319952 Y-8.034970332 Z-0.001
G02 X-0.20527104 Y-8.119923738 Z-0.001 I-0.51932761 J1.526586682
G02 X-0.714414254 Y-8.068616772 Z-0.001 I-0.065707704 J1.89983652
G02 X-1.045948366 Y-7.945310742 Z-0.001 I0.342862158 J1.429206298
G02 X-1.26949262 Y-7.781962056 Z-0.001 I0.413173246 J0.800068242
G02 X-1.477553138 Y-7.393721922 Z-0.001 I0.538408832 J0.538407804
G02 X-1.60660723 Y-6.106200238 Z-0.001 I6.44195686 J1.295934322
G01 X-1.60763523 Y-5.29263744 Z-0.001
G01 X-1.83155162 Y-5.29263744 Z-0.001
G01 X-2.05546801 Y-5.29263744 Z-0.001
G01 X-2.05706141 Y-4.897051732 Z-0.001
G01 X-2.05865481 Y-4.501466538 Z-0.001
G01 X-2.309481156 Y-4.998475754 Z-0.001
G01 X-2.560306988 Y-5.49548497 Z-0.001
G01 X-2.6800474 Y-5.436242358 Z-0.001
G03 X-2.883893632 Y-5.410421568 Z-0.001 I-0.139195312 J-0.281339956
G03 X-3.067700546 Y-5.517835232 Z-0.001 I0.069401822 J-0.329733056
G03 X-3.170866 Y-5.709084352 Z-0.001 I0.364607956 J-0.320130508
G03 X-3.219525352 Y-6.068880754 Z-0.001 I1.305875596 J-0.359796402
G03 X-3.170864972 Y-6.42867767 Z-0.001 I1.354511304 J0.0
G03 X-3.067700546 Y-6.619926276 Z-0.001 I0.467787288 J0.12888807
G03 X-2.883826812 Y-6.72700584 Z-0.001 I0.251931446 J0.221198872
G03 X-2.67830237 Y-6.70065563 Z-0.001 I0.064539382 J0.31130667
G01 X-2.556816928 Y-6.640549498 Z-0.001
G01 X-2.291227474 Y-7.186709964 Z-0.001
G02 X-2.031403558 Y-7.734198092 Z-0.001 I-28.637527476 J-13.926035356
G02 X-2.025637506 Y-7.76037714 Z-0.001 I-0.056545654 J-0.026179048
G02 X-2.073798278 Y-7.843459072 Z-0.001 I-0.09574278 J0.0
G02 X-2.526040664 Y-8.046965036 Z-0.001 I-1.268977592 J2.215741434
G02 X-2.920110072 Y-8.124121062 Z-0.001 I-0.487062288 J1.44272347
G02 X-3.324048794 Y-8.095789896 Z-0.001 I-0.09456315 J1.545544544
G01 X-3.324038 Y-8.095791438 Z-0.001
G00 Z2

( 6th "r" )

G00 Z2
G00 X0.810646362 Y-6.068880754

G01 Z-0.001 F100.0(Penetrate)
G01 X0.810646362 Y-4.128272726 Z-0.001 F400.000000
G01 X1.511169766 Y-4.128272726 Z-0.001
G01 X2.21169317 Y-4.128272726 Z-0.001
G01 X2.22023585 Y-4.419363776 Z-0.001
G01 X2.22877853 Y-4.710454826 Z-0.001
G01 X2.320840556 Y-4.516195208 Z-0.001
G02 X2.521443448 Y-4.216332234 Z-0.001 I1.112584868 J-0.527267882
G02 X2.720492004 Y-4.075546092 Z-0.001 I0.416479808 J-0.377730376
G02 X3.076404108 Y-3.99277256 Z-0.001 I0.421184964 J-1.004457258
G02 X3.216126784 Y-4.045800912 Z-0.001 I0.010916332 J-0.1818275
G02 X3.224590822 Y-4.067648482 Z-0.001 I-0.020492152 J-0.020502432
G02 X3.181971484 Y-4.781244448 Z-0.001 I-26.974948216 J1.253010182
G01 X3.129596426 Y-5.49846874 Z-0.001
G01 X2.943561322 Y-5.48109554 Z-0.001
G03 X2.676134318 Y-5.499422724 Z-0.001 I-0.07748293 J-0.829676698
G03 X2.51045824 Y-5.582485638 Z-0.001 I0.090805296 J-0.387877764
G03 X2.391135196 Y-5.795726762 Z-0.001 I0.222632418 J-0.264583042
G03 X2.304072848 Y-6.957083034 Z-0.001 I7.767626082 J-1.16625058
G01 X2.303404648 Y-8.00948981 Z-0.001
G01 X1.557017024 Y-8.00948981 Z-0.001
G01 X0.8106294 Y-8.00948981 Z-0.001
G01 X0.810646362 Y-6.068880754 Z-0.001
G00 Z2

( 7th "o" )

G00 Z2
G00 X4.744508868 Y-8.129850106

G01 Z-0.001 F100.0(Penetrate)
G02 X3.942101412 Y-7.7231841 Z-0.001 I0.28243272 J1.552240936 F400.000000
G02 X3.412195168 Y-6.868171314 Z-0.001 I1.356456794 J1.432398238
G02 X3.292608442 Y-6.06888024 Z-0.001 I2.611342048 J0.799291074
G02 X3.412195168 Y-5.26958968 Z-0.001 I2.730928774 J-0.0
G02 X3.762470234 Y-4.596345798 Z-0.001 I1.996979436 J-0.611244688
G02 X4.258957226 Y-4.18404738 Z-0.001 I1.190788426 J-0.928857624
G02 X4.620537722 Y-4.050626858 Z-0.001 I0.715114322 J-1.381352384
G02 X5.03520054 Y-4.002879342 Z-0.001 I0.414662818 J-1.776690344
G02 X5.914611364 Y-4.25572211 Z-0.001 I0.0 J-1.655758994
G02 X6.521446446 Y-4.934524902 Z-0.001 I-0.87072371 J-1.389058272
G02 X6.69902882 Y-5.4564955 Z-0.001 I-2.072831958 J-0.996401336
G02 X6.763737822 Y-6.083808342 Z-0.001 I-2.94422798 J-0.620700232
G02 X6.599010074 Y-7.032533608 Z-0.001 I-2.850954456 J0.006348928
G02 X6.199856692 Y-7.66969469 Z-0.001 I-1.637459566 J0.582190324
G02 X5.877994518 Y-7.925500668 Z-0.001 I-1.20785374 J1.189363104
G02 X5.528760302 Y-8.081124962 Z-0.001 I-0.76623522 J1.249831092
G02 X5.126272088 Y-8.15238695 Z-0.001 I-0.514692358 J1.734724814
G02 X4.744508868 Y-8.129852162 Z-0.001 I-0.098224372 J1.580971994
G01 X4.744508868 Y-8.129850106 Z-0.001
G00 Z2

(Change tool to Default tool)

G00 Z2
G00 X5.210755184 Y-6.76592078

G01 Z-0.001 F100.0(Penetrate)
G03 X5.324167228 Y-6.556570122 Z-0.001 I-0.295448742 J0.295448742 F400.000000
G03 X5.373313852 Y-5.993966796 Z-0.001 I-2.300258454 J0.484390002
G03 X5.33691597 Y-5.63597659 Z-0.001 I-2.644746908 J-0.088052826
G03 X5.28604796 Y-5.483661428 Z-0.001 I-0.519462792 J-0.088831022
G03 X5.060914418 Y-5.320630908 Z-0.001 I-0.27353024 J-0.14076404
G03 X4.836592996 Y-5.412059686 Z-0.001 I-0.036755626 J-0.23072175
G03 X4.683094092 Y-5.834468998 Z-0.001 I0.630434878 J-0.468187694
G03 X4.768708502 Y-6.574544188 Z-0.001 I2.154137506 J-0.125791734
G03 X4.977801132 Y-6.810339632 Z-0.001 I0.35708608 J0.106042826
G03 X5.210755184 Y-6.76592078 Z-0.001 I0.08380256 J0.193569316
G01 X5.210755184 Y-6.76592078 Z-0.001
G00 Z2

( 8th "n" )

G00 Z2
G00 X7.31914669 Y-6.068880754

G01 Z-0.001 F100.0(Penetrate)
G01 X7.31914669 Y-4.128272726 Z-0.001 F400.000000
G01 X8.034471752 Y-4.128272726 Z-0.001
G01 X8.7497963 Y-4.128272726 Z-0.001
G01 X8.75853944 Y-4.374580498 Z-0.001
G03 X8.779559984 Y-4.559373264 Z-0.001 I1.195908894 J0.042445092
G01 X8.79462738 Y-4.561177404 Z-0.001
G02 X9.0485845 Y-4.219518006 Z-0.001 I0.929467742 J-0.425664474
G02 X9.392048038 Y-4.035239754 Z-0.001 I0.566300528 J-0.643270486
G02 X9.786812888 Y-3.992634294 Z-0.001 I0.3332519 J-1.23760406
G02 X10.123146218 Y-4.070366514 Z-0.001 I-0.046495412 J-0.967670792
G02 X10.44425641 Y-4.32775921 Z-0.001 I-0.305471228 J-0.710086374
G02 X10.693447722 Y-4.859730706 Z-0.001 I-1.276707638 J-0.9223987
G02 X10.714881522 Y-5.01118903 Z-0.001 I-0.67551165 J-0.17284278
G02 X10.744061302 Y-6.50924717 Z-0.001 I-66.872568836 J-2.051873608
G01 X10.756479542 Y-8.009486726 Z-0.001
G01 X10.023042148 Y-8.009486726 Z-0.001
G01 X9.289604754 Y-8.009486726 Z-0.001
G01 X9.289604754 Y-6.76952392 Z-0.001
G03 X9.21422871 Y-5.404901722 Z-0.001 I-12.390397134 J0.0
G03 X9.127366822 Y-5.305389266 Z-0.001 I-0.115037826 J-0.0127472
G03 X8.964274108 Y-5.31727603 Z-0.001 I-0.063531428 J-0.25311673
G03 X8.849779066 Y-5.419953698 Z-0.001 I0.088065162 J-0.213375792
G03 X8.820972964 Y-5.522772716 Z-0.001 I0.208166402 J-0.113765162
G03 X8.787739266 Y-6.76301925 Z-0.001 I31.995370742 J-1.477917564
G01 X8.778492406 Y-8.009486726 Z-0.001
G01 X8.048818006 Y-8.009486726 Z-0.001
G01 X7.319143606 Y-8.009486726 Z-0.001
G01 X7.31914669 Y-6.068880754 Z-0.001
G00 Z2

( 9th "i" )

G00 Z2
G00 X11.439206724 Y-6.068880754

G01 Z-0.001 F100.0(Penetrate)
G01 X11.439206724 Y-4.128272726 Z-0.001 F400.000000
G01 X12.17066676 Y-4.128272726 Z-0.001
G01 X12.902126282 Y-4.128272726 Z-0.001
G01 X12.902126282 Y-6.068880754 Z-0.001
G01 X12.902126282 Y-8.009488782 Z-0.001
G01 X12.17066676 Y-8.009488782 Z-0.001
G01 X11.439206724 Y-8.009488782 Z-0.001
G01 X11.439206724 Y-6.068880754 Z-0.001
G00 Z2

(Change tool to Default tool)

G00 Z2
G00 X11.927037956 Y-3.876444594

G01 Z-0.001 F100.0(Penetrate)
G02 X11.620185096 Y-3.689101874 Z-0.001 I0.221198872 J0.707278392 F400.000000
G02 X11.437520804 Y-3.379286318 Z-0.001 I0.52844597 J0.520323228
G02 X11.398130928 Y-3.0814557 Z-0.001 I0.925221588 J0.273886956
G02 X11.452159524 Y-2.789541736 Z-0.001 I0.941935326 J-0.023380832
G02 X12.170668816 Y-2.282217054 Z-0.001 I0.718509292 J-0.25513932
G02 X12.889177594 Y-2.789541736 Z-0.001 I0.0 J-0.762464002
G02 X12.943205162 Y-3.0814557 Z-0.001 I-0.887920608 J-0.315293768
G02 X12.903816314 Y-3.379286318 Z-0.001 I-0.96464436 J-0.023942634
G02 X12.53256131 Y-3.825553454 Z-0.001 I-0.704551622 J0.20856578
G02 X11.927042068 Y-3.876444594 Z-0.001 I-0.36520214 J0.7175183
G01 X11.927037956 Y-3.876444594 Z-0.001
G00 Z2

( 10th "c" )

G00 Z2
G00 X14.708689278 Y-8.095791438

G01 Z-0.001 F100.0(Penetrate)
G02 X13.899565384 Y-7.579515446 Z-0.001 I0.267355558 J1.3111883 F400.000000
G02 X13.44056801 Y-6.37848814 Z-0.001 I1.931760032 J1.426483126
G02 X13.72099356 Y-4.825097386 Z-0.001 I2.918212384 J0.275197656
G02 X14.54579137 Y-4.097656316 Z-0.001 I1.28039199 J-0.620440148
G02 X15.011286732 Y-4.019362294 Z-0.001 I0.476384966 J-1.40939314
G02 X15.485353044 Y-4.090778996 Z-0.001 I0.011232956 J-1.534575784
G02 X15.950176608 Y-4.297518534 Z-0.001 I-0.685579368 J-2.167340624
G02 X16.007099024 Y-4.396915854 Z-0.001 I-0.058322552 J-0.09939732
G02 X16.000579962 Y-4.425916248 Z-0.001 I-0.067765246 J0.0
G02 X15.739775848 Y-4.961477006 Z-0.001 I-24.590280682 J11.643547424
G01 X15.472452672 Y-5.495497306 Z-0.001
G01 X15.35270198 Y-5.43624904 Z-0.001
G03 X15.148843926 Y-5.410424652 Z-0.001 I-0.139207648 J-0.281365142
G03 X14.965037526 Y-5.517835746 Z-0.001 I0.06939257 J-0.329721234
G03 X14.861871558 Y-5.709084866 Z-0.001 I0.364597162 J-0.320125368
G03 X14.813213234 Y-6.068881268 Z-0.001 I1.30589924 J-0.359796402
G03 X14.861871044 Y-6.428677156 Z-0.001 I1.354563218 J-0.0
G03 X14.965037526 Y-6.61992679 Z-0.001 I0.46776056 J0.128874706
G03 X15.148909718 Y-6.72700584 Z-0.001 I0.251930418 J0.221196816
G03 X15.354433646 Y-6.700656144 Z-0.001 I0.064539382 J0.311304614
G01 X15.475919088 Y-6.640550012 Z-0.001
G01 X15.741510598 Y-7.186710478 Z-0.001
G02 X16.001332972 Y-7.734198606 Z-0.001 I-28.639072046 J-13.92668865
G02 X16.007099024 Y-7.760377654 Z-0.001 I-0.056546168 J-0.026179048
G02 X15.958938252 Y-7.843459586 Z-0.001 I-0.09574278 J0.0
G02 X15.506696894 Y-8.04696555 Z-0.001 I-1.268978106 J2.215739378
G02 X15.112624402 Y-8.124121576 Z-0.001 I-0.487065372 J1.442736834
G02 X14.708689278 Y-8.09579041 Z-0.001 I-0.094561094 J1.545519872
G01 X14.708689278 Y-8.095791438 Z-0.001
G00 Z2

( 1st "M" )

G00 Z2
G00 X15.699892018 Y-2.08316747

G01 Z-0.001 F100.0(Penetrate)

G01 X14.009917586 Y-2.09095971 Z-0.001 F400.000000
G02 X12.330074094 Y-2.078598524 Z-0.001 I-0.323602578 J70.172634904
G02 X12.289784204 Y-2.05772447 Z-0.001 I0.000990478 J0.051230894
G02 X12.262569446 Y-2.014838366 Z-0.001 I0.299283696 J0.219997654
G02 X11.439354756 Y-0.48998335 Z-0.001 I379.704748688 J205.973679542
G03 X10.60551363 Y1.014033078 Z-0.001 I-57.384301026 J-30.831257374
G03 X10.566385894 Y1.036732346 Z-0.001 I-0.039127736 J-0.022372878
G03 X10.53959313 Y1.010825204 Z-0.001 I0.0 J-0.02680767
G03 X10.513685988 Y-0.53068187 Z-0.001 I45.847774056 J-1.541507074
G01 X10.513685988 Y-2.098096086 Z-0.001
G01 X9.095549194 Y-2.098096086 Z-0.001
G01 X7.677412914 Y-2.098096086 Z-0.001
G01 X7.676230714 Y2.10406671 Z-0.001
G03 X7.655886594 Y6.227037526 Z-0.001 I-443.279238066 J-0.125762436
G01 X7.636668134 Y6.231590538 Z-0.001
G03 X7.603142484 Y6.154842114 Z-0.001 I0.592412242 J-0.304476124
G03 X6.107768966 Y2.029216488 Z-0.001 I1717.36136458 J-624.808358496
G01 X4.617234244 Y-2.098519108 Z-0.001
G01 X2.84247397 Y-2.090845088 Z-0.001
G01 X1.067713696 Y-2.083171068 Z-0.001
G01 X-0.401327088 Y2.06127107 Z-0.001
G03 X-1.875067374 Y6.202748456 Z-0.001 I-1680.26295404 J-595.586734784
G03 X-1.888280772 Y6.223626622 Z-0.001 I-0.05303966 J-0.018947582
G01 X-1.897246474 Y6.219935588 Z-0.001
G03 X-1.906193672 Y2.071720176 Z-0.001 I961.610638452 J-4.148215412
G01 X-1.906193672 Y-2.09809917 Z-0.001
G01 X-3.3382758 Y-2.09809917 Z-0.001
G01 X-4.770347134 Y-2.09809917 Z-0.001
G01 X-4.755590194 Y-1.568163628 Z-0.001
G03 X-4.695897832 Y1.061049172 Z-0.001 I-255.756296302 J7.121872976
G03 X-4.682707564 Y2.581751582 Z-0.001 I-85.550309574 J1.502441018
G03 X-4.70019333 Y2.84048479 Z-0.001 I-1.92717361 J-0.00028527
G01 X-4.720147324 Y2.857915044 Z-0.001
G03 X-4.744819838 Y2.840337786 Z-0.001 I0.0 J-0.026105032
G03 X-5.576760706 Y0.37953246 Z-0.001 I181.379188172 J-62.69109197
G01 X-6.39599498 Y-2.098850124 Z-0.001
G01 X-7.441957224 Y-2.091011624 Z-0.001
G01 X-8.487919982 Y-2.083173124 Z-0.001
G01 X-9.26867673 Y0.320195272 Z-0.001
G03 X-10.117785712 Y2.866889998 Z-0.001 I-165.356298554 J-53.717557638
G01 X-10.141298642 Y2.87159464 Z-0.001
G03 X-10.161416602 Y2.81666346 Z-0.001 I0.060041368 J-0.053139376
G03 X-10.043722424 Y-1.49352723 Z-0.001 I435.46653367 J9.734181858
G01 X-10.024216124 Y-2.098101226 Z-0.001
G01 X-11.398912722 Y-2.098101226 Z-0.001
G01 X-12.773608806 Y-2.098101226 Z-0.001
G01 X-12.773608806 Y2.305807084 Z-0.001

G01 X-12.773608806 Y6.70971231 Z-0.001
G01 X-10.84450307 Y6.70203315 Z-0.001
G01 X-8.915396306 Y6.69434885 Z-0.001
G01 X-8.120789314 Y4.328299938 Z-0.001
G03 X-7.315884846 Y1.976599336 Z-0.001 I204.372745844 J68.63600826
G01 X-7.295725252 Y1.962307052 Z-0.001
G01 X-7.276154702 Y1.976840916 Z-0.001
G03 X-6.57668654 Y4.328355964 Z-0.001 I-198.586967038 J60.3503334
G01 X-5.888104384 Y6.69434885 Z-0.001
G01 X-3.971793136 Y6.70203315 Z-0.001
G03 X-2.06032017 Y6.714529518 Z-0.001 I-1.505630902 J376.504534316
G01 X-2.055482402 Y6.71941149 Z-0.001
G03 X-2.057068606 Y6.728828484 Z-0.001 I-0.028749048 J-0.0
G03 X-2.174904134 Y7.063882468 Z-0.001 I-37.555362712 J-13.01965855
G02 X-2.292127488 Y7.399041308 Z-0.001 I27.001725046 J9.632053656
G02 X-2.29432638 Y7.412236202 Z-0.001 I0.038488834 J0.013194894
G01 X-2.287562654 Y7.419051328 Z-0.001
G02 X-0.488068186 Y7.425810942 Z-0.001 I1.799494468 J-239.514857482
G02 X1.31009605 Y7.417714928 Z-0.001 I0.0 J-199.699802224
G01 X1.318190008 Y7.409547982 Z-0.001
G03 X1.3255289 Y7.353564644 Z-0.001 I0.217200466 J0.0
G03 X2.10197216 Y4.457406458 Z-0.001 I1166.25112998 J311.11309246
G03 X2.887165756 Y1.557472428 Z-0.001 I1164.42291114 J313.72587525
G03 X2.901802934 Y1.531820744 Z-0.001 I0.056955312 J0.015497614
G01 X2.92353434 Y1.52679074 Z-0.001
G03 X2.943406094 Y1.546747304 Z-0.001 I-0.01109726 J0.03092224
G03 X2.956470946 Y1.58964266 Z-0.001 I-0.476106378 J0.168446024
G03 X3.701373624 Y4.499971312 Z-0.001 I-2190.73865752 J562.273215668
G01 X4.444364736 Y7.410883354 Z-0.001
G01 X6.24354772 Y7.418583074 Z-0.001
G01 X8.042730704 Y7.426282794 Z-0.001
G01 X8.028246184 Y7.358873236 Z-0.001
G02 X8.010055724 Y7.292530228 Z-0.001 I-0.601485884 J0.12925301
G02 X7.908670252 Y7.002286764 Z-0.001 I-11.644534818 J3.904752116
G01 X7.803576784 Y6.713109336 Z-0.001
G01 X9.97219367 Y6.700326156 Z-0.001
G02 X12.298825464 Y6.630326552 Z-0.001 I-0.283627256 J-48.12800707
G02 X12.889505012 Y6.541875376 Z-0.001 I-0.171865152 J-3.164241568
G02 X13.730438824 Y6.211125114 Z-0.001 I-0.827872044 J-3.339279642
G02 X14.32118108 Y5.747736638 Z-0.001 I-1.15203848 J-2.07689924
G02 X14.768429956 Y5.052520798 Z-0.001 I-1.739739398 J-1.610686848
G02 X14.993462754 Y4.141705602 Z-0.001 I-2.817010924 J-1.17919824
G02 X14.705260898 Y2.649984568 Z-0.001 I-2.749189138 J-0.242555572
G02 X13.701605994 Y1.59660736 Z-0.001 I-2.256975028 J1.145611424
G01 X13.474192348 Y1.466992494 Z-0.001
G01 X14.587042954 Y-0.308087488 Z-0.001
G01 X15.699892018 Y-2.08316747 Z-0.001

G00 Z2

(Change tool to Default tool)

G00 Z2
G00 X11.319784478 Y3.007932626

G01 Z-0.001 F100.0(Penetrate)
G03 X11.788399306 Y3.159113904 Z-0.001 I-0.171035042 J1.332024832 F400.000000
G03 X12.030595078 Y3.392971568 Z-0.001 I-0.299034406 J0.552040626
G03 X12.087279512 Y3.535994638 Z-0.001 I-0.431964058 J0.253945298
G03 X12.109064374 Y3.73865353 Z-0.001 I-0.857720024 J0.194701144
G03 X12.055919344 Y4.014991238 Z-0.001 I-0.781489712 J-0.007016614
G03 X11.926600542 Y4.207718108 Z-0.001 I-0.495643004 J-0.19282453
G03 X11.712825372 Y4.320960532 Z-0.001 I-0.30935604 J-0.325591758
G03 X11.028693428 Y4.403287912 Z-0.001 I-0.775467688 J-3.560358752
G01 X10.483830298 Y4.416950032 Z-0.001
G01 X10.483830298 Y3.717048054 Z-0.001
G03 X10.493451864 Y3.021128548 Z-0.001 I25.17217854 J0.0
G03 X10.503732378 Y2.997242454 Z-0.001 I0.035147834 J0.000971974
G03 X10.601948526 Y2.957311336 Z-0.001 I0.096429998 J0.096429998
G03 X11.319782422 Y3.007933654 Z-0.001 I-0.08228112 J6.281604794
G01 X11.319784478 Y3.007932626 Z-0.001
G00 Z2

(End cutting path id: path1880)


M5 ( Spindle off )
G4 P1 ( Wait for spindle to stop )
M9 ( Coolant off )
M2 ( Program end )
